; generated by Slic3r 1.3.0 on 2020-03-26 at 19:52:47

; external perimeters extrusion width = 0.45mm (2.04mm^3/s)
; perimeters extrusion width = 0.45mm (3.66mm^3/s)
; infill extrusion width = 0.45mm (6.51mm^3/s)
; solid infill extrusion width = 0.45mm (6.51mm^3/s)
; top infill extrusion width = 0.45mm (3.26mm^3/s)

M107
M83  ; extruder relative mode
; G28 ; home all 
G0 Z25 ; move z 25 mm up
M104 S210 ; set extruder temp
M140 S60 ; set bed temp
M190 S60 ; wait for bed temp
M109 S210 ; wait for extruder temp
G28 ; home all
G29 ; mesh bed leveling
G92 E0.0
G1 Y10  F1000.0 ; intro line
G1 X60.0 E9.0  F1000.0 ; intro line
G1 Z0  F1000.0 ; intro line
G1 X100.0 E12.5  F1000.0 ; intro line
G92 E0.0



; Filament gcode

G21 ; set units to millimeters
G90 ; use absolute coordinates
M83 ; use relative distances for extrusion
;BEFORE_LAYER_CHANGE
G92 E0.0
;0.2
G1 E-0.50000 F7200.00000
G1 Z0.600 F7800.000
G1 X100.844 Y99.842 F7800.000
G1 Z0.200 F7800.000
G1 E0.50000 F7200.00000
G1 F1280.42
G1 X102.500 Y99.369 E0.05400
G1 X112.500 Y99.369 E0.31354
G1 X114.020 Y99.762 E0.04923
G1 X115.158 Y100.844 E0.04923
G1 X115.631 Y102.500 E0.05400
G1 X115.631 Y112.500 E0.31354
G1 X115.238 Y114.020 E0.04923
G1 X114.156 Y115.158 E0.04923
G1 X112.500 Y115.631 E0.05400
G1 X102.500 Y115.631 E0.31354
G1 X100.980 Y115.238 E0.04923
G1 X99.842 Y114.156 E0.04923
G1 X99.369 Y112.500 E0.05400
G1 X99.369 Y102.500 E0.31354
G1 X99.762 Y100.980 E0.04923
G1 X100.803 Y99.886 E0.04735
G1 X101.205 Y100.069 F7800.000
G1 F1280.42
G1 X102.500 Y99.746 E0.04186
G1 X112.500 Y99.746 E0.31354
G1 X113.917 Y100.139 E0.04612
G1 X114.931 Y101.205 E0.04612
G1 X115.254 Y102.500 E0.04186
G1 X115.254 Y112.500 E0.31354
G1 X114.861 Y113.917 E0.04612
G1 X113.795 Y114.931 E0.04612
G1 X112.500 Y115.254 E0.04186
G1 X102.500 Y115.254 E0.31354
G1 X101.083 Y114.861 E0.04612
G1 X100.069 Y113.795 E0.04612
G1 X99.746 Y112.500 E0.04186
G1 X99.746 Y102.500 E0.31354
G1 X100.139 Y101.083 E0.04612
G1 X101.161 Y100.111 E0.04424
G1 X101.560 Y100.317 F7800.000
G1 F1280.42
G1 X102.500 Y100.123 E0.03008
G1 X112.500 Y100.123 E0.31354
G1 X113.807 Y100.515 E0.04278
G1 X114.683 Y101.560 E0.04278
G1 X114.877 Y102.500 E0.03008
G1 X114.877 Y112.500 E0.31354
G1 X114.485 Y113.807 E0.04278
G1 X113.440 Y114.683 E0.04278
G1 X112.500 Y114.877 E0.03008
G1 X102.500 Y114.877 E0.31354
G1 X101.193 Y114.485 E0.04278
G1 X100.317 Y113.440 E0.04278
G1 X100.123 Y112.500 E0.03008
G1 X100.123 Y102.500 E0.31354
G1 X100.515 Y101.193 E0.04278
G1 X101.514 Y100.355 E0.04090
G1 F6240
G1 X101.936 Y100.256 E-0.47500
G1 E-0.02500 F7200.00000
G1 Z0.800 F7800.000
G1 X111.913 Y111.913 F7800.000
G1 Z0.200 F7800.000
G1 E0.50000 F7200.00000
G1 F1280.42
G1 X103.087 Y111.913 E0.27673
G1 X103.087 Y103.087 E0.27673
G1 X111.913 Y103.087 E0.27673
G1 X111.913 Y111.853 E0.27485
G1 X112.290 Y112.290 F7800.000
G1 F1800
G1 X102.710 Y112.290 E0.30037
G1 X102.710 Y102.710 E0.30037
G1 X112.290 Y102.710 E0.30037
G1 X112.290 Y112.230 E0.29849
G1 X111.904 Y112.186 F7800.000
G1 F6240
G1 X111.857 Y112.233 E-0.47500
G1 E-0.02500 F7200.00000
G1 Z0.800 F7800.000
G1 X111.469 Y111.603 F7800.000
G1 Z0.200 F7800.000
G1 E0.50000 F7200.00000
G1 F1280.42
G1 X111.603 Y111.469 E0.00597
G1 X111.603 Y110.931 E0.01702
G1 X110.931 Y111.603 E0.03005
G1 X110.393 Y111.603 E0.01702
G1 X111.603 Y110.393 E0.05412
G1 X111.603 Y109.855 E0.01702
G1 X109.855 Y111.603 E0.07820
G1 X109.317 Y111.603 E0.01702
G1 X111.603 Y109.317 E0.10228
G1 X111.603 Y108.779 E0.01702
G1 X108.779 Y111.603 E0.12636
G1 X108.240 Y111.603 E0.01702
G1 X111.603 Y108.240 E0.15043
G1 X111.603 Y107.702 E0.01702
G1 X107.702 Y111.603 E0.17451
G1 X107.164 Y111.603 E0.01702
G1 X111.603 Y107.164 E0.19859
G1 X111.603 Y106.626 E0.01702
G1 X106.626 Y111.603 E0.22266
G1 X106.088 Y111.603 E0.01702
G1 X111.603 Y106.088 E0.24674
G1 X111.603 Y105.550 E0.01702
G1 X105.550 Y111.603 E0.27082
G1 X105.012 Y111.603 E0.01702
G1 X111.603 Y105.012 E0.29489
G1 X111.603 Y104.474 E0.01702
G1 X104.474 Y111.603 E0.31897
G1 X103.936 Y111.603 E0.01702
G1 X111.603 Y103.936 E0.34305
G1 X111.603 Y103.397 E0.01702
G1 X103.397 Y111.603 E0.36712
G1 X103.397 Y111.064 E0.01702
G1 X111.064 Y103.397 E0.34305
G1 X110.526 Y103.397 E0.01702
G1 X103.397 Y110.526 E0.31897
G1 X103.397 Y109.988 E0.01702
G1 X109.988 Y103.397 E0.29489
G1 X109.450 Y103.397 E0.01702
G1 X103.397 Y109.450 E0.27082
G1 X103.397 Y108.912 E0.01702
G1 X108.912 Y103.397 E0.24674
G1 X108.374 Y103.397 E0.01702
G1 X103.397 Y108.374 E0.22266
G1 X103.397 Y107.836 E0.01702
G1 X107.836 Y103.397 E0.19859
G1 X107.298 Y103.397 E0.01702
G1 X103.397 Y107.298 E0.17451
G1 X103.397 Y106.760 E0.01702
G1 X106.760 Y103.397 E0.15043
G1 X106.221 Y103.397 E0.01702
G1 X103.397 Y106.221 E0.12636
G1 X103.397 Y105.683 E0.01702
G1 X105.683 Y103.397 E0.10228
G1 X105.145 Y103.397 E0.01702
G1 X103.397 Y105.145 E0.07820
G1 X103.397 Y104.607 E0.01702
G1 X104.607 Y103.397 E0.05413
G1 X104.069 Y103.397 E0.01702
G1 X103.397 Y104.069 E0.03005
G1 X103.397 Y103.531 E0.01702
G1 X103.531 Y103.397 E0.00597
M106 S255
M104 S200 ; set temperature
;BEFORE_LAYER_CHANGE
G92 E0.0
;0.4
G1 F6240
G1 X103.397 Y103.531 E-0.20690
G1 F6240
G1 X103.397 Y103.776 E-0.26810
G1 E-0.02500 F7200.00000
G1 Z0.800 F7800.000
G1 X100.844 Y99.842 F7800.000
G1 Z0.400 F7800.000
G1 E0.50000 F7200.00000
G1 F900
G1 X102.500 Y99.369 E0.05400
G1 X112.500 Y99.369 E0.31354
G1 X114.020 Y99.762 E0.04923
G1 X115.158 Y100.844 E0.04923
G1 X115.631 Y102.500 E0.05400
G1 X115.631 Y112.500 E0.31354
G1 X115.238 Y114.020 E0.04923
G1 X114.156 Y115.158 E0.04923
G1 X112.500 Y115.631 E0.05400
G1 X102.500 Y115.631 E0.31354
G1 X100.980 Y115.238 E0.04923
G1 X99.842 Y114.156 E0.04923
G1 X99.369 Y112.500 E0.05400
G1 X99.369 Y102.500 E0.31354
G1 X99.762 Y100.980 E0.04923
G1 X100.803 Y99.886 E0.04735
G1 F6240
G1 X101.217 Y99.760 E-0.47500
G1 E-0.02500 F7200.00000
G1 Z1.000 F7800.000
G1 X111.868 Y111.868 F7800.000
G1 Z0.400 F7800.000
G1 E0.50000 F7200.00000
G1 F900
G1 X103.132 Y111.868 E0.29570
G1 X103.132 Y103.132 E0.29570
G1 X111.868 Y103.132 E0.29570
G1 X111.868 Y111.808 E0.29367
G1 X112.275 Y112.275 F7800.000
G1 F1500
G1 X102.725 Y112.275 E0.32326
G1 X102.725 Y102.725 E0.32326
G1 X112.275 Y102.725 E0.32326
G1 X112.275 Y112.215 E0.32123
G1 X111.889 Y112.171 F7800.000
G1 X111.533 Y103.611 F7800.000
G1 F1231.63
G1 X111.389 Y103.467 E0.00703
G1 X110.802 Y103.467 E0.02024
G1 X111.533 Y104.198 E0.03566
G1 X111.533 Y104.785 E0.02024
G1 X110.215 Y103.467 E0.06429
G1 X109.628 Y103.467 E0.02024
G1 X111.533 Y105.372 E0.09292
G1 X111.533 Y105.958 E0.02024
G1 X109.042 Y103.467 E0.12155
G1 X108.455 Y103.467 E0.02024
G1 X111.533 Y106.545 E0.15018
G1 X111.533 Y107.132 E0.02024
G1 X107.868 Y103.467 E0.17881
G1 X107.281 Y103.467 E0.02024
G1 X111.533 Y107.719 E0.20744
G1 X111.533 Y108.306 E0.02024
G1 X106.694 Y103.467 E0.23607
G1 X106.108 Y103.467 E0.02024
G1 X111.533 Y108.892 E0.26470
G1 X111.533 Y109.479 E0.02024
G1 X105.521 Y103.467 E0.29333
G1 X104.934 Y103.467 E0.02024
G1 X111.533 Y110.066 E0.32196
G1 X111.533 Y110.653 E0.02024
G1 X104.347 Y103.467 E0.35059
G1 X103.761 Y103.467 E0.02024
G1 X111.533 Y111.239 E0.37922
G1 X111.533 Y111.533 E0.01012
G1 X111.239 Y111.533 E0.01012
G1 X103.467 Y103.761 E0.37922
G1 X103.467 Y104.347 E0.02024
G1 X110.653 Y111.533 E0.35059
G1 X110.066 Y111.533 E0.02024
G1 X103.467 Y104.934 E0.32196
G1 X103.467 Y105.521 E0.02024
G1 X109.479 Y111.533 E0.29333
G1 X108.892 Y111.533 E0.02024
G1 X103.467 Y106.108 E0.26470
G1 X103.467 Y106.694 E0.02024
G1 X108.306 Y111.533 E0.23607
G1 X107.719 Y111.533 E0.02024
G1 X103.467 Y107.281 E0.20744
G1 X103.467 Y107.868 E0.02024
G1 X107.132 Y111.533 E0.17881
G1 X106.545 Y111.533 E0.02024
G1 X103.467 Y108.455 E0.15018
G1 X103.467 Y109.042 E0.02024
G1 X105.958 Y111.533 E0.12155
G1 X105.372 Y111.533 E0.02024
G1 X103.467 Y109.628 E0.09292
G1 X103.467 Y110.215 E0.02024
G1 X104.785 Y111.533 E0.06429
G1 X104.198 Y111.533 E0.02024
G1 X103.467 Y110.802 E0.03566
G1 X103.467 Y111.389 E0.02024
G1 X103.611 Y111.533 E0.00702
;BEFORE_LAYER_CHANGE
G92 E0.0
;0.6
G1 F6240
G1 X103.467 Y111.389 E-0.22311
G1 F6240
G1 X103.467 Y111.159 E-0.25189
G1 E-0.02500 F7200.00000
G1 Z1.000 F7800.000
G1 X100.844 Y99.842 F7800.000
G1 Z0.600 F7800.000
G1 E0.50000 F7200.00000
G1 F900
G1 X102.500 Y99.369 E0.05400
G1 X112.500 Y99.369 E0.31354
G1 X114.020 Y99.762 E0.04923
G1 X115.158 Y100.844 E0.04923
G1 X115.631 Y102.500 E0.05400
G1 X115.631 Y112.500 E0.31354
G1 X115.238 Y114.020 E0.04923
G1 X114.156 Y115.158 E0.04923
G1 X112.500 Y115.631 E0.05400
G1 X102.500 Y115.631 E0.31354
G1 X100.980 Y115.238 E0.04923
G1 X99.842 Y114.156 E0.04923
G1 X99.369 Y112.500 E0.05400
G1 X99.369 Y102.500 E0.31354
G1 X99.762 Y100.980 E0.04923
G1 X100.803 Y99.886 E0.04735
G1 F6240
G1 X101.217 Y99.760 E-0.47500
G1 E-0.02500 F7200.00000
G1 Z1.200 F7800.000
G1 X111.868 Y111.868 F7800.000
G1 Z0.600 F7800.000
G1 E0.50000 F7200.00000
G1 F900
G1 X103.132 Y111.868 E0.29570
G1 X103.132 Y103.132 E0.29570
G1 X111.868 Y103.132 E0.29570
G1 X111.868 Y111.808 E0.29367
G1 X112.275 Y112.275 F7800.000
G1 F1500
G1 X102.725 Y112.275 E0.32326
G1 X102.725 Y102.725 E0.32326
G1 X112.275 Y102.725 E0.32326
G1 X112.275 Y112.215 E0.32123
G1 X111.889 Y112.171 F7800.000
G1 X111.389 Y111.533 F7800.000
G1 F1231.63
G1 X111.533 Y111.389 E0.00703
G1 X111.533 Y110.802 E0.02024
G1 X110.802 Y111.533 E0.03566
G1 X110.215 Y111.533 E0.02024
G1 X111.533 Y110.215 E0.06429
G1 X111.533 Y109.628 E0.02024
G1 X109.628 Y111.533 E0.09292
G1 X109.042 Y111.533 E0.02024
G1 X111.533 Y109.042 E0.12155
G1 X111.533 Y108.455 E0.02024
G1 X108.455 Y111.533 E0.15018
G1 X107.868 Y111.533 E0.02024
G1 X111.533 Y107.868 E0.17881
G1 X111.533 Y107.281 E0.02024
G1 X107.281 Y111.533 E0.20744
G1 X106.694 Y111.533 E0.02024
G1 X111.533 Y106.694 E0.23607
G1 X111.533 Y106.108 E0.02024
G1 X106.108 Y111.533 E0.26470
G1 X105.521 Y111.533 E0.02024
G1 X111.533 Y105.521 E0.29333
G1 X111.533 Y104.934 E0.02024
G1 X104.934 Y111.533 E0.32196
G1 X104.347 Y111.533 E0.02024
G1 X111.533 Y104.347 E0.35059
G1 X111.533 Y103.761 E0.02024
G1 X103.761 Y111.533 E0.37922
G1 X103.467 Y111.533 E0.01012
G1 X103.467 Y111.239 E0.01012
G1 X111.239 Y103.467 E0.37922
G1 X110.653 Y103.467 E0.02024
G1 X103.467 Y110.653 E0.35059
G1 X103.467 Y110.066 E0.02024
G1 X110.066 Y103.467 E0.32196
G1 X109.479 Y103.467 E0.02024
G1 X103.467 Y109.479 E0.29333
G1 X103.467 Y108.892 E0.02024
G1 X108.892 Y103.467 E0.26470
G1 X108.306 Y103.467 E0.02024
G1 X103.467 Y108.306 E0.23607
G1 X103.467 Y107.719 E0.02024
G1 X107.719 Y103.467 E0.20744
G1 X107.132 Y103.467 E0.02024
G1 X103.467 Y107.132 E0.17881
G1 X103.467 Y106.545 E0.02024
G1 X106.545 Y103.467 E0.15018
G1 X105.958 Y103.467 E0.02024
G1 X103.467 Y105.958 E0.12155
G1 X103.467 Y105.372 E0.02024
G1 X105.372 Y103.467 E0.09292
G1 X104.785 Y103.467 E0.02024
G1 X103.467 Y104.785 E0.06429
G1 X103.467 Y104.198 E0.02024
G1 X104.198 Y103.467 E0.03566
G1 X103.611 Y103.467 E0.02024
G1 X103.467 Y103.611 E0.00702
;BEFORE_LAYER_CHANGE
G92 E0.0
;0.8
G1 F6240
G1 X103.611 Y103.467 E-0.22311
G1 F6240
G1 X103.841 Y103.467 E-0.25189
G1 E-0.02500 F7200.00000
G1 Z1.200 F7800.000
G1 X111.868 Y111.868 F7800.000
G1 Z0.800 F7800.000
G1 E0.50000 F7200.00000
G1 F900
G1 X103.132 Y111.868 E0.29570
G1 X103.132 Y103.132 E0.29570
G1 X111.868 Y103.132 E0.29570
G1 X111.868 Y111.808 E0.29367
G1 X112.275 Y112.275 F7800.000
G1 F1500
G1 X102.725 Y112.275 E0.32326
G1 X102.725 Y102.725 E0.32326
G1 X112.275 Y102.725 E0.32326
G1 X112.275 Y112.215 E0.32123
G1 X111.889 Y112.171 F7800.000
G1 X111.533 Y103.611 F7800.000
G1 F923.023
G1 X111.389 Y103.467 E0.00703
G1 X110.802 Y103.467 E0.02024
G1 X111.533 Y104.198 E0.03566
G1 X111.533 Y104.785 E0.02024
G1 X110.215 Y103.467 E0.06429
G1 X109.628 Y103.467 E0.02024
G1 X111.533 Y105.372 E0.09292
G1 X111.533 Y105.958 E0.02024
G1 X109.042 Y103.467 E0.12155
G1 X108.455 Y103.467 E0.02024
G1 X111.533 Y106.545 E0.15018
G1 X111.533 Y107.132 E0.02024
G1 X107.868 Y103.467 E0.17881
G1 X107.281 Y103.467 E0.02024
G1 X111.533 Y107.719 E0.20744
G1 X111.533 Y108.306 E0.02024
G1 X106.694 Y103.467 E0.23607
G1 X106.108 Y103.467 E0.02024
G1 X111.533 Y108.892 E0.26470
G1 X111.533 Y109.479 E0.02024
G1 X105.521 Y103.467 E0.29333
G1 X104.934 Y103.467 E0.02024
G1 X111.533 Y110.066 E0.32196
G1 X111.533 Y110.653 E0.02024
G1 X104.347 Y103.467 E0.35059
G1 X103.761 Y103.467 E0.02024
G1 X111.533 Y111.239 E0.37922
G1 X111.533 Y111.533 E0.01012
G1 X111.239 Y111.533 E0.01012
G1 X103.467 Y103.761 E0.37922
G1 X103.467 Y104.347 E0.02024
G1 X110.653 Y111.533 E0.35059
G1 X110.066 Y111.533 E0.02024
G1 X103.467 Y104.934 E0.32196
G1 X103.467 Y105.521 E0.02024
G1 X109.479 Y111.533 E0.29333
G1 X108.892 Y111.533 E0.02024
G1 X103.467 Y106.108 E0.26470
G1 X103.467 Y106.694 E0.02024
G1 X108.306 Y111.533 E0.23607
G1 X107.719 Y111.533 E0.02024
G1 X103.467 Y107.281 E0.20744
G1 X103.467 Y107.868 E0.02024
G1 X107.132 Y111.533 E0.17881
G1 X106.545 Y111.533 E0.02024
G1 X103.467 Y108.455 E0.15018
G1 X103.467 Y109.042 E0.02024
G1 X105.958 Y111.533 E0.12155
G1 X105.372 Y111.533 E0.02024
G1 X103.467 Y109.628 E0.09292
G1 X103.467 Y110.215 E0.02024
G1 X104.785 Y111.533 E0.06429
G1 X104.198 Y111.533 E0.02024
G1 X103.467 Y110.802 E0.03566
G1 X103.467 Y111.389 E0.02024
G1 X103.611 Y111.533 E0.00702
;BEFORE_LAYER_CHANGE
G92 E0.0
;1
G1 F6240
G1 X103.467 Y111.389 E-0.22311
G1 F6240
G1 X103.467 Y111.159 E-0.25189
G1 E-0.02500 F7200.00000
G1 Z1.400 F7800.000
G1 X111.868 Y111.868 F7800.000
G1 Z1.000 F7800.000
G1 E0.50000 F7200.00000
G1 F900
G1 X103.132 Y111.868 E0.29570
G1 X103.132 Y103.132 E0.29570
G1 X111.868 Y103.132 E0.29570
G1 X111.868 Y111.808 E0.29367
G1 X112.275 Y112.275 F7800.000
G1 F1500
G1 X102.725 Y112.275 E0.32326
G1 X102.725 Y102.725 E0.32326
G1 X112.275 Y102.725 E0.32326
G1 X112.275 Y112.215 E0.32123
G1 X111.889 Y112.171 F7800.000
G1 X110.663 Y111.533 F7800.000
G1 F900
G1 X111.533 Y110.663 E0.04162
G1 X111.533 Y109.224 E0.04872
G1 X109.224 Y111.533 E0.11051
G1 X107.785 Y111.533 E0.04872
G1 X111.533 Y107.785 E0.17941
G1 X111.533 Y106.346 E0.04872
G1 X106.346 Y111.533 E0.24831
G1 X104.906 Y111.533 E0.04872
G1 X111.533 Y104.906 E0.31720
G1 X111.533 Y103.467 E0.04872
G1 X103.467 Y111.533 E0.38610
G1 X103.467 Y110.094 E0.04872
G1 X110.094 Y103.467 E0.31720
G1 X108.654 Y103.467 E0.04872
G1 X103.467 Y108.654 E0.24831
G1 X103.467 Y107.215 E0.04872
G1 X107.215 Y103.467 E0.17941
G1 X105.776 Y103.467 E0.04872
G1 X103.467 Y105.776 E0.11051
G1 X103.467 Y104.337 E0.04872
G1 X104.337 Y103.467 E0.04162
;BEFORE_LAYER_CHANGE
G92 E0.0
;1.2
G1 F6240
G1 X104.030 Y103.774 E-0.47500
G1 E-0.02500 F7200.00000
G1 Z1.600 F7800.000
G1 X111.868 Y111.868 F7800.000
G1 Z1.200 F7800.000
G1 E0.50000 F7200.00000
G1 F900
G1 X103.132 Y111.868 E0.29570
G1 X103.132 Y103.132 E0.29570
G1 X111.868 Y103.132 E0.29570
G1 X111.868 Y111.808 E0.29367
G1 X112.275 Y112.275 F7800.000
G1 F1500
G1 X102.725 Y112.275 E0.32326
G1 X102.725 Y102.725 E0.32326
G1 X112.275 Y102.725 E0.32326
G1 X112.275 Y112.215 E0.32123
G1 X111.889 Y112.171 F7800.000
G1 X111.533 Y104.337 F7800.000
G1 F900
G1 X110.663 Y103.467 E0.04162
G1 X109.224 Y103.467 E0.04872
G1 X111.533 Y105.776 E0.11051
G1 X111.533 Y107.215 E0.04872
G1 X107.785 Y103.467 E0.17941
G1 X106.346 Y103.467 E0.04872
G1 X111.533 Y108.654 E0.24831
G1 X111.533 Y110.094 E0.04872
G1 X104.906 Y103.467 E0.31720
G1 X103.467 Y103.467 E0.04872
G1 X111.533 Y111.533 E0.38610
G1 X110.094 Y111.533 E0.04872
G1 X103.467 Y104.906 E0.31720
G1 X103.467 Y106.346 E0.04872
G1 X108.654 Y111.533 E0.24831
G1 X107.215 Y111.533 E0.04872
G1 X103.467 Y107.785 E0.17941
G1 X103.467 Y109.224 E0.04872
G1 X105.776 Y111.533 E0.11051
G1 X104.337 Y111.533 E0.04872
G1 X103.467 Y110.663 E0.04162
;BEFORE_LAYER_CHANGE
G92 E0.0
;1.4
G1 F6240
G1 X103.774 Y110.970 E-0.47500
G1 E-0.02500 F7200.00000
G1 Z1.800 F7800.000
G1 X111.868 Y111.868 F7800.000
G1 Z1.400 F7800.000
G1 E0.50000 F7200.00000
G1 F900
G1 X103.132 Y111.868 E0.29570
G1 X103.132 Y103.132 E0.29570
G1 X111.868 Y103.132 E0.29570
G1 X111.868 Y111.808 E0.29367
G1 X112.275 Y112.275 F7800.000
G1 F1500
G1 X102.725 Y112.275 E0.32326
G1 X102.725 Y102.725 E0.32326
G1 X112.275 Y102.725 E0.32326
