; generated by PrusaSlicer 2.2.0+linux-x64 on 2021-03-10 at 20:29:36 UTC

; 

; external perimeters extrusion width = 0.45mm
; perimeters extrusion width = 0.45mm
; infill extrusion width = 0.45mm
; solid infill extrusion width = 0.45mm
; top infill extrusion width = 0.40mm
; first layer extrusion width = 0.42mm

M201 X9000 Y9000 Z500 E10000 ; sets maximum accelerations, mm/sec^2
M203 X500 Y500 Z12 E120 ; sets maximum feedrates, mm/sec
M204 P1500 R1500 T1500 ; sets acceleration (P, T) and retract acceleration (R), mm/sec^2
M205 X10.00 Y10.00 Z0.20 E2.50 ; sets the jerk limits, mm/sec
M205 S0 T0 ; sets the minimum extruding and travel feed rate, mm/sec
M107
M83  ; extruder relative mode
G0 Z25 ; move z 25 mm up

M104 S230 ; set extruder temp
M140 S85 ; set bed temp
M190 S85 ; wait for bed temp
M109 S230 ; wait for extruder temp

G28 ; home all
; G29 ; mesh bed leveling
G92 E0.0
G1 Y10  F1000.0 ; intro line
G1 X60.0 E9.0  F1000.0 ; intro line
G1 Z0  F1000.0 ; intro line
G1 X100.0 E12.5  F1000.0 ; intro line
G92 E0.0


G21 ; set units to millimeters
G90 ; use absolute coordinates
M83 ; use relative distances for extrusion
M900 K45 ; Filament gcode
G1 E-1.40000 F7200.00000
G1 Z0.200 F7800.000
G1 Z0.400
G1 X89.812 Y20.740
G1 Z0.200
G1 E1.40000 F7200.00000
G1 F1800.000
G1 X90.266 Y19.447 E0.03651
G1 X90.985 Y18.281 E0.03651
G1 X91.936 Y17.296 E0.03651
G1 X93.077 Y16.537 E0.03651
G1 X94.149 Y16.097 E0.03088
G1 X95.283 Y15.859 E0.03088
G1 X99.277 Y15.816 E0.10647
G1 X117.425 Y16.178 E0.48376
G1 X118.307 Y16.259 E0.02359
G1 X119.748 Y16.674 E0.03998
G1 X121.054 Y17.413 E0.03998
G1 X122.150 Y18.437 E0.03998
G1 X122.974 Y19.683 E0.03981
G1 X123.491 Y21.111 E0.04047
G1 X126.084 Y33.097 E0.32684
G1 X126.156 Y34.005 E0.02425
G1 X126.138 Y40.533 E0.17399
G1 X126.012 Y41.403 E0.02343
G1 X123.505 Y52.932 E0.31445
G1 X123.282 Y53.705 E0.02143
G1 X122.768 Y54.799 E0.03221
G1 X122.057 Y55.776 E0.03221
G1 X121.175 Y56.602 E0.03221
G1 X120.147 Y57.249 E0.03237
G1 X118.792 Y57.748 E0.03849
G1 X117.353 Y57.930 E0.03866
G1 X113.917 Y57.929 E0.09157
G1 X95.346 Y57.534 E0.49504
G1 X93.801 Y57.171 E0.04229
G1 X92.394 Y56.438 E0.04229
G1 X91.211 Y55.380 E0.04229
G1 X90.326 Y54.063 E0.04229
G1 X89.828 Y52.714 E0.03833
G1 X89.645 Y51.294 E0.03816
G1 X89.644 Y22.156 E0.77657
G1 X89.805 Y20.799 E0.03640
G1 F6240.000
G1 X90.196 Y19.651 E-1.33000
G1 E-0.07000 F7200.00000
G1 Z0.400 F7800.000
G1 X96.808 Y22.980
G1 Z0.200
G1 E1.40000 F7200.00000
G1 F1800.000
G1 X98.637 Y22.980 E0.04873
G1 X100.984 Y33.778 E0.29449
G1 X100.984 Y39.608 E0.15540
G1 X98.637 Y50.406 E0.29449
G1 X96.808 Y50.406 E0.04873
G1 X96.808 Y23.040 E0.72933
G1 X96.431 Y22.603 F7800.000
G1 F1800.000
G1 X98.941 Y22.603 E0.06688
G1 X101.361 Y33.737 E0.30367
G1 X101.361 Y39.649 E0.15756
G1 X98.941 Y50.783 E0.30367
G1 X96.431 Y50.783 E0.06688
G1 X96.431 Y22.663 E0.74943
G1 X96.783 Y22.793 F7800.000
G1 F6240.000
G1 X97.644 Y22.634 E-1.33000
G1 E-0.07000 F7200.00000
G1 Z0.400 F7800.000
G1 X97.686 Y50.293
G1 Z0.200
G1 E1.40000 F7200.00000
G1 F1800.000
G1 X97.091 Y49.698 E0.02251
G1 X97.091 Y49.163 E0.01431
G1 X98.052 Y50.123 E0.03633
G1 X98.409 Y50.123 E0.00955
G1 X98.441 Y49.977 E0.00400
G1 X97.091 Y48.627 E0.05104
G1 X97.091 Y48.092 E0.01431
G1 X98.536 Y49.538 E0.05466
G1 X98.632 Y49.098 E0.01203
G1 X97.091 Y47.557 E0.05827
G1 X97.091 Y47.022 E0.01431
G1 X98.727 Y48.658 E0.06188
G1 X98.823 Y48.219 E0.01203
G1 X97.091 Y46.487 E0.06550
G1 X97.091 Y45.952 E0.01431
G1 X98.918 Y47.779 E0.06911
G1 X99.014 Y47.340 E0.01203
G1 X97.091 Y45.417 E0.07273
G1 X97.091 Y44.882 E0.01431
G1 X99.110 Y46.900 E0.07634
G1 X99.205 Y46.461 E0.01203
G1 X97.091 Y44.347 E0.07995
G1 X97.091 Y43.812 E0.01431
G1 X99.301 Y46.021 E0.08357
G1 X99.396 Y45.582 E0.01203
G1 X97.091 Y43.276 E0.08718
G1 X97.091 Y42.741 E0.01431
G1 X99.492 Y45.142 E0.09079
G1 X99.587 Y44.702 E0.01203
G1 X97.091 Y42.206 E0.09441
G1 X97.091 Y41.671 E0.01431
G1 X99.683 Y44.263 E0.09802
G1 X99.778 Y43.823 E0.01203
G1 X97.091 Y41.136 E0.10164
G1 X97.091 Y40.601 E0.01431
G1 X99.874 Y43.384 E0.10525
G1 X99.970 Y42.944 E0.01203
G1 X97.091 Y40.066 E0.10886
G1 X97.091 Y39.531 E0.01431
G1 X100.065 Y42.505 E0.11248
G1 X100.161 Y42.065 E0.01203
G1 X97.091 Y38.996 E0.11609
G1 X97.091 Y38.460 E0.01431
G1 X100.256 Y41.626 E0.11971
G1 X100.352 Y41.186 E0.01203
G1 X97.091 Y37.925 E0.12332
G1 X97.091 Y37.390 E0.01431
G1 X100.447 Y40.746 E0.12693
G1 X100.543 Y40.307 E0.01203
G1 X97.091 Y36.855 E0.13055
G1 X97.091 Y36.320 E0.01431
G1 X100.638 Y39.867 E0.13416
G1 X100.701 Y39.578 E0.00792
G1 X100.701 Y39.395 E0.00489
G1 X97.091 Y35.785 E0.13654
G1 X97.091 Y35.250 E0.01431
G1 X100.701 Y38.860 E0.13654
G1 X100.701 Y38.325 E0.01431
G1 X97.091 Y34.715 E0.13654
G1 X97.091 Y34.180 E0.01431
G1 X100.701 Y37.790 E0.13654
G1 X100.701 Y37.255 E0.01431
G1 X97.091 Y33.645 E0.13654
G1 X97.091 Y33.109 E0.01431
G1 X100.701 Y36.720 E0.13654
G1 X100.701 Y36.185 E0.01431
G1 X97.091 Y32.574 E0.13654
G1 X97.091 Y32.039 E0.01431
G1 X100.701 Y35.649 E0.13654
G1 X100.701 Y35.114 E0.01431
G1 X97.091 Y31.504 E0.13654
G1 X97.091 Y30.969 E0.01431
G1 X100.701 Y34.579 E0.13654
G1 X100.701 Y34.044 E0.01431
G1 X97.091 Y30.434 E0.13654
G1 X97.091 Y29.899 E0.01431
G1 X100.618 Y33.426 E0.13340
G1 X100.470 Y32.742 E0.01871
G1 X97.091 Y29.364 E0.12778
G1 X97.091 Y28.829 E0.01431
G1 X100.321 Y32.058 E0.12216
G1 X100.172 Y31.375 E0.01871
G1 X97.091 Y28.293 E0.11653
G1 X97.091 Y27.758 E0.01431
G1 X100.024 Y30.691 E0.11091
G1 X99.875 Y30.007 E0.01871
G1 X97.091 Y27.223 E0.10529
G1 X97.091 Y26.688 E0.01431
G1 X99.726 Y29.324 E0.09967
G1 X99.578 Y28.640 E0.01871
G1 X97.091 Y26.153 E0.09405
G1 X97.091 Y25.618 E0.01431
G1 X99.429 Y27.956 E0.08843
G1 X99.281 Y27.272 E0.01871
G1 X97.091 Y25.083 E0.08280
G1 X97.091 Y24.548 E0.01431
G1 X99.132 Y26.589 E0.07718
G1 X98.983 Y25.905 E0.01871
G1 X97.091 Y24.013 E0.07156
G1 X97.091 Y23.478 E0.01431
G1 X98.835 Y25.221 E0.06594
G1 X98.686 Y24.537 E0.01871
G1 X97.412 Y23.263 E0.04820
G1 X97.947 Y23.263 E0.01431
G1 X98.759 Y24.075 E0.03073
G1 F6240.000
G1 X97.947 Y23.263 E-1.25956
G1 X97.882 Y23.263 E-0.07044
G1 E-0.07000 F7200.00000
G1 Z0.400 F7800.000
G1 X114.816 Y23.340
G1 Z0.200
G1 E1.40000 F7200.00000
G1 F1800.000
G1 X116.645 Y23.340 E0.04873
G1 X118.992 Y34.138 E0.29449
G1 X118.992 Y39.969 E0.15540
G1 X116.645 Y50.766 E0.29449
G1 X114.816 Y50.766 E0.04873
G1 X114.816 Y23.400 E0.72933
G1 X114.439 Y22.963 F7800.000
G1 F1800.000
G1 X116.949 Y22.963 E0.06688
G1 X119.369 Y34.097 E0.30367
G1 X119.369 Y40.009 E0.15756
G1 X116.949 Y51.143 E0.30367
G1 X114.439 Y51.143 E0.06688
G1 X114.439 Y23.023 E0.74943
G1 X114.791 Y23.153 F7800.000
G1 F6240.000
G1 X115.652 Y22.994 E-1.33000
G1 E-0.07000 F7200.00000
G1 Z0.400 F7800.000
G1 X115.694 Y50.653
G1 Z0.200
G1 E1.40000 F7200.00000
G1 F1800.000
G1 X115.099 Y50.058 E0.02251
G1 X115.099 Y49.523 E0.01431
G1 X116.060 Y50.483 E0.03633
G1 X116.417 Y50.483 E0.00955
G1 X116.449 Y50.337 E0.00400
G1 X115.099 Y48.988 E0.05104
G1 X115.099 Y48.453 E0.01431
G1 X116.544 Y49.898 E0.05466
G1 X116.640 Y49.458 E0.01203
G1 X115.099 Y47.917 E0.05827
G1 X115.099 Y47.382 E0.01431
G1 X116.735 Y49.019 E0.06188
G1 X116.831 Y48.579 E0.01203
G1 X115.099 Y46.847 E0.06550
G1 X115.099 Y46.312 E0.01431
G1 X116.926 Y48.139 E0.06911
G1 X117.022 Y47.700 E0.01203
G1 X115.099 Y45.777 E0.07273
G1 X115.099 Y45.242 E0.01431
G1 X117.117 Y47.260 E0.07634
G1 X117.213 Y46.821 E0.01203
G1 X115.099 Y44.707 E0.07995
G1 X115.099 Y44.172 E0.01431
G1 X117.308 Y46.381 E0.08357
G1 X117.404 Y45.942 E0.01203
G1 X115.099 Y43.637 E0.08718
G1 X115.099 Y43.101 E0.01431
G1 X117.500 Y45.502 E0.09079
G1 X117.595 Y45.063 E0.01203
G1 X115.099 Y42.566 E0.09441
G1 X115.099 Y42.031 E0.01431
G1 X117.691 Y44.623 E0.09802
G1 X117.786 Y44.184 E0.01203
G1 X115.099 Y41.496 E0.10164
G1 X115.099 Y40.961 E0.01431
G1 X117.882 Y43.744 E0.10525
G1 X117.977 Y43.304 E0.01203
G1 X115.099 Y40.426 E0.10886
G1 X115.099 Y39.891 E0.01431
G1 X118.073 Y42.865 E0.11248
G1 X118.168 Y42.425 E0.01203
G1 X115.099 Y39.356 E0.11609
G1 X115.099 Y38.821 E0.01431
G1 X118.264 Y41.986 E0.11971
G1 X118.360 Y41.546 E0.01203
G1 X115.099 Y38.286 E0.12332
G1 X115.099 Y37.750 E0.01431
G1 X118.455 Y41.107 E0.12693
G1 X118.551 Y40.667 E0.01203
G1 X115.099 Y37.215 E0.13055
G1 X115.099 Y36.680 E0.01431
G1 X118.646 Y40.228 E0.13416
G1 X118.709 Y39.938 E0.00792
G1 X118.709 Y39.755 E0.00489
G1 X115.099 Y36.145 E0.13654
G1 X115.099 Y35.610 E0.01431
G1 X118.709 Y39.220 E0.13654
G1 X118.709 Y38.685 E0.01431
G1 X115.099 Y35.075 E0.13654
G1 X115.099 Y34.540 E0.01431
G1 X118.709 Y38.150 E0.13654
G1 X118.709 Y37.615 E0.01431
G1 X115.099 Y34.005 E0.13654
G1 X115.099 Y33.470 E0.01431
G1 X118.709 Y37.080 E0.13654
G1 X118.709 Y36.545 E0.01431
G1 X115.099 Y32.934 E0.13654
G1 X115.099 Y32.399 E0.01431
G1 X118.709 Y36.010 E0.13654
G1 X118.709 Y35.475 E0.01431
G1 X115.099 Y31.864 E0.13654
G1 X115.099 Y31.329 E0.01431
G1 X118.709 Y34.939 E0.13654
G1 X118.709 Y34.404 E0.01431
G1 X115.099 Y30.794 E0.13654
G1 X115.099 Y30.259 E0.01431
G1 X118.626 Y33.786 E0.13340
G1 X118.477 Y33.102 E0.01871
G1 X115.099 Y29.724 E0.12778
G1 X115.099 Y29.189 E0.01431
G1 X118.329 Y32.419 E0.12216
G1 X118.180 Y31.735 E0.01871
G1 X115.099 Y28.654 E0.11653
G1 X115.099 Y28.119 E0.01431
G1 X118.032 Y31.051 E0.11091
G1 X117.883 Y30.367 E0.01871
G1 X115.099 Y27.583 E0.10529
G1 X115.099 Y27.048 E0.01431
G1 X117.734 Y29.684 E0.09967
G1 X117.586 Y29.000 E0.01871
G1 X115.099 Y26.513 E0.09405
G1 X115.099 Y25.978 E0.01431
G1 X117.437 Y28.316 E0.08843
G1 X117.288 Y27.632 E0.01871
G1 X115.099 Y25.443 E0.08280
G1 X115.099 Y24.908 E0.01431
G1 X117.140 Y26.949 E0.07718
G1 X116.991 Y26.265 E0.01871
G1 X115.099 Y24.373 E0.07156
G1 X115.099 Y23.838 E0.01431
G1 X116.842 Y25.581 E0.06594
G1 X116.694 Y24.897 E0.01871
G1 X115.419 Y23.623 E0.04820
G1 X115.955 Y23.623 E0.01431
G1 X116.767 Y24.436 E0.03073
G1 F6240.000
G1 X115.955 Y23.623 E-1.25956
G1 X115.890 Y23.623 E-0.07044
G1 E-0.07000 F7200.00000
G1 Z0.400 F7800.000
M104 S240 ; set temperature
M140 S90 ; set bed temperature
G1 Z0.600
G1 X119.748 Y16.674
G1 Z0.400
G1 E1.40000 F7200.00000
G1 F0.000
G1 X121.054 Y17.413 E0.03998
G1 X122.150 Y18.437 E0.03998
G1 X122.974 Y19.683 E0.03981
G1 X123.491 Y21.111 E0.04047
G1 X126.084 Y33.097 E0.32684
G1 X126.156 Y34.005 E0.02425
G1 X126.138 Y40.533 E0.17399
G1 X126.012 Y41.403 E0.02343
G1 X123.505 Y52.932 E0.31445
G1 X123.282 Y53.705 E0.02143
G1 X122.768 Y54.799 E0.03221
G1 X122.057 Y55.776 E0.03221
G1 X121.175 Y56.602 E0.03221
G1 X120.147 Y57.249 E0.03237
G1 X118.792 Y57.748 E0.03849
G1 X117.353 Y57.930 E0.03866
G1 X113.917 Y57.929 E0.09157
G1 X95.346 Y57.534 E0.49504
G1 X93.801 Y57.171 E0.04229
G1 X92.394 Y56.438 E0.04229
G1 X91.211 Y55.380 E0.04229
G1 X90.326 Y54.063 E0.04229
G1 X89.828 Y52.714 E0.03833
G1 X89.645 Y51.294 E0.03816
G1 X89.644 Y22.156 E0.77657
G1 X89.812 Y20.740 E0.03800
G1 X90.266 Y19.447 E0.03651
G1 X90.985 Y18.281 E0.03651
G1 X91.936 Y17.296 E0.03651
G1 X93.077 Y16.537 E0.03651
G1 X94.149 Y16.097 E0.03088
G1 X95.283 Y15.859 E0.03088
G1 X99.277 Y15.816 E0.10647
G1 X117.425 Y16.178 E0.48376
G1 X118.307 Y16.259 E0.02359
G1 X119.691 Y16.657 E0.03838
G1 F6240.000
G1 X120.752 Y17.246 E-1.33000
G1 E-0.07000 F7200.00000
G1 Z0.600 F7800.000
G1 X98.762 Y22.825
G1 Z0.400
G1 E1.40000 F7200.00000
G1 F2700.000
G1 X101.139 Y33.761 E0.32199
G1 X101.139 Y39.625 E0.16872
G1 X98.762 Y50.561 E0.32199
G1 X96.653 Y50.561 E0.06066
G1 X96.653 Y22.825 E0.79800
G1 X98.702 Y22.825 E0.05894
G1 X99.090 Y22.418 F7800.000
G1 F1500.000
G1 X101.546 Y33.717 E0.33269
G1 X101.546 Y39.669 E0.17124
G1 X99.090 Y50.968 E0.33269
G1 X96.246 Y50.968 E0.08182
G1 X96.246 Y22.418 E0.82143
G1 X99.030 Y22.418 E0.08009
G1 X99.134 Y22.816 F7800.000
G1 X97.834 Y50.439
G1 F4800.000
G1 X98.654 Y49.618 E0.03350
G1 X98.815 Y48.880 E0.02180
G1 X97.439 Y50.256 E0.05615
G1 X96.959 Y50.256 E0.01388
G1 X96.959 Y50.159 E0.00280
G1 X98.975 Y48.142 E0.08232
G1 X99.136 Y47.404 E0.02180
G1 X96.959 Y49.581 E0.08887
G1 X96.959 Y49.004 E0.01667
G1 X99.296 Y46.666 E0.09542
G1 X99.457 Y45.928 E0.02180
G1 X96.959 Y48.426 E0.10197
G1 X96.959 Y47.848 E0.01667
G1 X99.617 Y45.190 E0.10852
G1 X99.777 Y44.452 E0.02180
G1 X96.959 Y47.271 E0.11507
G1 X96.959 Y46.693 E0.01667
G1 X99.938 Y43.714 E0.12162
G1 X100.098 Y42.976 E0.02180
G1 X96.959 Y46.116 E0.12817
G1 X96.959 Y45.538 E0.01667
G1 X100.259 Y42.238 E0.13472
G1 X100.419 Y41.500 E0.02180
G1 X96.959 Y44.960 E0.14127
G1 X96.959 Y44.383 E0.01667
G1 X100.580 Y40.762 E0.14782
G1 X100.740 Y40.024 E0.02180
G1 X96.959 Y43.805 E0.15437
G1 X96.959 Y43.228 E0.01667
G1 X100.834 Y39.352 E0.15820
G1 X100.834 Y38.775 E0.01667
G1 X96.959 Y42.650 E0.15820
G1 X96.959 Y42.073 E0.01667
G1 X100.834 Y38.197 E0.15820
G1 X100.834 Y37.620 E0.01667
G1 X96.959 Y41.495 E0.15820
G1 X96.959 Y40.917 E0.01667
G1 X100.834 Y37.042 E0.15820
G1 X100.834 Y36.465 E0.01667
G1 X96.959 Y40.340 E0.15820
G1 X96.959 Y39.762 E0.01667
G1 X100.834 Y35.887 E0.15820
G1 X100.834 Y35.309 E0.01667
G1 X96.959 Y39.185 E0.15820
G1 X96.959 Y38.607 E0.01667
G1 X100.834 Y34.732 E0.15820
G1 X100.834 Y34.154 E0.01667
G1 X96.959 Y38.029 E0.15820
G1 X96.959 Y37.452 E0.01667
G1 X100.795 Y33.615 E0.15661
G1 X100.692 Y33.141 E0.01402
G1 X96.959 Y36.874 E0.15240
G1 X96.959 Y36.297 E0.01667
G1 X100.589 Y32.666 E0.14819
G1 X100.486 Y32.192 E0.01402
G1 X96.959 Y35.719 E0.14398
G1 X96.959 Y35.141 E0.01667
G1 X100.383 Y31.718 E0.13977
G1 X100.279 Y31.243 E0.01402
G1 X96.959 Y34.564 E0.13556
G1 X96.959 Y33.986 E0.01667
G1 X100.176 Y30.769 E0.13135
G1 X100.073 Y30.294 E0.01402
G1 X96.959 Y33.409 E0.12714
G1 X96.959 Y32.831 E0.01667
G1 X99.970 Y29.820 E0.12293
G1 X99.867 Y29.345 E0.01402
G1 X96.959 Y32.254 E0.11872
G1 X96.959 Y31.676 E0.01667
G1 X99.764 Y28.871 E0.11451
G1 X99.661 Y28.396 E0.01402
G1 X96.959 Y31.098 E0.11030
G1 X96.959 Y30.521 E0.01667
G1 X99.557 Y27.922 E0.10609
G1 X99.454 Y27.448 E0.01402
G1 X96.959 Y29.943 E0.10188
G1 X96.959 Y29.366 E0.01667
G1 X99.351 Y26.973 E0.09767
G1 X99.248 Y26.499 E0.01402
G1 X96.959 Y28.788 E0.09346
G1 X96.959 Y28.210 E0.01667
G1 X99.145 Y26.024 E0.08925
G1 X99.042 Y25.550 E0.01402
G1 X96.959 Y27.633 E0.08504
G1 X96.959 Y27.055 E0.01667
G1 X98.939 Y25.075 E0.08083
G1 X98.835 Y24.601 E0.01402
G1 X96.959 Y26.478 E0.07662
G1 X96.959 Y25.900 E0.01667
G1 X98.732 Y24.126 E0.07240
G1 X98.629 Y23.652 E0.01402
G1 X96.959 Y25.322 E0.06819
G1 X96.959 Y24.745 E0.01667
G1 X98.526 Y23.177 E0.06398
G1 X98.516 Y23.130 E0.00139
G1 X97.995 Y23.130 E0.01502
G1 X96.959 Y24.167 E0.04233
G1 X96.959 Y23.590 E0.01667
G1 X97.601 Y22.947 E0.02623
G1 F6240.000
G1 X96.959 Y23.590 E-0.99590
G1 X96.959 Y23.894 E-0.33410
G1 E-0.07000 F7200.00000
G1 Z0.600 F7800.000
G1 X114.661 Y23.185
G1 Z0.400
G1 E1.40000 F7200.00000
G1 F2700.000
G1 X116.770 Y23.185 E0.06066
G1 X119.147 Y34.121 E0.32199
G1 X119.147 Y39.985 E0.16872
G1 X116.770 Y50.921 E0.32199
G1 X114.661 Y50.921 E0.06066
G1 X114.661 Y23.245 E0.79628
G1 X114.254 Y22.778 F7800.000
G1 F1500.000
G1 X117.098 Y22.778 E0.08182
G1 X119.554 Y34.077 E0.33269
G1 X119.554 Y40.029 E0.17124
G1 X117.098 Y51.328 E0.33269
G1 X114.254 Y51.328 E0.08182
G1 X114.254 Y22.838 E0.81970
G1 X114.607 Y22.967 F7800.000
G1 X115.841 Y50.799
G1 F4800.000
G1 X116.662 Y49.978 E0.03350
G1 X116.823 Y49.240 E0.02180
G1 X115.447 Y50.616 E0.05615
G1 X114.966 Y50.616 E0.01388
G1 X114.966 Y50.519 E0.00280
G1 X116.983 Y48.502 E0.08232
G1 X117.143 Y47.764 E0.02180
G1 X114.966 Y49.941 E0.08887
G1 X114.966 Y49.364 E0.01667
G1 X117.304 Y47.026 E0.09542
G1 X117.464 Y46.288 E0.02180
G1 X114.966 Y48.786 E0.10197
G1 X114.966 Y48.209 E0.01667
G1 X117.625 Y45.550 E0.10852
G1 X117.785 Y44.812 E0.02180
G1 X114.966 Y47.631 E0.11507
G1 X114.966 Y47.053 E0.01667
G1 X117.946 Y44.074 E0.12162
G1 X118.106 Y43.336 E0.02180
G1 X114.966 Y46.476 E0.12817
G1 X114.966 Y45.898 E0.01667
G1 X118.267 Y42.598 E0.13472
G1 X118.427 Y41.860 E0.02180
G1 X114.966 Y45.321 E0.14127
G1 X114.966 Y44.743 E0.01667
G1 X118.587 Y41.122 E0.14782
G1 X118.748 Y40.384 E0.02180
G1 X114.966 Y44.165 E0.15437
G1 X114.966 Y43.588 E0.01667
G1 X118.842 Y39.713 E0.15820
