; generated by PrusaSlicer 2.2.0+linux-x64 on 2021-03-06 at 17:42:20 UTC

; 

; external perimeters extrusion width = 0.45mm
; perimeters extrusion width = 0.45mm
; infill extrusion width = 0.45mm
; solid infill extrusion width = 0.45mm
; top infill extrusion width = 0.40mm
; first layer extrusion width = 0.42mm

M201 X9000 Y9000 Z500 E10000 ; sets maximum accelerations, mm/sec^2
M203 X500 Y500 Z12 E120 ; sets maximum feedrates, mm/sec
M204 P1500 R1500 T1500 ; sets acceleration (P, T) and retract acceleration (R), mm/sec^2
M205 X10.00 Y10.00 Z0.20 E2.50 ; sets the jerk limits, mm/sec
M205 S0 T0 ; sets the minimum extruding and travel feed rate, mm/sec
M107
M83  ; extruder relative mode
G0 Z25 ; move z 25 mm up

M104 S230 ; set extruder temp
M140 S85 ; set bed temp
M190 S85 ; wait for bed temp
M109 S230 ; wait for extruder temp

G28 ; home all
; G29 ; mesh bed leveling
G92 E0.0
G1 Y10  F1000.0 ; intro line
G1 X60.0 E9.0  F1000.0 ; intro line
G1 Z0  F1000.0 ; intro line
G1 X100.0 E12.5  F1000.0 ; intro line
G92 E0.0


G21 ; set units to millimeters
G90 ; use absolute coordinates
M83 ; use relative distances for extrusion
M900 K45 ; Filament gcode
G1 E-1.40000 F7200.00000
G1 Z0.050 F7800.000
G1 Z0.250
G1 X51.435 Y25.443
G1 Z0.050
G1 E1.40000 F7200.00000
G1 F1800.000
G1 X51.647 Y24.661 E0.02541
G1 X51.953 Y23.917 E0.02522
G1 X52.354 Y23.213 E0.02541
G1 X52.837 Y22.570 E0.02522
G1 X58.233 Y17.147 E0.23985
G1 X59.179 Y16.386 E0.03809
G1 X59.878 Y15.987 E0.02522
G1 X60.621 Y15.680 E0.02522
G1 X61.397 Y15.468 E0.02522
G1 X62.193 Y15.356 E0.02522
G1 X102.347 Y12.348 E1.26253
G1 X111.690 Y12.337 E0.29295
G1 X112.629 Y12.407 E0.02951
G1 X113.541 Y12.613 E0.02932
G1 X145.829 Y22.708 E1.06069
G1 X146.918 Y23.217 E0.03770
G1 X147.892 Y23.922 E0.03770
G1 X148.717 Y24.797 E0.03770
G1 X149.360 Y25.806 E0.03750
G1 X149.842 Y27.055 E0.04198
G1 X150.053 Y28.383 E0.04217
G1 X151.058 Y58.501 E0.94486
G1 X151.058 Y76.995 E0.57985
G1 X150.974 Y77.845 E0.02678
G1 X150.779 Y78.670 E0.02658
G1 X150.477 Y79.462 E0.02658
G1 X150.072 Y80.207 E0.02658
G1 X149.572 Y80.891 E0.02658
G1 X148.981 Y81.508 E0.02678
G1 X148.317 Y82.036 E0.02658
G1 X147.590 Y82.472 E0.02658
G1 X146.365 Y82.947 E0.04120
G1 X145.068 Y83.161 E0.04120
G1 X139.559 Y83.171 E0.17273
G1 X138.353 Y83.032 E0.03809
G1 X116.128 Y77.380 E0.71902
G1 X88.223 Y69.782 E0.90678
G1 X54.826 Y54.415 E1.15267
G1 X53.962 Y53.892 E0.03166
G1 X53.192 Y53.240 E0.03166
G1 X52.537 Y52.479 E0.03146
G1 X52.008 Y51.620 E0.03166
G1 X51.502 Y50.280 E0.04490
G1 X51.309 Y48.855 E0.04509
G1 X51.307 Y26.676 E0.69539
G1 X51.429 Y25.503 E0.03698
G1 F6240.000
G1 X51.647 Y24.661 E-0.95341
G1 X51.777 Y24.343 E-0.37659
G1 E-0.07000 F7200.00000
G1 Z0.250 F7800.000
G1 X91.145 Y56.472
G1 Z0.050
G1 E1.40000 F7200.00000
G1 F1800.000
G1 X91.573 Y55.865 E0.02329
G1 X92.120 Y55.372 E0.02307
G1 X92.756 Y55.005 E0.02302
G1 X93.454 Y54.778 E0.02302
G1 X94.184 Y54.701 E0.02302
G1 X94.914 Y54.778 E0.02302
G1 X95.613 Y55.005 E0.02302
G1 X96.249 Y55.372 E0.02302
G1 X96.794 Y55.863 E0.02302
G1 X97.226 Y56.458 E0.02302
G1 X97.525 Y57.128 E0.02302
G1 X97.677 Y57.847 E0.02302
G1 X97.677 Y58.581 E0.02302
G1 X97.525 Y59.299 E0.02302
G1 X97.226 Y59.970 E0.02302
G1 X96.794 Y60.564 E0.02302
G1 X96.249 Y61.055 E0.02302
G1 X95.613 Y61.422 E0.02302
G1 X94.914 Y61.649 E0.02302
G1 X94.184 Y61.726 E0.02302
G1 X93.454 Y61.649 E0.02302
G1 X92.756 Y61.422 E0.02302
G1 X92.120 Y61.055 E0.02302
G1 X91.573 Y60.562 E0.02307
G1 X91.147 Y59.958 E0.02318
G1 X91.013 Y59.604 E0.01187
G1 X90.908 Y59.253 E0.01150
G1 X90.831 Y58.555 E0.02201
G1 X90.831 Y57.872 E0.02143
G1 X90.908 Y57.170 E0.02212
G1 X91.126 Y56.529 E0.02125
G1 X90.931 Y56.134 F7800.000
G1 F6240.000
G1 X91.573 Y55.865 E-0.87758
G1 X91.880 Y55.589 E-0.45242
G1 E-0.07000 F7200.00000
G1 Z0.250 F7800.000
G1 X108.703 Y24.172
G1 Z0.050
G1 E1.40000 F7200.00000
G1 F1800.000
G1 X108.629 Y23.621 E0.01744
G1 X108.522 Y23.098 E0.01675
G1 X107.635 Y19.762 E0.10822
G1 X107.375 Y19.693 E0.00843
G1 X107.401 Y19.496 E0.00624
G1 X110.897 Y19.500 E0.10963
G1 X110.897 Y23.928 E0.13882
G1 X109.631 Y23.930 E0.03971
G1 X109.068 Y24.012 E0.01784
G1 X108.758 Y24.148 E0.01060
G1 X108.327 Y24.206 F7800.000
G1 F1800.000
G1 X108.347 Y24.350 E0.00456
G1 X107.865 Y24.791 E0.02047
G1 X107.535 Y25.142 E0.01511
G1 X106.900 Y25.910 E0.03125
G1 X106.555 Y26.281 E0.01588
G1 X105.335 Y27.506 E0.05423
G1 X101.041 Y26.356 E0.13937
G1 X100.217 Y23.236 E0.10117
G1 X100.138 Y22.716 E0.01652
G1 X100.139 Y22.099 E0.01934
G1 X103.094 Y19.144 E0.13102
G1 X103.679 Y19.301 E0.01899
G1 X105.157 Y19.520 E0.04685
G1 X105.653 Y19.629 E0.01594
G1 X107.327 Y20.071 E0.05427
G1 X108.155 Y23.184 E0.10101
G1 X108.257 Y23.684 E0.01601
G1 X108.319 Y24.147 E0.01463
G1 X108.462 Y24.260 F7800.000
G1 F6240.000
G1 X108.347 Y24.350 E-0.22508
G1 X107.865 Y24.791 E-0.71560
G1 X107.622 Y25.050 E-0.38933
G1 E-0.07000 F7200.00000
G1 Z0.250 F7800.000
G1 X106.184 Y55.772
G1 Z0.050
G1 E1.40000 F7200.00000
G1 F1800.000
G1 X106.692 Y55.826 E0.01600
G1 X107.177 Y55.983 E0.01600
G1 X107.619 Y56.239 E0.01600
G1 X107.999 Y56.580 E0.01600
G1 X108.299 Y56.993 E0.01600
G1 X108.506 Y57.459 E0.01600
G1 X108.612 Y57.958 E0.01600
G1 X108.612 Y58.469 E0.01600
G1 X108.506 Y58.968 E0.01600
G1 X108.299 Y59.434 E0.01600
G1 X107.999 Y59.847 E0.01600
G1 X107.619 Y60.189 E0.01600
G1 X107.177 Y60.444 E0.01600
G1 X106.692 Y60.602 E0.01600
G1 X106.184 Y60.655 E0.01600
G1 X105.677 Y60.602 E0.01600
G1 X105.191 Y60.444 E0.01600
G1 X104.749 Y60.189 E0.01600
G1 X104.370 Y59.847 E0.01600
G1 X104.070 Y59.434 E0.01600
G1 X103.862 Y58.968 E0.01600
G1 X103.756 Y58.469 E0.01600
G1 X103.756 Y57.958 E0.01600
G1 X103.862 Y57.459 E0.01600
G1 X104.070 Y56.993 E0.01600
G1 X104.370 Y56.580 E0.01600
G1 X104.749 Y56.239 E0.01600
G1 X105.195 Y55.981 E0.01614
G1 X105.710 Y55.822 E0.01691
G1 X106.125 Y55.779 E0.01305
G1 X106.164 Y56.154 F7800.000
G1 F1800.000
G1 X106.613 Y56.196 E0.01414
G1 X107.023 Y56.330 E0.01352
G1 X107.396 Y56.545 E0.01352
G1 X107.717 Y56.834 E0.01352
G1 X107.970 Y57.183 E0.01352
G1 X108.146 Y57.576 E0.01352
G1 X108.235 Y57.998 E0.01352
G1 X108.235 Y58.429 E0.01352
G1 X108.146 Y58.851 E0.01352
G1 X107.970 Y59.245 E0.01352
G1 X107.717 Y59.594 E0.01352
G1 X107.396 Y59.882 E0.01352
G1 X107.023 Y60.098 E0.01352
G1 X106.613 Y60.231 E0.01352
G1 X106.184 Y60.276 E0.01352
G1 X105.755 Y60.231 E0.01352
G1 X105.345 Y60.098 E0.01352
G1 X104.972 Y59.882 E0.01352
G1 X104.652 Y59.594 E0.01352
G1 X104.398 Y59.245 E0.01352
G1 X104.223 Y58.851 E0.01352
G1 X104.133 Y58.429 E0.01352
G1 X104.133 Y57.998 E0.01352
G1 X104.223 Y57.576 E0.01352
G1 X104.398 Y57.183 E0.01352
G1 X104.652 Y56.834 E0.01352
G1 X104.972 Y56.545 E0.01352
G1 X105.347 Y56.329 E0.01357
G1 X105.786 Y56.193 E0.01443
G1 X106.104 Y56.160 E0.01002
G1 X106.362 Y55.806 F7800.000
G1 F6240.000
G1 X106.613 Y56.196 E-0.55905
G1 X107.023 Y56.330 E-0.47258
G1 X107.259 Y56.466 E-0.29837
G1 E-0.07000 F7200.00000
G1 Z0.250 F7800.000
G1 X106.184 Y36.655
G1 Z0.050
G1 E1.40000 F7200.00000
G1 F1800.000
G1 X105.677 Y36.602 E0.01600
G1 X105.191 Y36.444 E0.01600
G1 X104.749 Y36.189 E0.01601
G1 X104.370 Y35.847 E0.01600
G1 X104.070 Y35.434 E0.01600
G1 X103.862 Y34.968 E0.01600
G1 X103.756 Y34.469 E0.01600
G1 X103.756 Y33.958 E0.01601
G1 X103.862 Y33.459 E0.01600
G1 X104.070 Y32.993 E0.01600
G1 X104.370 Y32.580 E0.01600
G1 X104.749 Y32.239 E0.01600
G1 X105.191 Y31.983 E0.01601
G1 X105.677 Y31.826 E0.01600
G1 X106.184 Y31.772 E0.01600
G1 X106.692 Y31.826 E0.01600
G1 X107.177 Y31.983 E0.01600
G1 X107.619 Y32.239 E0.01601
G1 X107.999 Y32.580 E0.01600
G1 X108.299 Y32.993 E0.01600
G1 X108.506 Y33.459 E0.01600
G1 X108.612 Y33.958 E0.01600
G1 X108.612 Y34.469 E0.01601
G1 X108.506 Y34.968 E0.01600
G1 X108.299 Y35.434 E0.01600
G1 X107.999 Y35.847 E0.01600
G1 X107.619 Y36.189 E0.01600
G1 X107.177 Y36.444 E0.01601
G1 X106.692 Y36.602 E0.01600
G1 X106.244 Y36.649 E0.01412
G1 X106.204 Y36.274 F7800.000
G1 F1800.000
G1 X105.755 Y36.231 E0.01414
G1 X105.345 Y36.098 E0.01352
G1 X104.972 Y35.882 E0.01352
G1 X104.652 Y35.594 E0.01352
G1 X104.398 Y35.245 E0.01352
G1 X104.223 Y34.851 E0.01352
G1 X104.133 Y34.429 E0.01352
G1 X104.133 Y33.998 E0.01352
G1 X104.223 Y33.576 E0.01352
G1 X104.398 Y33.183 E0.01352
G1 X104.652 Y32.834 E0.01352
G1 X104.972 Y32.545 E0.01352
G1 X105.345 Y32.330 E0.01352
G1 X105.755 Y32.197 E0.01352
G1 X106.184 Y32.151 E0.01352
G1 X106.613 Y32.197 E0.01352
G1 X107.023 Y32.330 E0.01352
G1 X107.396 Y32.545 E0.01352
G1 X107.717 Y32.834 E0.01352
G1 X107.970 Y33.183 E0.01352
G1 X108.146 Y33.576 E0.01352
G1 X108.235 Y33.998 E0.01352
G1 X108.235 Y34.429 E0.01352
G1 X108.146 Y34.851 E0.01352
G1 X107.970 Y35.245 E0.01352
G1 X107.717 Y35.594 E0.01352
G1 X107.396 Y35.882 E0.01352
G1 X107.023 Y36.098 E0.01352
G1 X106.613 Y36.231 E0.01352
G1 X106.264 Y36.268 E0.01100
G1 X106.007 Y36.622 F7800.000
G1 F6240.000
G1 X105.755 Y36.231 E-0.55896
G1 X105.345 Y36.098 E-0.47255
G1 X105.110 Y35.962 E-0.29849
G1 E-0.07000 F7200.00000
G1 Z0.250 F7800.000
G1 X100.733 Y26.664
G1 Z0.050
G1 E1.40000 F7200.00000
G1 F1800.000
G1 X105.448 Y27.927 E0.15306
G1 X106.920 Y26.448 E0.06543
G1 X106.908 Y26.998 E0.01724
G1 X107.029 Y27.575 E0.01849
G1 X107.267 Y28.109 E0.01833
G1 X107.610 Y28.582 E0.01830
G1 X108.043 Y28.972 E0.01830
G1 X108.549 Y29.264 E0.01830
G1 X109.104 Y29.444 E0.01830
G1 X109.643 Y29.501 E0.01699
G1 X142.897 Y29.501 E1.04267
G1 X142.897 Y58.040 E0.89482
G1 X143.897 Y59.040 E0.04434
G1 X143.897 Y75.893 E0.52841
G1 X140.471 Y75.893 E0.10741
G1 X140.471 Y73.594 E0.07206
G1 X143.471 Y73.594 E0.09406
G1 X143.471 Y64.833 E0.27471
G1 X140.471 Y64.833 E0.09406
G1 X140.471 Y62.927 E0.05977
G1 X118.897 Y62.928 E0.67644
G1 X118.897 Y69.001 E0.19042
G1 X124.397 Y69.001 E0.17245
G1 X124.397 Y69.888 E0.02781
G1 X123.858 Y70.427 E0.02390
G1 X118.081 Y70.427 E0.18113
G1 X117.471 Y69.817 E0.02705
G1 X117.471 Y62.927 E0.21603
G1 X90.970 Y62.927 E0.83092
G1 X90.966 Y60.630 E0.07202
G1 X91.124 Y60.579 E0.00520
G1 X91.289 Y60.814 E0.00901
G1 X91.897 Y61.362 E0.02564
G1 X92.601 Y61.769 E0.02551
G1 X93.375 Y62.020 E0.02551
G1 X94.184 Y62.105 E0.02551
G1 X94.993 Y62.020 E0.02551
G1 X95.767 Y61.769 E0.02551
G1 X96.472 Y61.362 E0.02551
G1 X97.076 Y60.818 E0.02551
G1 X97.554 Y60.159 E0.02551
G1 X97.885 Y59.416 E0.02551
G1 X98.054 Y58.620 E0.02551
G1 X98.054 Y57.807 E0.02551
G1 X97.885 Y57.011 E0.02551
G1 X97.554 Y56.268 E0.02551
G1 X97.076 Y55.610 E0.02551
G1 X96.472 Y55.065 E0.02551
G1 X95.767 Y54.659 E0.02551
G1 X94.993 Y54.407 E0.02551
G1 X94.184 Y54.322 E0.02551
G1 X93.375 Y54.407 E0.02551
G1 X92.601 Y54.659 E0.02551
G1 X91.897 Y55.066 E0.02551
G1 X91.289 Y55.613 E0.02564
G1 X91.128 Y55.841 E0.00876
G1 X90.971 Y55.791 E0.00519
G1 X90.971 Y42.703 E0.41038
G1 X90.947 Y41.942 E0.02387
G1 X90.875 Y41.174 E0.02420
G1 X90.754 Y40.411 E0.02420
G1 X90.586 Y39.658 E0.02420
G1 X90.370 Y38.917 E0.02420
G1 X90.109 Y38.190 E0.02420
G1 X89.802 Y37.482 E0.02420
G1 X89.452 Y36.794 E0.02420
G1 X89.059 Y36.130 E0.02420
G1 X88.625 Y35.491 E0.02420
G1 X88.152 Y34.881 E0.02420
G1 X87.641 Y34.302 E0.02420
G1 X87.096 Y33.757 E0.02420
G1 X86.516 Y33.246 E0.02420
G1 X85.907 Y32.773 E0.02420
G1 X85.268 Y32.339 E0.02420
G1 X84.604 Y31.946 E0.02420
G1 X83.916 Y31.596 E0.02420
G1 X83.207 Y31.289 E0.02421
G1 X82.481 Y31.028 E0.02420
G1 X81.735 Y30.811 E0.02435
G1 X80.611 Y30.578 E0.03601
G1 X79.836 Y30.480 E0.02449
G1 X78.684 Y30.426 E0.03615
G1 X77.532 Y30.480 E0.03615
G1 X76.762 Y30.578 E0.02435
G1 X76.004 Y30.722 E0.02420
G1 X75.256 Y30.914 E0.02420
G1 X74.522 Y31.153 E0.02420
G1 X73.804 Y31.437 E0.02420
G1 X73.102 Y31.767 E0.02435
G1 X72.104 Y32.336 E0.03601
G1 X71.458 Y32.776 E0.02449
G1 X70.567 Y33.489 E0.03580
G1 X69.996 Y34.025 E0.02456
G1 X69.467 Y34.588 E0.02421
G1 X68.975 Y35.183 E0.02421
G1 X68.522 Y35.807 E0.02420
G1 X68.108 Y36.459 E0.02420
G1 X67.736 Y37.135 E0.02420
G1 X67.407 Y37.834 E0.02420
G1 X67.123 Y38.551 E0.02420
G1 X66.885 Y39.286 E0.02420
G1 X66.692 Y40.038 E0.02435
G1 X66.493 Y41.174 E0.03615
G1 X66.403 Y42.323 E0.03614
G1 X66.398 Y47.927 E0.17570
G1 X58.471 Y47.927 E0.24853
G1 X58.471 Y27.039 E0.65490
G1 X59.269 Y26.241 E0.03538
G1 X59.417 Y26.322 E0.00530
G1 X59.314 Y26.807 E0.01555
G1 X59.314 Y27.620 E0.02550
G1 X59.483 Y28.416 E0.02551
G1 X59.814 Y29.159 E0.02551
G1 X60.292 Y29.818 E0.02551
G1 X60.897 Y30.362 E0.02551
G1 X61.601 Y30.769 E0.02551
G1 X62.375 Y31.020 E0.02551
G1 X63.184 Y31.105 E0.02551
G1 X63.993 Y31.020 E0.02551
G1 X64.767 Y30.769 E0.02551
G1 X65.471 Y30.362 E0.02551
G1 X66.076 Y29.818 E0.02551
G1 X66.554 Y29.159 E0.02551
G1 X66.885 Y28.416 E0.02551
G1 X67.054 Y27.620 E0.02551
G1 X67.054 Y26.807 E0.02550
G1 X66.885 Y26.011 E0.02551
G1 X66.554 Y25.268 E0.02551
G1 X66.076 Y24.610 E0.02551
G1 X65.471 Y24.066 E0.02550
G1 X64.767 Y23.659 E0.02551
G1 X63.993 Y23.407 E0.02551
G1 X63.184 Y23.322 E0.02551
G1 X62.071 Y23.439 E0.03510
G1 X63.010 Y22.501 E0.04163
G1 X65.897 Y22.501 E0.09052
G1 X65.897 Y24.022 E0.04769
G1 X91.946 Y24.022 E0.81673
G1 X91.292 Y24.610 E0.02756
G1 X90.814 Y25.268 E0.02551
G1 X90.483 Y26.011 E0.02551
G1 X90.314 Y26.807 E0.02551
G1 X90.314 Y27.620 E0.02550
G1 X90.483 Y28.416 E0.02551
G1 X90.814 Y29.159 E0.02551
G1 X91.292 Y29.818 E0.02551
G1 X91.897 Y30.362 E0.02551
G1 X92.601 Y30.769 E0.02551
G1 X93.375 Y31.020 E0.02551
G1 X94.184 Y31.105 E0.02551
G1 X94.993 Y31.020 E0.02551
G1 X95.767 Y30.769 E0.02551
G1 X96.472 Y30.362 E0.02551
G1 X97.076 Y29.818 E0.02551
G1 X97.554 Y29.159 E0.02551
G1 X97.885 Y28.416 E0.02551
G1 X98.054 Y27.620 E0.02551
G1 X98.054 Y26.807 E0.02550
G1 X97.885 Y26.011 E0.02551
G1 X97.554 Y25.268 E0.02551
G1 X97.076 Y24.610 E0.02551
G1 X96.472 Y24.066 E0.02551
G1 X95.767 Y23.659 E0.02551
G1 X94.993 Y23.407 E0.02551
G1 X94.184 Y23.322 E0.02551
G1 X93.375 Y23.407 E0.02551
G1 X92.471 Y23.701 E0.02980
G1 X92.471 Y22.500 E0.03766
G1 X98.716 Y22.490 E0.19579
G1 X99.287 Y22.430 E0.01801
G1 X99.650 Y22.339 E0.01172
G1 X99.761 Y22.396 E0.00394
G1 X99.761 Y22.744 E0.01090
G1 X99.847 Y23.313 E0.01805
G1 X100.717 Y26.606 E0.10678
G1 F6240.000
G1 X101.886 Y26.932 E-1.33000
G1 E-0.07000 F7200.00000
G1 Z0.250 F7800.000
G1 X97.677 Y26.847
G1 Z0.050
G1 E1.40000 F7200.00000
G1 F1800.000
G1 X97.677 Y27.581 E0.02302
G1 X97.525 Y28.299 E0.02302
G1 X97.226 Y28.970 E0.02302
G1 X96.794 Y29.564 E0.02302
G1 X96.249 Y30.055 E0.02302
G1 X95.613 Y30.422 E0.02302
G1 X94.914 Y30.649 E0.02302
G1 X94.184 Y30.726 E0.02302
G1 X93.454 Y30.649 E0.02302
G1 X92.756 Y30.422 E0.02302
G1 X92.120 Y30.055 E0.02302
G1 X91.574 Y29.564 E0.02302
G1 X91.142 Y28.970 E0.02302
G1 X90.844 Y28.299 E0.02302
G1 X90.691 Y27.581 E0.02303
G1 X90.691 Y26.847 E0.02302
G1 X90.844 Y26.128 E0.02303
G1 X91.142 Y25.458 E0.02302
G1 X91.574 Y24.864 E0.02302
G1 X92.120 Y24.372 E0.02302
G1 X92.756 Y24.005 E0.02302
G1 X93.454 Y23.778 E0.02302
G1 X94.184 Y23.701 E0.02302
G1 X94.914 Y23.778 E0.02302
G1 X95.613 Y24.005 E0.02302
G1 X96.249 Y24.372 E0.02302
G1 X96.794 Y24.864 E0.02302
G1 X97.226 Y25.458 E0.02302
G1 X97.525 Y26.128 E0.02302
G1 X97.665 Y26.788 E0.02114
G1 X98.043 Y27.009 F7800.000
G1 F6240.000
G1 X97.677 Y27.581 E-0.86922
G1 X97.590 Y27.992 E-0.46078
G1 E-0.07000 F7200.00000
G1 Z0.250 F7800.000
G1 X66.677 Y26.847
G1 Z0.050
G1 E1.40000 F7200.00000
G1 F1800.000
G1 X66.677 Y27.581 E0.02302
G1 X66.525 Y28.299 E0.02302
G1 X66.226 Y28.970 E0.02302
G1 X65.794 Y29.564 E0.02302
G1 X65.249 Y30.055 E0.02302
G1 X64.613 Y30.422 E0.02302
G1 X63.914 Y30.649 E0.02302
G1 X63.184 Y30.726 E0.02302
G1 X62.454 Y30.649 E0.02302
G1 X61.756 Y30.422 E0.02302
G1 X61.120 Y30.055 E0.02302
G1 X60.574 Y29.564 E0.02302
G1 X60.142 Y28.970 E0.02302
G1 X59.844 Y28.299 E0.02302
G1 X59.691 Y27.581 E0.02302
G1 X59.691 Y26.847 E0.02302
G1 X59.844 Y26.128 E0.02304
G1 X60.147 Y25.456 E0.02312
G1 X60.594 Y24.880 E0.02285
G1 X61.122 Y24.382 E0.02277
G1 X61.755 Y24.007 E0.02306
G1 X62.454 Y23.778 E0.02306
G1 X63.184 Y23.701 E0.02303
G1 X63.914 Y23.778 E0.02302
G1 X64.613 Y24.005 E0.02303
G1 X65.249 Y24.372 E0.02302
G1 X65.794 Y24.863 E0.02302
G1 X66.226 Y25.458 E0.02302
G1 X66.525 Y26.128 E0.02302
G1 X66.665 Y26.788 E0.02114
