; generated by Slic3r 1.3.0 on 2020-03-18 at 17:09:07

; external perimeters extrusion width = 0.45mm (2.04mm^3/s)
; perimeters extrusion width = 0.45mm (3.66mm^3/s)
; infill extrusion width = 0.45mm (6.51mm^3/s)
; solid infill extrusion width = 0.45mm (6.51mm^3/s)
; top infill extrusion width = 0.45mm (3.26mm^3/s)

M107
M83  ; extruder relative mode
; G28 ; home all 
G0 Z25 ; move z 25 mm up
M104 S210 ; set extruder temp
M140 S60 ; set bed temp
M190 S60 ; wait for bed temp
M109 S210 ; wait for extruder temp
G28 ; home all
; G29 ; mesh bed leveling
G92 E0.0
G1 Y10  F1000.0 ; intro line
G1 X60.0 E9.0  F1000.0 ; intro line
G1 Z0  F1000.0 ; intro line
G1 X100.0 E12.5  F1000.0 ; intro line
G92 E0.0



; Filament gcode

G21 ; set units to millimeters
G90 ; use absolute coordinates
M83 ; use relative distances for extrusion
;BEFORE_LAYER_CHANGE
G92 E0.0
;0.2
G1 E-0.50000 F7200.00000
G1 Z0.600 F7800.000
G1 X102.843 Y92.342 F7800.000
G1 Z0.200 F7800.000
G1 E0.50000 F7200.00000
G1 F1633.74
G1 X104.555 Y91.746 E0.05683
G1 X110.445 Y91.746 E0.18468
G1 X111.862 Y92.139 E0.04612
G1 X113.013 Y93.505 E0.05600
G1 X116.484 Y102.459 E0.30110
G1 X116.667 Y103.324 E0.02773
G1 X116.751 Y105.098 E0.05568
G1 X116.747 Y105.433 E0.01051
G1 X116.115 Y113.902 E0.26628
G1 X115.413 Y115.542 E0.05593
G1 X110.441 Y121.053 E0.23272
G1 X109.845 Y121.550 E0.02433
G1 X108.502 Y122.381 E0.04952
G1 X107.869 Y122.670 E0.02183
G1 X106.382 Y123.131 E0.04881
G1 X104.911 Y123.175 E0.04612
G1 X103.619 Y122.447 E0.04652
G1 X102.937 Y121.320 E0.04131
G1 X98.597 Y107.406 E0.45699
G1 X98.518 Y107.086 E0.01033
G1 X98.292 Y105.862 E0.03903
G1 X98.246 Y105.362 E0.01575
G1 X98.293 Y104.018 E0.04216
G1 X98.401 Y103.347 E0.02132
G1 X98.833 Y101.894 E0.04753
G1 X101.977 Y93.531 E0.28013
G1 X102.808 Y92.391 E0.04424
G1 X103.156 Y92.578 F7800.000
G1 F1633.74
G1 X104.555 Y92.123 E0.04611
G1 X110.445 Y92.123 E0.18468
G1 X111.752 Y92.515 E0.04278
G1 X112.661 Y93.641 E0.04539
G1 X116.132 Y102.595 E0.30110
G1 X116.290 Y103.342 E0.02393
G1 X116.374 Y105.116 E0.05568
G1 X116.370 Y105.405 E0.00907
G1 X115.738 Y113.874 E0.26628
G1 X115.133 Y115.289 E0.04827
G1 X110.161 Y120.800 E0.23272
G1 X109.647 Y121.229 E0.02100
G1 X108.304 Y122.060 E0.04952
G1 X107.757 Y122.309 E0.01884
G1 X106.270 Y122.770 E0.04881
G1 X104.906 Y122.783 E0.04278
G1 X103.885 Y122.181 E0.03716
G1 X103.297 Y121.208 E0.03565
G1 X98.957 Y107.294 E0.45699
G1 X98.888 Y107.018 E0.00892
G1 X98.662 Y105.794 E0.03903
G1 X98.623 Y105.362 E0.01359
G1 X98.669 Y104.032 E0.04173
G1 X98.763 Y103.453 E0.01840
G1 X99.186 Y102.027 E0.04664
G1 X102.330 Y93.664 E0.28013
G1 X103.120 Y92.626 E0.04090
G1 F6240
G1 X103.529 Y92.482 E-0.47500
G1 E-0.02500 F7200.00000
G1 Z0.800 F7800.000
G1 X108.333 Y112.955 F7800.000
G1 Z0.200 F7800.000
G1 E0.50000 F7200.00000
G1 F1633.74
G1 X107.514 Y113.619 E0.03307
G1 X105.446 Y111.870 E0.08493
G1 X104.650 Y110.773 E0.04251
G1 X104.153 Y109.588 E0.04029
G1 X104.017 Y108.360 E0.03874
G1 X104.290 Y107.066 E0.04145
G1 X105.207 Y105.759 E0.05007
G1 X106.191 Y104.745 E0.04430
G1 X106.450 Y104.309 E0.01589
G1 X106.508 Y103.943 E0.01160
G1 X106.429 Y103.594 E0.01123
G1 X106.368 Y103.497 E0.00358
G1 X106.289 Y103.508 E0.00249
G1 X105.902 Y103.711 E0.01369
G1 X105.546 Y104.069 E0.01584
G1 X105.189 Y104.767 E0.02458
G1 X104.125 Y104.369 E0.03562
G1 X104.587 Y102.514 E0.05992
G1 X105.607 Y101.250 E0.05093
G1 X106.802 Y100.533 E0.04370
G1 X107.824 Y100.289 E0.03296
G1 X108.161 Y100.289 E0.01057
G1 X109.215 Y100.632 E0.03474
G1 X110.113 Y101.178 E0.03296
G1 X111.321 Y102.645 E0.05959
G1 X111.847 Y104.471 E0.05960
G1 X111.659 Y106.339 E0.05885
G1 X111.266 Y107.289 E0.03224
G1 X110.521 Y108.300 E0.03937
G1 X109.621 Y107.966 E0.03009
G1 X109.681 Y107.186 E0.02453
G1 X109.634 Y106.985 E0.00647
G1 X108.832 Y108.370 E0.05018
G1 X107.759 Y109.729 E0.05429
G1 X107.520 Y110.385 E0.02190
G1 X107.502 Y111.094 E0.02223
G1 X107.681 Y111.743 E0.02113
G1 X108.305 Y112.902 E0.04126
G1 X107.853 Y112.859 F7800.000
G1 F1800
G1 X107.519 Y113.130 E0.01349
G1 X105.724 Y111.612 E0.07371
G1 X104.981 Y110.587 E0.03970
G1 X104.522 Y109.492 E0.03721
G1 X104.399 Y108.379 E0.03513
G1 X104.643 Y107.220 E0.03714
G1 X105.499 Y106.000 E0.04671
G1 X106.493 Y104.976 E0.04476
G1 X106.811 Y104.439 E0.01955
G1 X106.892 Y103.931 E0.01614
G1 X106.782 Y103.447 E0.01556
G1 X106.556 Y103.091 E0.01323
G1 X106.172 Y103.144 E0.01216
G1 X105.676 Y103.404 E0.01756
G1 X105.237 Y103.845 E0.01951
G1 X105.006 Y104.296 E0.01589
G1 X104.572 Y104.134 E0.01453
G1 X104.932 Y102.686 E0.04677
G1 X105.858 Y101.539 E0.04621
G1 X106.946 Y100.886 E0.03978
G1 X107.868 Y100.666 E0.02974
G1 X108.101 Y100.666 E0.00731
G1 X109.056 Y100.977 E0.03149
G1 X109.862 Y101.467 E0.02958
G1 X110.981 Y102.824 E0.05513
G1 X111.465 Y104.506 E0.05487
G1 X111.290 Y106.246 E0.05483
G1 X110.935 Y107.102 E0.02906
G1 X110.386 Y107.847 E0.02903
G1 X110.019 Y107.711 E0.01228
G1 X110.061 Y107.156 E0.01744
G1 X109.909 Y106.505 E0.02097
G1 X109.571 Y105.880 E0.02229
G1 X109.476 Y105.797 E0.00395
G1 X109.502 Y105.953 E0.00496
G1 X109.305 Y106.799 E0.02724
G1 X108.519 Y108.157 E0.04921
G1 X107.426 Y109.543 E0.05534
G1 X107.144 Y110.314 E0.02574
G1 X107.124 Y111.140 E0.02592
G1 X107.329 Y111.884 E0.02421
G1 X107.825 Y112.806 E0.03281
G1 X108.075 Y113.191 F7800.000
G1 F6240
G1 X107.527 Y113.121 E-0.47500
G1 E-0.02500 F7200.00000
G1 Z0.800 F7800.000
G1 X108.330 Y110.651 F7800.000
G1 Z0.200 F7800.000
G1 E0.50000 F7200.00000
G1 F1633.74
G1 X109.271 Y113.720 E0.10063
G1 X109.577 Y115.014 E0.04170
G1 X109.499 Y116.409 E0.04380
G1 X108.949 Y117.715 E0.04443
G1 X108.016 Y118.753 E0.04377
G1 X107.228 Y119.240 E0.02905
G1 X107.431 Y118.814 E0.01481
G1 X107.657 Y117.361 E0.04612
G1 X107.453 Y115.860 E0.04749
G1 X106.882 Y114.406 E0.04898
G1 X106.103 Y113.085 E0.04809
G1 X104.329 Y110.769 E0.09146
G1 X102.806 Y108.646 E0.08194
G1 X101.790 Y106.409 E0.07703
G1 X101.589 Y105.319 E0.03475
G1 X101.629 Y104.212 E0.03472
G1 X101.954 Y103.097 E0.03642
G1 X102.623 Y101.955 E0.04147
G1 X103.348 Y101.170 E0.03354
G1 X104.104 Y100.603 E0.02961
G1 X105.047 Y100.603 E0.02958
G1 X105.047 Y99.087 E0.04753
G1 X105.142 Y99.087 E0.00298
G1 X105.142 Y95.087 E0.12542
G1 X109.858 Y95.087 E0.14786
G1 X109.858 Y99.087 E0.12542
G1 X109.983 Y99.087 E0.00392
G1 X109.983 Y100.603 E0.04753
G1 X111.116 Y100.603 E0.03554
G1 X111.273 Y100.716 E0.00607
G1 X112.650 Y102.128 E0.06182
G1 X113.335 Y103.597 E0.05084
G1 X113.409 Y105.150 E0.04874
G1 X112.866 Y106.850 E0.05596
G1 X111.125 Y110.334 E0.12211
G1 X111.012 Y111.681 E0.04238
G1 X111.229 Y112.325 E0.02129
G1 X110.602 Y111.922 E0.02337
G1 X109.665 Y110.549 E0.05214
G1 X109.081 Y110.119 E0.02273
G1 X108.379 Y110.617 E0.02698
G1 X108.770 Y110.801 F7800.000
G1 F1800
G1 X109.635 Y113.621 E0.09247
G1 X109.957 Y114.981 E0.04381
G1 X109.871 Y116.495 E0.04756
G1 X109.272 Y117.920 E0.04847
G1 X108.260 Y119.045 E0.04746
G1 X106.965 Y119.846 E0.04774
G1 X106.325 Y120.045 E0.02101
G1 X106.518 Y119.854 E0.00849
G1 X107.067 Y118.702 E0.04004
G1 X107.276 Y117.357 E0.04267
G1 X107.086 Y115.956 E0.04434
G1 X106.542 Y114.572 E0.04662
G1 X105.789 Y113.296 E0.04644
G1 X104.026 Y110.994 E0.09094
G1 X102.478 Y108.835 E0.08328
G1 X101.428 Y106.523 E0.07964
G1 X101.211 Y105.347 E0.03750
G1 X101.254 Y104.152 E0.03749
G1 X101.605 Y102.947 E0.03936
G1 X102.318 Y101.730 E0.04421
G1 X103.094 Y100.889 E0.03590
G1 X103.978 Y100.226 E0.03463
G1 X104.670 Y100.226 E0.02170
G1 X104.670 Y98.710 E0.04753
G1 X104.765 Y98.710 E0.00298
G1 X104.765 Y94.710 E0.12542
G1 X110.235 Y94.710 E0.17151
G1 X110.235 Y98.710 E0.12542
G1 X110.360 Y98.710 E0.00392
G1 X110.360 Y100.226 E0.04753
G1 X111.238 Y100.226 E0.02753
G1 X111.520 Y100.430 E0.01091
G1 X112.965 Y101.910 E0.06485
G1 X113.708 Y103.505 E0.05518
G1 X113.788 Y105.200 E0.05320
G1 X113.216 Y106.993 E0.05900
G1 X111.495 Y110.438 E0.12076
G1 X111.394 Y111.635 E0.03765
G1 X111.733 Y112.637 E0.03317
G1 X112.244 Y113.218 E0.02427
G1 X111.741 Y113.101 E0.01618
G1 X110.333 Y112.198 E0.05243
G1 X109.389 Y110.814 E0.05253
G1 X109.077 Y110.584 E0.01217
G1 X108.819 Y110.767 E0.00990
G1 X108.378 Y110.877 F7800.000
G1 X107.960 Y110.448 F7800.000
G1 F1633.74
G1 X107.827 Y110.581 E0.00607
G1 X107.814 Y111.114 E0.01717
G1 X107.837 Y111.199 E0.00285
G1 X108.108 Y110.929 E0.01232
G1 X108.255 Y111.410 E0.01620
G1 X107.977 Y111.688 E0.01266
G1 X108.197 Y112.096 E0.01495
G1 X108.403 Y111.891 E0.00937
G1 X108.550 Y112.372 E0.01620
G1 X108.417 Y112.505 E0.00607
G1 F6240
G1 X108.550 Y112.372 E-0.20669
G1 F6240
G1 X108.479 Y112.138 E-0.26831
G1 E-0.02500 F7200.00000
G1 Z0.800 F7800.000
G1 X106.947 Y113.591 F7800.000
G1 Z0.200 F7800.000
G1 E0.50000 F7200.00000
G1 F1633.74
G1 X106.812 Y113.725 E0.00611
G1 X107.023 Y114.083 E0.01336
G1 X107.298 Y113.808 E0.01252
G1 X107.576 Y114.042 E0.01170
G1 X107.873 Y113.801 E0.01234
G1 X107.215 Y114.459 E0.02996
G1 X107.375 Y114.867 E0.01411
G1 X108.860 Y113.382 E0.06762
G1 X108.990 Y113.820 E0.01472
G1 X107.536 Y115.275 E0.06623
G1 X107.696 Y115.683 E0.01411
G1 X109.098 Y114.280 E0.06388
G1 X109.207 Y114.739 E0.01521
G1 X107.797 Y116.149 E0.06420
G1 X107.865 Y116.649 E0.01625
G1 X109.248 Y115.266 E0.06298
G1 X109.214 Y115.868 E0.01942
G1 X107.933 Y117.149 E0.05834
G1 X107.972 Y117.431 E0.00916
G1 X107.926 Y117.725 E0.00958
G1 X109.045 Y116.605 E0.05099
G1 X108.693 Y117.444 E0.02928
G1 X107.821 Y118.398 E0.04163
G1 F6240
G1 X108.113 Y118.078 E-0.47500
G1 E-0.02500 F7200.00000
G1 Z0.800 F7800.000
G1 X110.635 Y111.238 F7800.000
G1 X110.595 Y111.408 F7800.000
G1 Z0.200 F7800.000
G1 E0.50000 F7200.00000
G1 F1633.74
G1 X110.729 Y111.275 E0.00607
G1 X110.779 Y110.677 E0.01933
G1 X110.373 Y111.083 E0.01849
G1 X110.151 Y110.757 E0.01269
G1 X110.901 Y110.008 E0.03414
G1 X111.447 Y108.913 E0.03939
G1 X109.929 Y110.431 E0.06914
G1 X109.873 Y110.350 E0.00319
G1 X109.637 Y110.176 E0.00945
G1 X111.994 Y107.819 E0.10732
G1 X112.540 Y106.725 E0.03939
G1 X110.990 Y108.275 E0.07058
G1 X111.530 Y107.542 E0.02931
G1 X111.781 Y106.936 E0.02112
G1 X112.819 Y105.898 E0.04728
G1 X113.076 Y105.093 E0.02721
G1 X111.995 Y106.175 E0.04924
G1 X112.056 Y105.566 E0.01971
G1 X113.072 Y104.549 E0.04628
G1 X113.048 Y104.026 E0.01686
G1 X112.118 Y104.957 E0.04236
G1 X112.163 Y104.503 E0.01467
G1 X112.132 Y104.395 E0.00365
G1 X112.989 Y103.537 E0.03903
G1 X112.815 Y103.164 E0.01327
G1 X112.009 Y103.969 E0.03668
G1 X111.887 Y103.544 E0.01425
G1 X112.641 Y102.790 E0.03433
G1 X112.467 Y102.417 E0.01327
G1 X111.765 Y103.119 E0.03197
G1 X111.642 Y102.693 E0.01425
G1 X112.232 Y102.104 E0.02686
G1 X111.961 Y101.827 E0.01247
G1 X111.442 Y102.346 E0.02364
G1 X111.195 Y102.045 E0.01253
G1 X111.691 Y101.549 E0.02259
G1 X111.420 Y101.272 E0.01247
G1 X110.947 Y101.745 E0.02155
G1 X110.700 Y101.445 E0.01253
G1 X111.150 Y100.995 E0.02050
G1 X111.061 Y100.913 E0.00388
G1 X110.683 Y100.913 E0.01216
G1 X110.550 Y101.047 E0.00607
G1 F6240
G1 X110.683 Y100.913 E-0.20667
G1 F6240
G1 X110.928 Y100.913 E-0.26833
G1 E-0.02500 F7200.00000
G1 Z0.800 F7800.000
G1 X110.840 Y101.169 F7800.000
G1 X112.053 Y102.564 F7800.000
G1 X112.516 Y103.799 F7800.000
G1 X112.598 Y105.043 F7800.000
G1 X112.265 Y106.606 F7800.000
G1 X111.094 Y108.836 F7800.000
G1 X110.231 Y109.408 F7800.000
G1 X109.613 Y109.247 F7800.000
G1 X109.287 Y108.335 F7800.000
G1 Z0.200 F7800.000
G1 E0.50000 F7200.00000
G1 F1633.74
G1 X109.264 Y108.327 E0.00077
G1 X109.222 Y108.400 E0.00272
G1 X109.420 Y108.202 E0.00902
G1 X109.820 Y108.350 E0.01372
G1 X107.933 Y110.237 E0.08593
G1 X107.827 Y110.565 E0.01110
G1 X108.945 Y109.772 E0.04412
G1 X110.219 Y108.498 E0.05803
G1 X110.618 Y108.647 E0.01372
G1 X109.322 Y109.943 E0.05906
G1 F6240
G1 X109.628 Y109.637 E-0.47500
G1 E-0.02500 F7200.00000
G1 Z0.800 F7800.000
G1 X109.877 Y110.127 F7800.000
G1 X106.920 Y113.658 F7800.000
G1 X106.432 Y113.080 F7800.000
G1 Z0.200 F7800.000
G1 E0.50000 F7200.00000
G1 F1633.74
G1 X106.660 Y113.350 E0.00665
G1 X106.432 Y113.080 F7800.000
G1 F1633.74
G1 X106.169 Y112.787 E0.00452
G1 F1633.74
G1 X106.025 Y112.636 E0.00086
G1 F6240
G1 X106.169 Y112.787 E-0.22886
G1 E-0.27114 F7200.00000
G1 Z0.800 F7800.000
G1 X104.182 Y110.203 F7800.000
G1 Z0.200 F7800.000
G1 E0.50000 F7200.00000
G1 F1633.74
G1 X103.984 Y109.848 E0.00173
G1 F1633.74
G1 X103.798 Y109.485 E0.00471
G1 X103.653 Y109.172 F7800.000
G1 F1633.74
G1 X103.787 Y109.038 E0.00628
G1 X103.732 Y108.538 E0.01673
G1 X103.351 Y108.919 E0.01789
G1 X103.119 Y108.596 E0.01323
G1 X103.773 Y107.942 E0.03073
G1 X103.921 Y107.238 E0.02393
G1 X102.933 Y108.227 E0.04650
G1 X102.759 Y107.845 E0.01395
G1 X104.581 Y106.023 E0.08568
G1 X104.982 Y105.451 E0.02325
G1 X105.178 Y105.249 E0.00935
G1 X104.931 Y105.118 E0.00930
G1 X102.586 Y107.463 E0.11032
G1 X102.413 Y107.081 E0.01395
G1 X104.626 Y104.868 E0.10412
G1 X104.222 Y104.716 E0.01435
G1 X102.239 Y106.699 E0.09328
G1 X102.076 Y106.308 E0.01412
G1 X103.819 Y104.565 E0.08196
G1 X103.745 Y104.537 E0.00263
G1 X103.895 Y103.934 E0.02070
G1 X101.990 Y105.839 E0.08962
G1 X101.903 Y105.370 E0.01585
G1 X104.079 Y103.194 E0.10234
G1 X104.263 Y102.455 E0.02533
G1 X101.921 Y104.797 E0.11015
G1 X101.938 Y104.339 E0.01523
G1 X101.984 Y104.178 E0.00558
G1 X105.249 Y100.913 E0.15357
G1 X104.694 Y100.913 E0.01847
G1 X102.213 Y103.395 E0.11671
G1 X102.237 Y103.314 E0.00280
G1 X102.861 Y102.248 E0.04108
G1 X103.669 Y101.383 E0.03936
G1 F6240
G1 X103.373 Y101.700 E-0.47500
G1 E-0.02500 F7200.00000
G1 Z0.800 F7800.000
G1 X105.357 Y99.586 F7800.000
G1 Z0.200 F7800.000
G1 E0.50000 F7200.00000
G1 F1633.74
G1 X105.546 Y99.397 E0.00885
G1 X105.586 Y99.397 E0.00134
G1 X105.586 Y99.357 E0.00134
G1 F6240
G1 X105.586 Y99.397 E-0.04400
G1 F6240
G1 X105.546 Y99.397 E-0.04400
G1 F6240
G1 X105.357 Y99.586 E-0.29170
G1 E-0.12029 F7200.00000
G1 Z0.800 F7800.000
G1 X105.586 Y95.397 F7800.000
G1 Z0.200 F7800.000
G1 E0.50000 F7200.00000
G1 F1633.74
G1 X105.452 Y95.531 E0.00628
G1 X105.452 Y96.097 E0.01881
G1 X106.152 Y95.397 E0.03288
G1 X106.717 Y95.397 E0.01881
G1 X105.452 Y96.662 E0.05949
G1 X105.452 Y97.228 E0.01881
G1 X107.283 Y95.397 E0.08610
G1 X107.849 Y95.397 E0.01881
G1 X105.452 Y97.794 E0.11271
G1 X105.452 Y98.359 E0.01881
G1 X108.414 Y95.397 E0.13931
G1 X108.980 Y95.397 E0.01881
G1 X105.452 Y98.925 E0.16592
G1 X105.452 Y99.491 E0.01881
G1 X109.546 Y95.397 E0.19253
G1 X109.548 Y95.961 E0.01875
G1 X105.357 Y100.151 E0.19708
G1 X105.357 Y100.717 E0.01881
G1 X109.548 Y96.527 E0.19708
G1 X109.548 Y97.093 E0.01881
G1 X106.098 Y100.542 E0.16225
G1 X106.591 Y100.246 E0.01911
G1 X107.075 Y100.131 E0.01656
G1 X109.548 Y97.658 E0.11630
G1 X109.548 Y98.224 E0.01881
G1 X107.793 Y99.979 E0.08253
G1 X108.154 Y99.979 E0.01202
G1 X108.308 Y100.029 E0.00539
G1 X109.548 Y98.790 E0.05828
G1 X109.548 Y99.355 E0.01881
G1 X108.735 Y100.168 E0.03821
G1 X109.162 Y100.307 E0.01493
G1 X109.673 Y99.796 E0.02402
G1 X109.673 Y100.362 E0.01881
G1 X109.539 Y100.495 E0.00627
G1 X109.959 Y100.792 F7800.000
G1 F1633.74
G1 X110.143 Y100.951 E0.00112
G1 F6240
G1 X109.959 Y100.792 E-0.26688
G1 E-0.23312 F7200.00000
G1 Z0.800 F7800.000
G1 X110.840 Y101.169 F7800.000
G1 X112.053 Y102.564 F7800.000
G1 X112.516 Y103.799 F7800.000
G1 X112.598 Y105.043 F7800.000
G1 X112.291 Y106.521 F7800.000
G1 X109.648 Y105.746 F7800.000
G1 X109.655 Y106.432 F7800.000
G1 Z0.200 F7800.000
G1 E0.50000 F7200.00000
G1 F1633.74
G1 X109.536 Y106.734 E0.00198
G1 F6240
G1 X109.655 Y106.432 E-0.35549
G1 E-0.14451 F7200.00000
G1 Z0.800 F7800.000
G1 X109.648 Y105.746 F7800.000
G1 X112.291 Y106.521 F7800.000
G1 X112.598 Y105.043 F7800.000
G1 X112.516 Y103.799 F7800.000
G1 X111.941 Y102.377 F7800.000
G1 X110.840 Y101.169 F7800.000
G1 X110.514 Y101.016 F7800.000
G1 X110.514 Y100.072 F7800.000
G1 X110.267 Y100.365 F7800.000
G1 X109.570 Y100.365 F7800.000
G1 X107.471 Y97.919 F7800.000
G1 X106.245 Y99.481 F7800.000
G1 X105.446 Y100.865 F7800.000
G1 X105.265 Y100.835 F7800.000
G1 X105.265 Y101.016 F7800.000
G1 X104.382 Y101.438 F7800.000
G1 X103.817 Y102.011 F7800.000
G1 X102.876 Y104.313 F7800.000
G1 X102.986 Y105.216 F7800.000
G1 X103.295 Y105.676 F7800.000
G1 X105.563 Y105.085 F7800.000
