; generated by Slic3r 1.3.0 on 2020-02-17 at 17:06:24

; external perimeters extrusion width = 0.45mm (2.04mm^3/s)
; perimeters extrusion width = 0.45mm (3.66mm^3/s)
; infill extrusion width = 0.45mm (4.88mm^3/s)
; solid infill extrusion width = 0.45mm (4.88mm^3/s)
; top infill extrusion width = 0.45mm (3.26mm^3/s)

M107
M83  ; extruder relative mode
; G28 ; home all 
G0 Z25 ; move z 25 mm up
M104 S235 ; set extruder temp
M140 S75 ; set bed temp
M190 S75 ; wait for bed temp
M109 S235 ; wait for extruder temp
G28 ; home all
; G29 ; mesh bed leveling
G92 E0.0
G1 Y10  F1000.0 ; intro line
G1 X60.0 E9.0  F1000.0 ; intro line
G1 Z0  F1000.0 ; intro line
G1 X100.0 E12.5  F1000.0 ; intro line
G92 E0.0



; Filament gcode

G21 ; set units to millimeters
G90 ; use absolute coordinates
M83 ; use relative distances for extrusion
;BEFORE_LAYER_CHANGE
G92 E0.0
;0.2
G1 E-0.50000 F7200.00000
G1 Z0.680 F7800.000
G1 X98.184 Y101.115 F7800.000
G1 Z0.280 F7800.000
G1 E0.50000 F7200.00000
G1 F1200
G1 X99.099 Y100.436 E0.03572
G1 X100.586 Y99.713 E0.05184
G1 X104.039 Y98.256 E0.11751
G1 X104.550 Y98.090 E0.01684
G1 X105.159 Y97.949 E0.01961
G1 X105.865 Y97.869 E0.02228
G1 X110.001 Y98.210 E0.13012
G1 X110.461 Y98.284 E0.01461
G1 X111.665 Y98.571 E0.03881
G1 X112.592 Y98.958 E0.03150
G1 X113.692 Y99.642 E0.04061
G1 X114.253 Y100.087 E0.02244
G1 X114.347 Y100.185 E0.00426
G1 X117.791 Y103.942 E0.15980
G1 X118.218 Y104.533 E0.02284
G1 X118.735 Y105.460 E0.03328
G1 X119.130 Y107.059 E0.05166
G1 X119.108 Y107.987 E0.02911
G1 X118.907 Y109.019 E0.03295
G1 X117.847 Y111.827 E0.09411
G1 X117.434 Y112.809 E0.03342
G1 X116.915 Y113.640 E0.03071
G1 X116.299 Y114.349 E0.02945
G1 X115.548 Y114.979 E0.03071
G1 X114.743 Y115.463 E0.02945
G1 X113.881 Y115.819 E0.02924
G1 X109.941 Y116.793 E0.12725
G1 X108.369 Y117.082 E0.05014
G1 X107.815 Y117.131 E0.01743
G1 X106.196 Y117.028 E0.05088
G1 X105.659 Y116.944 E0.01703
G1 X101.771 Y115.985 E0.12556
G1 X101.300 Y115.828 E0.01558
G1 X100.724 Y115.584 E0.01961
G1 X99.889 Y115.062 E0.03087
G1 X99.417 Y114.651 E0.01962
G1 X98.789 Y113.902 E0.03064
G1 X98.371 Y113.194 E0.02580
G1 X96.724 Y110.014 E0.11229
G1 X96.538 Y109.578 E0.01486
G1 X96.034 Y108.089 E0.04929
G1 X95.869 Y107.081 E0.03203
G1 X95.871 Y105.603 E0.04634
G1 X96.080 Y104.482 E0.03575
G1 X96.589 Y103.160 E0.04442
G1 X97.219 Y102.152 E0.03727
G1 X98.143 Y101.159 E0.04253
G1 X98.460 Y101.372 F7800.000
G1 F1200
G1 X99.264 Y100.775 E0.03142
G1 X100.732 Y100.060 E0.05118
G1 X104.185 Y98.603 E0.11751
G1 X104.635 Y98.458 E0.01481
G1 X105.244 Y98.317 E0.01961
G1 X105.865 Y98.246 E0.01960
G1 X109.969 Y98.586 E0.12912
G1 X110.374 Y98.651 E0.01285
G1 X111.578 Y98.938 E0.03881
G1 X112.393 Y99.278 E0.02771
G1 X113.493 Y99.962 E0.04061
G1 X113.986 Y100.354 E0.01974
G1 X114.069 Y100.440 E0.00375
G1 X117.513 Y104.197 E0.15980
G1 X117.888 Y104.717 E0.02009
G1 X118.405 Y105.644 E0.03328
G1 X118.753 Y107.050 E0.04544
G1 X118.731 Y107.978 E0.02911
G1 X118.555 Y108.886 E0.02899
G1 X117.495 Y111.694 E0.09411
G1 X117.086 Y112.662 E0.03294
G1 X116.630 Y113.392 E0.02701
G1 X116.014 Y114.101 E0.02945
G1 X115.354 Y114.655 E0.02702
G1 X114.549 Y115.139 E0.02945
G1 X113.791 Y115.453 E0.02572
G1 X109.851 Y116.427 E0.12725
G1 X108.302 Y116.711 E0.04938
G1 X107.815 Y116.754 E0.01533
G1 X106.221 Y116.652 E0.05007
G1 X105.749 Y116.578 E0.01498
G1 X101.861 Y115.619 E0.12556
G1 X101.447 Y115.481 E0.01370
G1 X100.871 Y115.237 E0.01961
G1 X100.136 Y114.778 E0.02715
G1 X99.664 Y114.367 E0.01962
G1 X99.112 Y113.708 E0.02695
G1 X98.705 Y113.021 E0.02505
G1 X97.058 Y109.841 E0.11229
G1 X96.895 Y109.457 E0.01307
G1 X96.391 Y107.968 E0.04929
G1 X96.246 Y107.081 E0.02817
G1 X96.248 Y105.603 E0.04634
G1 X96.432 Y104.617 E0.03144
G1 X96.941 Y103.295 E0.04442
G1 X97.495 Y102.409 E0.03278
G1 X98.419 Y101.416 E0.04253
G1 X98.736 Y101.629 F7800.000
G1 F1200
G1 X99.430 Y101.113 E0.02712
G1 X100.757 Y100.463 E0.04633
G1 X104.332 Y98.951 E0.12170
G1 X104.720 Y98.825 E0.01279
G1 X105.329 Y98.684 E0.01961
G1 X105.865 Y98.623 E0.01692
G1 X109.937 Y98.962 E0.12811
G1 X110.286 Y99.018 E0.01109
G1 X111.490 Y99.305 E0.03881
G1 X112.194 Y99.598 E0.02392
G1 X113.294 Y100.282 E0.04061
G1 X113.791 Y100.695 E0.02025
G1 X117.235 Y104.452 E0.15980
G1 X117.559 Y104.900 E0.01734
G1 X118.076 Y105.827 E0.03328
G1 X118.376 Y107.041 E0.03922
G1 X118.354 Y107.969 E0.02911
G1 X118.202 Y108.753 E0.02502
G1 X117.106 Y111.649 E0.09711
G1 X116.739 Y112.514 E0.02946
G1 X116.345 Y113.145 E0.02331
G1 X115.729 Y113.854 E0.02945
G1 X115.160 Y114.332 E0.02332
G1 X114.355 Y114.816 E0.02945
G1 X113.700 Y115.087 E0.02220
G1 X109.760 Y116.061 E0.12725
G1 X108.235 Y116.340 E0.04861
G1 X107.815 Y116.377 E0.01323
G1 X106.247 Y116.276 E0.04926
G1 X105.840 Y116.212 E0.01293
G1 X101.952 Y115.253 E0.12556
G1 X101.594 Y115.134 E0.01183
G1 X101.018 Y114.890 E0.01961
G1 X100.384 Y114.494 E0.02343
G1 X99.912 Y114.083 E0.01962
G1 X99.435 Y113.514 E0.02326
G1 X99.040 Y112.847 E0.02430
G1 X97.393 Y109.667 E0.11229
G1 X97.252 Y109.336 E0.01128
G1 X96.748 Y107.847 E0.04929
G1 X96.623 Y107.082 E0.02432
G1 X96.625 Y105.604 E0.04634
G1 X96.784 Y104.753 E0.02714
G1 X97.293 Y103.431 E0.04442
G1 X97.771 Y102.666 E0.02829
G1 X98.695 Y101.673 E0.04253
G1 F6240
G1 X99.040 Y101.410 E-0.47500
G1 E-0.02500 F7200.00000
G1 Z0.880 F7800.000
G1 X104.153 Y111.935 F7800.000
G1 Z0.280 F7800.000
G1 E0.50000 F7200.00000
G1 F1200
G1 X103.531 Y112.308 E0.02273
G1 X103.103 Y112.407 E0.01379
G1 X102.665 Y112.368 E0.01378
G1 X102.260 Y112.197 E0.01378
G1 X101.928 Y111.908 E0.01378
G1 X101.702 Y111.531 E0.01378
G1 X101.603 Y111.102 E0.01381
G1 X101.641 Y110.665 E0.01376
G1 X101.809 Y110.272 E0.01341
G1 X100.899 Y109.524 E0.03691
G1 X100.032 Y108.304 E0.04692
G1 X99.587 Y106.989 E0.04354
G1 X99.589 Y105.716 E0.03989
G1 X100.018 Y104.602 E0.03745
G1 X100.832 Y103.727 E0.03745
G1 X101.974 Y103.168 E0.03987
G1 X103.352 Y102.992 E0.04356
G1 X104.422 Y103.170 E0.03400
G1 X104.813 Y102.250 E0.03133
G1 X105.101 Y101.918 E0.01377
G1 X105.476 Y101.693 E0.01372
G1 X105.922 Y101.594 E0.01431
G1 X106.345 Y101.632 E0.01333
G1 X106.750 Y101.803 E0.01378
G1 X107.081 Y102.092 E0.01377
G1 X107.444 Y102.697 E0.02212
G1 X108.718 Y102.038 E0.04498
G1 X109.699 Y101.925 E0.03097
G1 X110.710 Y102.166 E0.03258
G1 X111.655 Y102.754 E0.03489
G1 X112.432 Y103.639 E0.03694
G1 X112.951 Y104.734 E0.03798
G1 X113.027 Y105.187 E0.01440
G1 X114.161 Y105.723 E0.03933
G1 X115.024 Y106.440 E0.03516
G1 X115.409 Y107.131 E0.02483
G1 X115.395 Y107.729 E0.01875
G1 X115.000 Y108.323 E0.02238
G1 X114.181 Y108.848 E0.03049
G1 X114.407 Y109.827 E0.03152
G1 X114.341 Y110.577 E0.02360
G1 X114.047 Y111.271 E0.02364
G1 X113.553 Y111.840 E0.02362
G1 X112.907 Y112.228 E0.02361
G1 X112.173 Y112.397 E0.02364
G1 X111.423 Y112.331 E0.02361
G1 X110.780 Y112.059 E0.02189
G1 X110.073 Y112.693 E0.02977
G1 X109.011 Y113.189 E0.03675
G1 X107.783 Y113.409 E0.03913
G1 X106.523 Y113.323 E0.03959
G1 X105.371 Y112.943 E0.03802
G1 X104.451 Y112.322 E0.03481
G1 X104.189 Y111.982 E0.01344
G1 F6240
G1 X103.801 Y112.174 E-0.47500
G1 E-0.02500 F7200.00000
G1 Z0.880 F7800.000
G1 X107.585 Y102.199 F7800.000
G1 Z0.280 F7800.000
G1 E0.50000 F7200.00000
G1 F1200
G1 X108.606 Y101.671 E0.03604
G1 X109.722 Y101.543 E0.03522
G1 X110.857 Y101.813 E0.03658
G1 X111.902 Y102.463 E0.03857
G1 X112.750 Y103.430 E0.04034
G1 X113.314 Y104.620 E0.04127
G1 X113.366 Y104.930 E0.00987
G1 X114.365 Y105.402 E0.03465
G1 X115.319 Y106.195 E0.03886
G1 X115.789 Y107.037 E0.03026
G1 X115.770 Y107.847 E0.02540
G1 X115.270 Y108.598 E0.02828
G1 X114.608 Y109.022 E0.02464
G1 X114.788 Y109.801 E0.02506
G1 X114.712 Y110.670 E0.02734
G1 X114.371 Y111.473 E0.02738
G1 X113.798 Y112.132 E0.02736
G1 X113.050 Y112.582 E0.02736
G1 X112.199 Y112.778 E0.02739
G1 X111.330 Y112.702 E0.02735
G1 X110.853 Y112.500 E0.01625
G1 X110.283 Y113.011 E0.02401
G1 X109.126 Y113.551 E0.04004
G1 X107.803 Y113.789 E0.04213
G1 X106.450 Y113.696 E0.04254
G1 X105.203 Y113.285 E0.04115
G1 X104.190 Y112.600 E0.03836
G1 X104.059 Y112.431 E0.00670
G1 X103.674 Y112.662 E0.01408
G1 X103.129 Y112.788 E0.01754
G1 X102.572 Y112.739 E0.01753
G1 X102.058 Y112.521 E0.01753
G1 X101.636 Y112.153 E0.01754
G1 X101.348 Y111.674 E0.01752
G1 X101.222 Y111.129 E0.01755
G1 X101.270 Y110.573 E0.01751
G1 X101.351 Y110.384 E0.00644
G1 X100.621 Y109.784 E0.02963
G1 X99.693 Y108.477 E0.05023
G1 X99.210 Y107.051 E0.04723
G1 X99.212 Y105.646 E0.04403
G1 X99.692 Y104.398 E0.04192
G1 X100.603 Y103.419 E0.04192
G1 X101.864 Y102.802 E0.04402
G1 X103.359 Y102.611 E0.04725
G1 X104.191 Y102.749 E0.02644
G1 X104.489 Y102.048 E0.02390
G1 X104.856 Y101.626 E0.01752
G1 X105.335 Y101.339 E0.01752
G1 X105.897 Y101.214 E0.01805
G1 X106.438 Y101.261 E0.01702
G1 X106.952 Y101.479 E0.01753
G1 X107.374 Y101.846 E0.01753
G1 X107.554 Y102.148 E0.01101
G1 X107.797 Y102.538 F7800.000
G1 F6240
G1 X107.949 Y101.969 E-0.47500
G1 E-0.02500 F7200.00000
G1 Z0.880 F7800.000
G1 X105.813 Y101.953 F7800.000
G1 Z0.280 F7800.000
G1 E0.50000 F7200.00000
G1 F1200
G1 X104.939 Y102.827 E0.03881
G1 F6240
G1 X105.245 Y102.520 E-0.47500
G1 E-0.02500 F7200.00000
G1 Z0.880 F7800.000
G1 X100.994 Y104.102 F7800.000
G1 Z0.280 F7800.000
G1 E0.50000 F7200.00000
G1 F1200
G1 X101.127 Y103.969 E0.00592
G1 X102.164 Y103.466 E0.03618
G1 X99.976 Y105.654 E0.09716
G1 X99.899 Y105.853 E0.00672
G1 X99.899 Y106.265 E0.01293
G1 X102.776 Y103.388 E0.12778
G1 X103.388 Y103.310 E0.01937
G1 X99.898 Y106.800 E0.15499
G1 X99.898 Y106.994 E0.00608
G1 X99.984 Y107.248 E0.00844
G1 X103.852 Y103.380 E0.17177
G1 X104.310 Y103.456 E0.01458
G1 X100.119 Y107.647 E0.18612
G1 X100.254 Y108.046 E0.01323
G1 X106.351 Y101.949 E0.27074
G1 X106.614 Y102.060 E0.00897
G1 X106.700 Y102.134 E0.00355
G1 X100.443 Y108.391 E0.27782
G1 X100.665 Y108.703 E0.01202
G1 X106.946 Y102.422 E0.27892
G1 X107.146 Y102.756 E0.01222
G1 X100.886 Y109.016 E0.27796
G1 X101.108 Y109.328 E0.01202
G1 X107.346 Y103.090 E0.27699
G1 X107.369 Y103.128 E0.00139
G1 X108.349 Y102.621 E0.03464
G1 X101.400 Y109.570 E0.30855
G1 X101.694 Y109.811 E0.01191
G1 X109.201 Y102.303 E0.33337
G1 X109.743 Y102.241 E0.01713
G1 X109.787 Y102.251 E0.00142
G1 X101.987 Y110.052 E0.34637
G1 X102.200 Y110.227 E0.00866
G1 X102.091 Y110.481 E0.00869
G1 X110.218 Y102.354 E0.36088
G1 X110.645 Y102.461 E0.01381
G1 X101.926 Y111.180 E0.38716
G1 X101.989 Y111.455 E0.00885
G1 X102.063 Y111.577 E0.00448
G1 X110.974 Y102.666 E0.39569
G1 X111.303 Y102.871 E0.01217
G1 X102.310 Y111.865 E0.39936
G1 X102.396 Y111.940 E0.00359
G1 X102.658 Y112.051 E0.00893
G1 X111.594 Y103.114 E0.39683
G1 X111.844 Y103.398 E0.01188
G1 X103.192 Y112.051 E0.38420
G1 X103.322 Y112.021 E0.00419
G1 X104.180 Y111.505 E0.03144
G1 X104.220 Y111.557 E0.00205
G1 X112.093 Y103.683 E0.34963
G1 X112.180 Y103.782 E0.00413
G1 X112.292 Y104.018 E0.00821
G1 X104.452 Y111.858 E0.34813
G1 X104.646 Y112.110 E0.00997
G1 X104.699 Y112.145 E0.00200
G1 X112.464 Y104.380 E0.34480
G1 X112.636 Y104.743 E0.01259
G1 X105.018 Y112.361 E0.33828
G1 X105.336 Y112.576 E0.01208
G1 X112.723 Y105.189 E0.32800
G1 X112.755 Y105.377 E0.00597
G1 X112.968 Y105.478 E0.00742
G1 X105.702 Y112.744 E0.32264
G1 X106.104 Y112.877 E0.01327
G1 X113.331 Y105.649 E0.32091
G1 X113.694 Y105.821 E0.01259
G1 X106.505 Y113.009 E0.31919
G1 X106.999 Y113.049 E0.01556
G1 X114.050 Y105.999 E0.31307
G1 X114.341 Y106.241 E0.01191
G1 X107.499 Y113.083 E0.30382
G1 X107.695 Y113.097 E0.00617
G1 X108.091 Y113.026 E0.01262
G1 X114.633 Y106.483 E0.29050
G1 X114.795 Y106.618 E0.00662
G1 X114.880 Y106.770 E0.00547
G1 X108.742 Y112.909 E0.27256
G1 X108.829 Y112.893 E0.00279
G1 X109.697 Y112.488 E0.03005
G1 X115.071 Y107.113 E0.23866
G1 X115.097 Y107.158 E0.00162
G1 X115.087 Y107.544 E0.01212
G1 X114.915 Y107.804 E0.00979
G1 X114.497 Y108.221 E0.01853
G1 X113.875 Y108.844 F7800.000
G1 F1200
G1 X110.916 Y111.802 E0.13138
G1 X111.291 Y111.961 E0.01279
G1 X113.975 Y109.277 E0.11917
G1 X114.075 Y109.711 E0.01398
G1 X111.734 Y112.053 E0.10396
G1 X112.080 Y112.083 E0.01089
G1 X112.285 Y112.036 E0.00662
G1 X114.051 Y110.270 E0.07840
G1 X114.038 Y110.418 E0.00467
G1 X113.790 Y111.002 E0.01992
G1 X113.240 Y111.614 E0.02582
M140 S70 ; set bed temperature
;BEFORE_LAYER_CHANGE
G92 E0.0
;0.4
G1 F6240
G1 X113.530 Y111.292 E-0.47500
G1 E-0.02500 F7200.00000
G1 Z0.880 F7800.000
G1 X98.184 Y101.115 F7800.000
G1 Z0.480 F7800.000
G1 E0.50000 F7200.00000
G1 F1201.85
G1 X99.099 Y100.436 E0.03572
G1 X100.586 Y99.713 E0.05184
G1 X104.039 Y98.256 E0.11751
G1 X104.550 Y98.090 E0.01684
G1 X105.159 Y97.949 E0.01961
G1 X105.865 Y97.869 E0.02228
G1 X110.001 Y98.210 E0.13012
G1 X110.461 Y98.284 E0.01461
G1 X111.665 Y98.571 E0.03881
G1 X112.592 Y98.958 E0.03150
G1 X113.692 Y99.642 E0.04061
G1 X114.253 Y100.087 E0.02244
G1 X114.347 Y100.185 E0.00426
G1 X117.791 Y103.942 E0.15980
G1 X118.218 Y104.533 E0.02284
G1 X118.735 Y105.460 E0.03328
G1 X119.130 Y107.059 E0.05166
G1 X119.108 Y107.987 E0.02911
G1 X118.907 Y109.019 E0.03295
G1 X117.847 Y111.827 E0.09411
G1 X117.434 Y112.809 E0.03342
G1 X116.915 Y113.640 E0.03071
G1 X116.299 Y114.349 E0.02945
G1 X115.548 Y114.979 E0.03071
G1 X114.743 Y115.463 E0.02945
G1 X113.881 Y115.819 E0.02924
G1 X109.941 Y116.793 E0.12725
G1 X108.369 Y117.082 E0.05014
G1 X107.815 Y117.131 E0.01743
G1 X106.196 Y117.028 E0.05088
G1 X105.659 Y116.944 E0.01703
G1 X101.771 Y115.985 E0.12556
G1 X101.300 Y115.828 E0.01558
G1 X100.724 Y115.584 E0.01961
G1 X99.889 Y115.062 E0.03087
G1 X99.417 Y114.651 E0.01962
G1 X98.789 Y113.902 E0.03064
G1 X98.371 Y113.194 E0.02580
G1 X96.724 Y110.014 E0.11229
G1 X96.538 Y109.578 E0.01486
G1 X96.034 Y108.089 E0.04929
G1 X95.869 Y107.081 E0.03203
G1 X95.871 Y105.603 E0.04634
G1 X96.080 Y104.482 E0.03575
G1 X96.589 Y103.160 E0.04442
G1 X97.219 Y102.152 E0.03727
G1 X98.143 Y101.159 E0.04253
G1 F6240
G1 X98.488 Y100.897 E-0.47500
G1 E-0.02500 F7200.00000
G1 Z1.080 F7800.000
G1 X111.079 Y109.800 F7800.000
G1 Z0.480 F7800.000
G1 E0.50000 F7200.00000
G1 F900
G1 X103.920 Y109.800 E0.24233
G1 X103.920 Y105.200 E0.15571
G1 X111.079 Y105.200 E0.24233
G1 X111.079 Y109.740 E0.15368
G1 X110.672 Y109.393 F7800.000
G1 F1500
G1 X104.327 Y109.393 E0.21477
G1 X104.327 Y105.607 E0.12815
G1 X110.672 Y105.607 E0.21477
G1 X110.672 Y109.333 E0.12612
G1 X110.807 Y109.770 F7800.000
G1 X104.164 Y111.875 F7800.000
G1 F1081.67
G1 X103.514 Y112.266 E0.02566
G1 X103.100 Y112.362 E0.01441
G1 X102.676 Y112.324 E0.01440
G1 X102.284 Y112.158 E0.01440
G1 X101.963 Y111.879 E0.01440
G1 X101.744 Y111.514 E0.01440
G1 X101.648 Y111.099 E0.01442
G1 X101.685 Y110.676 E0.01437
G1 X101.863 Y110.259 E0.01537
G1 X100.932 Y109.493 E0.04079
G1 X100.073 Y108.284 E0.05023
G1 X99.632 Y106.981 E0.04653
G1 X99.634 Y105.725 E0.04253
G1 X100.057 Y104.626 E0.03985
G1 X100.859 Y103.764 E0.03985
G1 X101.987 Y103.212 E0.04251
G1 X103.351 Y103.038 E0.04655
G1 X104.449 Y103.220 E0.03768
G1 X104.852 Y102.274 E0.03478
G1 X105.130 Y101.953 E0.01438
G1 X105.496 Y101.734 E0.01442
G1 X105.910 Y101.638 E0.01438
G1 X106.334 Y101.676 E0.01443
G1 X106.726 Y101.842 E0.01439
G1 X107.046 Y102.121 E0.01438
G1 X107.427 Y102.756 E0.02507
G1 X108.731 Y102.082 E0.04971
G1 X109.697 Y101.971 E0.03289
G1 X110.692 Y102.208 E0.03465
G1 X111.626 Y102.788 E0.03719
G1 X112.394 Y103.664 E0.03944
G1 X112.907 Y104.748 E0.04058
G1 X112.987 Y105.217 E0.01613
G1 X114.137 Y105.761 E0.04306
G1 X114.988 Y106.469 E0.03748
G1 X115.364 Y107.142 E0.02610
G1 X115.350 Y107.715 E0.01939
G1 X114.967 Y108.290 E0.02340
G1 X114.130 Y108.827 E0.03367
G1 X114.362 Y109.831 E0.03485
G1 X114.297 Y110.566 E0.02499
G1 X114.008 Y111.247 E0.02503
G1 X113.524 Y111.805 E0.02502
G1 X112.890 Y112.186 E0.02501
G1 X112.170 Y112.352 E0.02503
G1 X111.434 Y112.287 E0.02501
G1 X110.771 Y112.006 E0.02436
G1 X110.048 Y112.655 E0.03288
G1 X108.997 Y113.145 E0.03924
G1 X107.780 Y113.364 E0.04186
G1 X106.532 Y113.279 E0.04236
G1 X105.391 Y112.902 E0.04065
G1 X104.482 Y112.288 E0.03713
G1 X104.201 Y111.923 E0.01562
G1 X103.928 Y110.902 F7800.000
G1 X102.976 Y110.886 F7800.000
G1 X102.698 Y109.363 F7800.000
G1 X101.895 Y107.353 F7800.000
