; generated by Slic3r 1.3.0 on 2020-05-06 at 13:28:01

; external perimeters extrusion width = 0.45mm (2.04mm^3/s)
; perimeters extrusion width = 0.45mm (3.66mm^3/s)
; infill extrusion width = 0.45mm (6.51mm^3/s)
; solid infill extrusion width = 0.45mm (6.51mm^3/s)
; top infill extrusion width = 0.45mm (3.26mm^3/s)

M107
M83  ; extruder relative mode
; G28 ; home all 
G0 Z25 ; move z 25 mm up
M104 S210 ; set extruder temp
M140 S60 ; set bed temp
M190 S60 ; wait for bed temp
M109 S210 ; wait for extruder temp
G28 ; home all
G29 ; mesh bed leveling
G92 E0.0
G1 Y10  F1000.0 ; intro line
G1 X60.0 E9.0  F1000.0 ; intro line
G1 Z0  F1000.0 ; intro line
G1 X100.0 E12.5  F1000.0 ; intro line
G92 E0.0



; Filament gcode

G21 ; set units to millimeters
G90 ; use absolute coordinates
M83 ; use relative distances for extrusion
;BEFORE_LAYER_CHANGE
G92 E0.0
;0.2
G1 E-0.50000 F7200.00000
G1 Z0.600 F7800.000
G1 X79.757 Y98.181 F7800.000
G1 Z0.200 F7800.000
G1 E0.50000 F7200.00000
G1 F1800
G1 X80.280 Y97.822 E0.01986
G1 X80.836 Y97.547 E0.01947
G1 X81.163 Y97.427 E0.01092
G1 X81.547 Y97.322 E0.01247
G1 X82.160 Y97.224 E0.01948
G1 X106.142 Y95.468 E0.75395
G1 X107.530 Y95.423 E0.04353
G1 X108.277 Y95.438 E0.02344
G1 X108.986 Y95.478 E0.02226
G1 X110.363 Y95.629 E0.04343
G1 X111.086 Y95.747 E0.02297
G1 X111.891 Y95.909 E0.02578
G1 X113.133 Y96.228 E0.04021
G1 X114.345 Y96.622 E0.03996
G1 X115.556 Y97.104 E0.04086
G1 X116.816 Y97.705 E0.04378
G1 X117.949 Y98.342 E0.04074
G1 X119.077 Y99.078 E0.04222
G1 X120.043 Y99.799 E0.03781
G1 X121.101 Y100.702 E0.04361
G1 X122.091 Y101.674 E0.04351
G1 X122.604 Y102.235 E0.02382
G1 X123.183 Y102.923 E0.02819
G1 X123.645 Y103.521 E0.02368
G1 X124.067 Y104.111 E0.02277
G1 X124.460 Y104.704 E0.02231
G1 X124.933 Y105.486 E0.02866
G1 X125.081 Y105.776 E0.01020
G1 X125.254 Y106.208 E0.01458
G1 X125.353 Y106.552 E0.01123
G1 X125.426 Y106.942 E0.01242
G1 X125.462 Y107.305 E0.01143
G1 X125.463 Y107.664 E0.01127
G1 X125.437 Y107.984 E0.01006
G1 X125.370 Y108.375 E0.01243
G1 X125.276 Y108.724 E0.01135
G1 X125.170 Y109.017 E0.00976
G1 X124.900 Y109.572 E0.01933
G1 X124.257 Y110.609 E0.03828
G1 X123.437 Y111.754 E0.04414
G1 X122.576 Y112.796 E0.04239
G1 X121.834 Y113.591 E0.03409
G1 X120.909 Y114.471 E0.04003
G1 X120.026 Y115.214 E0.03620
G1 X119.193 Y115.840 E0.03266
G1 X118.135 Y116.545 E0.03986
G1 X117.011 Y117.192 E0.04067
G1 X116.045 Y117.676 E0.03387
G1 X115.064 Y118.103 E0.03356
G1 X113.897 Y118.533 E0.03898
G1 X112.711 Y118.890 E0.03882
G1 X111.646 Y119.144 E0.03436
G1 X110.348 Y119.374 E0.04132
G1 X109.067 Y119.515 E0.04040
G1 X107.750 Y119.576 E0.04135
G1 X106.549 Y119.555 E0.03767
G1 X82.251 Y117.784 E0.76385
G1 X81.875 Y117.741 E0.01188
G1 X81.536 Y117.676 E0.01083
G1 X80.951 Y117.498 E0.01917
G1 X80.668 Y117.379 E0.00961
G1 X80.302 Y117.191 E0.01292
G1 X80.013 Y117.008 E0.01073
G1 X79.757 Y116.819 E0.00996
G1 X79.377 Y116.479 E0.01600
G1 X79.163 Y116.247 E0.00990
G1 X78.788 Y115.742 E0.01971
G1 X78.631 Y115.475 E0.00972
G1 X78.442 Y115.086 E0.01355
G1 X78.239 Y114.503 E0.01937
G1 X78.167 Y114.199 E0.00979
G1 X78.096 Y113.742 E0.01449
G1 X78.069 Y113.231 E0.01607
G1 X78.069 Y101.769 E0.35937
G1 X78.094 Y101.276 E0.01548
G1 X78.166 Y100.804 E0.01496
G1 X78.276 Y100.373 E0.01394
G1 X78.443 Y99.911 E0.01541
G1 X78.632 Y99.523 E0.01353
G1 X78.788 Y99.257 E0.00967
G1 X79.079 Y98.855 E0.01557
G1 X79.377 Y98.522 E0.01403
G1 X79.711 Y98.219 E0.01413
G1 X79.989 Y98.479 F7800.000
G1 F1800
G1 X80.466 Y98.150 E0.01816
G1 X80.976 Y97.898 E0.01783
G1 X81.273 Y97.788 E0.00995
G1 X81.637 Y97.688 E0.01182
G1 X82.200 Y97.599 E0.01789
G1 X106.169 Y95.844 E0.75353
G1 X107.527 Y95.800 E0.04261
G1 X108.263 Y95.815 E0.02307
G1 X108.956 Y95.854 E0.02175
G1 X110.307 Y96.002 E0.04262
G1 X111.017 Y96.118 E0.02257
G1 X111.811 Y96.278 E0.02538
G1 X113.029 Y96.591 E0.03942
G1 X114.216 Y96.976 E0.03914
G1 X115.405 Y97.449 E0.04013
G1 X116.643 Y98.040 E0.04300
G1 X117.753 Y98.664 E0.03995
G1 X118.862 Y99.387 E0.04149
G1 X119.807 Y100.093 E0.03698
G1 X120.823 Y100.959 E0.04187
G1 X121.816 Y101.932 E0.04360
G1 X122.319 Y102.482 E0.02338
G1 X122.889 Y103.158 E0.02770
G1 X123.342 Y103.746 E0.02328
G1 X123.756 Y104.323 E0.02226
G1 X124.141 Y104.905 E0.02186
G1 X124.578 Y105.624 E0.02640
G1 X124.740 Y105.937 E0.01105
G1 X124.874 Y106.264 E0.01107
G1 X124.985 Y106.637 E0.01220
G1 X125.042 Y106.919 E0.00903
G1 X125.081 Y107.252 E0.01052
G1 X125.087 Y107.647 E0.01237
G1 X125.063 Y107.933 E0.00900
G1 X125.002 Y108.290 E0.01137
G1 X124.916 Y108.614 E0.01052
G1 X124.798 Y108.931 E0.01058
G1 X124.497 Y109.515 E0.02062
G1 X123.766 Y110.662 E0.04263
G1 X123.362 Y111.228 E0.02182
G1 X122.931 Y111.788 E0.02215
G1 X122.103 Y112.759 E0.04000
G1 X121.328 Y113.563 E0.03503
G1 X120.577 Y114.262 E0.03216
G1 X119.558 Y115.101 E0.04137
G1 X118.699 Y115.726 E0.03330
G1 X117.662 Y116.391 E0.03864
G1 X116.800 Y116.878 E0.03103
G1 X115.748 Y117.398 E0.03681
G1 X114.760 Y117.818 E0.03366
G1 X113.632 Y118.224 E0.03759
G1 X112.613 Y118.526 E0.03332
G1 X111.546 Y118.779 E0.03439
G1 X110.296 Y119.000 E0.03977
G1 X109.037 Y119.139 E0.03973
G1 X107.742 Y119.199 E0.04063
G1 X106.568 Y119.179 E0.03683
G1 X82.279 Y117.408 E0.76359
G1 X81.627 Y117.310 E0.02066
G1 X81.090 Y117.148 E0.01761
G1 X80.831 Y117.039 E0.00881
G1 X80.485 Y116.861 E0.01218
G1 X79.989 Y116.521 E0.01886
G1 X79.649 Y116.217 E0.01432
G1 X79.452 Y116.005 E0.00905
G1 X79.108 Y115.543 E0.01805
G1 X78.908 Y115.192 E0.01268
G1 X78.787 Y114.934 E0.00894
G1 X78.678 Y114.646 E0.00966
G1 X78.562 Y114.242 E0.01317
G1 X78.468 Y113.674 E0.01806
G1 X78.446 Y113.231 E0.01391
G1 X78.445 Y103.529 E0.30420
G1 X78.446 Y101.769 E0.05517
G1 X78.470 Y101.308 E0.01447
G1 X78.535 Y100.884 E0.01346
G1 X78.638 Y100.479 E0.01310
G1 X78.788 Y100.064 E0.01383
G1 X78.908 Y99.808 E0.00887
G1 X79.109 Y99.456 E0.01271
G1 X79.369 Y99.095 E0.01395
G1 X79.649 Y98.783 E0.01313
G1 X79.943 Y98.517 E0.01244
G1 F6240
G1 X80.083 Y98.406 E-0.19609
G1 F6240
G1 X80.223 Y98.305 E-0.18913
G1 F6240
G1 X80.291 Y98.259 E-0.08978
G1 E-0.02500 F7200.00000
G1 Z0.800 F7800.000
G1 X87.263 Y109.067 F7800.000
G1 Z0.200 F7800.000
G1 E0.50000 F7200.00000
G1 F1800
G1 X87.263 Y105.933 E0.09824
G1 X81.598 Y105.933 E0.17762
G1 X81.610 Y101.800 E0.12960
G1 X81.676 Y101.506 E0.00945
G1 X81.802 Y101.250 E0.00895
G1 X81.956 Y101.066 E0.00753
G1 X82.146 Y100.920 E0.00751
G1 X82.421 Y100.803 E0.00937
G1 X82.714 Y100.753 E0.00931
G1 X106.473 Y99.083 E0.74680
G1 X107.625 Y99.051 E0.03614
G1 X108.681 Y99.094 E0.03312
G1 X109.681 Y99.198 E0.03152
G1 X110.628 Y99.355 E0.03011
G1 X111.721 Y99.609 E0.03517
G1 X112.693 Y99.903 E0.03183
G1 X113.688 Y100.274 E0.03332
G1 X114.668 Y100.716 E0.03371
G1 X115.586 Y101.203 E0.03256
G1 X116.534 Y101.789 E0.03495
G1 X117.434 Y102.437 E0.03479
G1 X118.180 Y103.051 E0.03029
G1 X118.970 Y103.788 E0.03386
G1 X119.728 Y104.600 E0.03482
G1 X120.432 Y105.467 E0.03502
G1 X121.016 Y106.292 E0.03169
G1 X121.540 Y107.144 E0.03138
G1 X121.607 Y107.320 E0.00589
G1 X121.631 Y107.480 E0.00507
G1 X121.616 Y107.639 E0.00502
G1 X121.562 Y107.808 E0.00555
G1 X121.331 Y108.212 E0.01459
G1 X120.869 Y108.925 E0.02666
G1 X120.460 Y109.495 E0.02200
G1 X120.028 Y110.046 E0.02194
G1 X119.574 Y110.574 E0.02182
G1 X118.708 Y111.468 E0.03905
G1 X118.090 Y112.027 E0.02612
G1 X117.446 Y112.554 E0.02611
G1 X116.454 Y113.263 E0.03820
G1 X115.744 Y113.705 E0.02622
G1 X114.861 Y114.188 E0.03158
G1 X113.834 Y114.665 E0.03551
G1 X112.762 Y115.074 E0.03595
G1 X111.794 Y115.371 E0.03176
G1 X110.642 Y115.642 E0.03710
G1 X109.606 Y115.812 E0.03291
G1 X108.540 Y115.915 E0.03359
G1 X107.447 Y115.949 E0.03429
G1 X106.488 Y115.917 E0.03009
G1 X82.714 Y114.247 E0.74726
G1 X82.421 Y114.197 E0.00931
G1 X82.276 Y114.147 E0.00480
G1 X82.146 Y114.080 E0.00459
G1 X81.949 Y113.928 E0.00781
G1 X81.772 Y113.701 E0.00903
G1 X81.660 Y113.445 E0.00875
G1 X81.602 Y113.119 E0.01037
G1 X81.598 Y109.067 E0.12707
G1 X87.203 Y109.067 E0.17572
G1 X86.885 Y108.690 F7800.000
G1 F1800
G1 X86.885 Y106.310 E0.07459
G1 X81.220 Y106.310 E0.17762
G1 X81.221 Y101.982 E0.13571
G1 X81.235 Y101.747 E0.00740
G1 X81.315 Y101.393 E0.01138
G1 X81.388 Y101.214 E0.00606
G1 X81.491 Y101.033 E0.00652
G1 X81.694 Y100.792 E0.00988
G1 X81.943 Y100.601 E0.00985
G1 X82.127 Y100.506 E0.00647
G1 X82.326 Y100.436 E0.00663
G1 X82.669 Y100.378 E0.01089
G1 X106.455 Y98.707 E0.74763
G1 X107.628 Y98.674 E0.03679
G1 X108.708 Y98.718 E0.03390
G1 X109.731 Y98.824 E0.03226
G1 X110.702 Y98.985 E0.03085
G1 X111.818 Y99.244 E0.03594
G1 X112.813 Y99.545 E0.03259
G1 X113.832 Y99.925 E0.03409
G1 X114.834 Y100.377 E0.03449
G1 X115.774 Y100.875 E0.03334
G1 X116.743 Y101.476 E0.03575
G1 X117.664 Y102.138 E0.03559
G1 X118.429 Y102.767 E0.03105
G1 X119.236 Y103.521 E0.03463
G1 X120.012 Y104.352 E0.03563
G1 X120.732 Y105.239 E0.03582
G1 X121.331 Y106.084 E0.03247
G1 X121.879 Y106.977 E0.03285
G1 X121.974 Y107.223 E0.00829
G1 X122.010 Y107.469 E0.00778
G1 X121.988 Y107.715 E0.00775
G1 X121.909 Y107.961 E0.00810
G1 X121.654 Y108.408 E0.01614
G1 X121.181 Y109.138 E0.02727
G1 X120.762 Y109.722 E0.02254
G1 X120.319 Y110.285 E0.02245
G1 X119.855 Y110.825 E0.02234
G1 X118.967 Y111.742 E0.04002
G1 X118.336 Y112.313 E0.02667
G1 X117.678 Y112.852 E0.02667
G1 X116.661 Y113.578 E0.03919
G1 X115.935 Y114.031 E0.02683
G1 X115.031 Y114.525 E0.03230
G1 X113.980 Y115.013 E0.03632
G1 X112.885 Y115.431 E0.03676
G1 X111.892 Y115.735 E0.03255
G1 X110.716 Y116.012 E0.03790
G1 X109.655 Y116.186 E0.03370
G1 X108.564 Y116.292 E0.03437
G1 X107.446 Y116.326 E0.03506
G1 X106.468 Y116.294 E0.03068
G1 X82.669 Y114.622 E0.74805
G1 X82.326 Y114.564 E0.01089
G1 X82.127 Y114.494 E0.00663
G1 X81.943 Y114.399 E0.00647
G1 X81.691 Y114.206 E0.00996
G1 X81.555 Y114.054 E0.00640
G1 X81.440 Y113.883 E0.00646
G1 X81.302 Y113.567 E0.01082
G1 X81.253 Y113.370 E0.00636
G1 X81.225 Y113.142 E0.00721
G1 X81.221 Y108.690 E0.13961
G1 X86.825 Y108.690 E0.17573
G1 X87.276 Y108.601 F7800.000
G1 F6240
G1 X86.836 Y108.256 E-0.47500
G1 E-0.02500 F7200.00000
G1 Z0.800 F7800.000
G1 X82.221 Y109.377 F7800.000
G1 Z0.200 F7800.000
G1 E0.50000 F7200.00000
G1 F1800
G1 X81.909 Y109.688 E0.01388
G1 X81.910 Y110.224 E0.01687
G1 X82.756 Y109.377 E0.03773
G1 X83.292 Y109.377 E0.01689
G1 X81.910 Y110.759 E0.06159
G1 X81.911 Y111.295 E0.01687
G1 X83.828 Y109.377 E0.08545
G1 X84.364 Y109.377 E0.01689
G1 X81.911 Y111.830 E0.10930
G1 X81.912 Y112.365 E0.01687
G1 X84.900 Y109.377 E0.13316
G1 X85.436 Y109.377 E0.01689
G1 X81.912 Y112.901 E0.15702
G1 X81.913 Y113.152 E0.00793
G1 X81.955 Y113.393 E0.00771
G1 X85.972 Y109.377 E0.17897
G1 X86.508 Y109.377 E0.01689
G1 X82.156 Y113.729 E0.19394
G1 X82.272 Y113.818 E0.00462
G1 X82.512 Y113.908 E0.00809
G1 X87.044 Y109.377 E0.20192
G1 X87.580 Y109.377 E0.01689
G1 X82.996 Y113.960 E0.20423
G1 F6240
G1 X83.303 Y113.654 E-0.47500
G1 E-0.02500 F7200.00000
G1 Z0.800 F7800.000
G1 X82.829 Y113.841 F7800.000
G1 X83.015 Y112.851 F7800.000
G1 X84.240 Y111.706 F7800.000
G1 X87.676 Y111.824 F7800.000
G1 X92.704 Y109.479 F7800.000
G1 X94.821 Y107.503 F7800.000
G1 X92.699 Y105.521 F7800.000
G1 X87.676 Y103.177 F7800.000
G1 X84.248 Y103.294 F7800.000
G1 X82.894 Y102.048 F7800.000
G1 X82.286 Y101.273 F7800.000
G1 Z0.200 F7800.000
G1 E0.50000 F7200.00000
G1 F1800
G1 X82.053 Y101.524 E0.01079
G1 X81.968 Y101.699 E0.00614
G1 X81.920 Y101.909 E0.00679
G1 X81.919 Y102.176 E0.00839
G1 X83.049 Y101.046 E0.05035
G1 X83.626 Y101.005 E0.01821
G1 X81.918 Y102.713 E0.07611
G1 X81.916 Y103.251 E0.01694
G1 X84.202 Y100.965 E0.10187
G1 X84.779 Y100.924 E0.01821
G1 X81.915 Y103.788 E0.12762
G1 X81.913 Y104.326 E0.01694
G1 X85.355 Y100.884 E0.15338
G1 X85.931 Y100.843 E0.01821
G1 X81.911 Y104.863 E0.17913
G1 X81.910 Y105.401 E0.01694
G1 X86.508 Y100.802 E0.20489
G1 X87.084 Y100.762 E0.01821
G1 X82.223 Y105.623 E0.21661
G1 X82.759 Y105.623 E0.01689
G1 X87.661 Y100.721 E0.21841
G1 X88.237 Y100.681 E0.01821
G1 X83.295 Y105.623 E0.22022
G1 X83.831 Y105.623 E0.01689
G1 X88.813 Y100.640 E0.22202
G1 X89.390 Y100.600 E0.01821
G1 X84.367 Y105.623 E0.22383
G1 X84.903 Y105.623 E0.01689
G1 X89.966 Y100.559 E0.22563
G1 X90.543 Y100.519 E0.01821
G1 X85.439 Y105.623 E0.22744
G1 X85.975 Y105.623 E0.01689
G1 X91.119 Y100.478 E0.22925
G1 X91.696 Y100.438 E0.01821
G1 X86.510 Y105.623 E0.23105
G1 X87.046 Y105.623 E0.01689
G1 X92.272 Y100.397 E0.23286
G1 X92.848 Y100.357 E0.01821
G1 X87.573 Y105.632 E0.23507
G1 X87.573 Y106.168 E0.01689
G1 X93.425 Y100.316 E0.26076
G1 X94.001 Y100.276 E0.01821
G1 X87.573 Y106.704 E0.28645
G1 X87.573 Y107.240 E0.01689
G1 X94.578 Y100.235 E0.31213
G1 X95.154 Y100.195 E0.01821
G1 X87.573 Y107.776 E0.33782
G1 X87.573 Y108.312 E0.01689
G1 X95.730 Y100.154 E0.36350
G1 X96.307 Y100.114 E0.01821
G1 X87.573 Y108.848 E0.38919
G1 X87.573 Y109.384 E0.01689
G1 X96.883 Y100.073 E0.41487
G1 X97.460 Y100.033 E0.01821
G1 X83.497 Y113.995 E0.62217
G1 X83.998 Y114.030 E0.01582
G1 X98.036 Y99.992 E0.62555
G1 X98.613 Y99.952 E0.01821
G1 X84.499 Y114.066 E0.62892
G1 X84.999 Y114.101 E0.01582
G1 X99.189 Y99.911 E0.63229
G1 X99.765 Y99.871 E0.01821
G1 X85.500 Y114.136 E0.63567
G1 X86.001 Y114.171 E0.01582
G1 X100.342 Y99.830 E0.63904
G1 X100.918 Y99.790 E0.01821
G1 X86.502 Y114.206 E0.64241
G1 X87.002 Y114.242 E0.01582
G1 X101.495 Y99.749 E0.64579
G1 X102.071 Y99.709 E0.01821
G1 X87.503 Y114.277 E0.64916
G1 X88.004 Y114.312 E0.01582
G1 X102.647 Y99.668 E0.65253
G1 X103.224 Y99.628 E0.01821
G1 X88.504 Y114.347 E0.65591
G1 X89.005 Y114.382 E0.01582
G1 X103.800 Y99.587 E0.65928
G1 X104.377 Y99.547 E0.01821
G1 X89.506 Y114.417 E0.66265
G1 X90.007 Y114.453 E0.01582
G1 X104.953 Y99.506 E0.66602
G1 X105.529 Y99.466 E0.01821
G1 X90.507 Y114.488 E0.66940
G1 X91.008 Y114.523 E0.01582
G1 X106.106 Y99.425 E0.67277
G1 X106.677 Y99.390 E0.01802
G1 X91.509 Y114.558 E0.67590
G1 X92.009 Y114.593 E0.01582
G1 X107.228 Y99.375 E0.67815
G1 X107.773 Y99.365 E0.01718
G1 X92.510 Y114.629 E0.68013
G1 X93.011 Y114.664 E0.01582
G1 X108.289 Y99.386 E0.68078
G1 X108.799 Y99.412 E0.01610
G1 X93.512 Y114.699 E0.68121
G1 X94.012 Y114.734 E0.01582
G1 X109.284 Y99.462 E0.68052
G1 X109.766 Y99.517 E0.01527
G1 X94.513 Y114.769 E0.67967
G1 X95.014 Y114.805 E0.01582
G1 X110.225 Y99.593 E0.67783
G1 X110.681 Y99.673 E0.01459
G1 X95.514 Y114.840 E0.67585
G1 X96.015 Y114.875 E0.01582
G1 X111.116 Y99.774 E0.67292
G1 X111.551 Y99.875 E0.01407
G1 X96.516 Y114.910 E0.66999
G1 X97.017 Y114.945 E0.01582
G1 X111.970 Y99.991 E0.66635
G1 X112.382 Y100.116 E0.01355
G1 X97.517 Y114.980 E0.66237
G1 X98.018 Y115.016 E0.01582
G1 X112.786 Y100.248 E0.65805
G1 X113.176 Y100.394 E0.01313
G1 X98.519 Y115.051 E0.65312
G1 X99.019 Y115.086 E0.01582
G1 X113.566 Y100.539 E0.64820
G1 X113.938 Y100.703 E0.01281
G1 X99.520 Y115.121 E0.64246
G1 X100.021 Y115.156 E0.01582
G1 X114.307 Y100.870 E0.63661
G1 X114.671 Y101.042 E0.01268
G1 X100.522 Y115.192 E0.63051
G1 X101.022 Y115.227 E0.01582
G1 X115.021 Y101.228 E0.62380
G1 X115.371 Y101.414 E0.01249
G1 X101.523 Y115.262 E0.61708
G1 X102.024 Y115.297 E0.01582
G1 X115.707 Y101.613 E0.60975
G1 X116.038 Y101.818 E0.01227
G1 X102.524 Y115.332 E0.60219
G1 X103.025 Y115.367 E0.01582
G1 X116.369 Y102.023 E0.59462
G1 X116.682 Y102.246 E0.01211
G1 X103.526 Y115.403 E0.58626
G1 X104.027 Y115.438 E0.01582
G1 X116.994 Y102.470 E0.57783
G1 X117.304 Y102.697 E0.01208
G1 X104.527 Y115.473 E0.56932
G1 X105.028 Y115.508 E0.01582
G1 X117.598 Y102.938 E0.56011
G1 X117.892 Y103.180 E0.01200
G1 X105.529 Y115.543 E0.55090
G1 X106.030 Y115.579 E0.01582
G1 X118.175 Y103.433 E0.54121
G1 X118.452 Y103.692 E0.01195
G1 X106.533 Y115.610 E0.53110
G1 X107.052 Y115.627 E0.01636
G1 X118.729 Y103.951 E0.52032
G1 X118.991 Y104.225 E0.01194
G1 X107.584 Y115.632 E0.50829
G1 X108.137 Y115.615 E0.01743
G1 X119.249 Y104.502 E0.49519
G1 X119.508 Y104.779 E0.01195
G1 X108.707 Y115.580 E0.48130
G1 X109.301 Y115.523 E0.01879
G1 X119.749 Y105.075 E0.46556
G1 X119.989 Y105.371 E0.01200
G1 X109.927 Y115.433 E0.44837
G1 X110.574 Y115.321 E0.02070
G1 X120.226 Y105.669 E0.43012
G1 X120.449 Y105.983 E0.01211
G1 X111.274 Y115.157 E0.40881
