; generated by PrusaSlicer 2.2.0+linux-x64 on 2020-12-27 at 19:39:24 UTC

; 

; external perimeters extrusion width = 0.45mm
; perimeters extrusion width = 0.45mm
; infill extrusion width = 0.45mm
; solid infill extrusion width = 0.45mm
; top infill extrusion width = 0.40mm
; first layer extrusion width = 0.42mm

M201 X9000 Y9000 Z500 E10000 ; sets maximum accelerations, mm/sec^2
M203 X500 Y500 Z12 E120 ; sets maximum feedrates, mm/sec
M204 P1500 R1500 T1500 ; sets acceleration (P, T) and retract acceleration (R), mm/sec^2
M205 X10.00 Y10.00 Z0.20 E2.50 ; sets the jerk limits, mm/sec
M205 S0 T0 ; sets the minimum extruding and travel feed rate, mm/sec
M107
M83  ; extruder relative mode
G0 Z25 ; move z 25 mm up

M104 S220 ; set extruder temp
M140 S60 ; set bed temp
M190 S60 ; wait for bed temp
M109 S220 ; wait for extruder temp

G28 ; home all
G29 ; mesh bed leveling
G92 E0.0
G1 Y10  F1000.0 ; intro line
G1 X60.0 E9.0  F1000.0 ; intro line
G1 Z0  F1000.0 ; intro line
G1 X100.0 E12.5  F1000.0 ; intro line
G92 E0.0


G21 ; set units to millimeters
G90 ; use absolute coordinates
M83 ; use relative distances for extrusion
; Filament gcode
G1 E-0.50000 F7200.00000
G1 Z0.600 F7800.000
G1 X87.315 Y90.753
G1 Z0.200
G1 E0.50000 F7200.00000
G1 F1800.000
G1 X88.605 Y89.735 E0.04894
G1 X90.137 Y89.012 E0.05048
G1 X91.767 Y88.660 E0.04966
G1 X122.506 Y88.623 E0.91562
G1 X123.690 Y88.720 E0.03538
G1 X124.786 Y88.986 E0.03359
G1 X125.881 Y89.444 E0.03536
G1 X126.839 Y90.034 E0.03349
G1 X127.738 Y90.806 E0.03531
G1 X128.472 Y91.669 E0.03376
G1 X129.088 Y92.682 E0.03531
G1 X129.518 Y93.727 E0.03365
G1 X129.767 Y94.734 E0.03091
G1 X129.874 Y95.801 E0.03195
G1 X129.871 Y105.306 E0.28313
G1 X129.784 Y106.125 E0.02451
G1 X129.592 Y106.925 E0.02451
G1 X129.295 Y107.699 E0.02470
G1 X128.904 Y108.423 E0.02451
G1 X118.910 Y121.973 E0.50152
G1 X116.471 Y124.450 E0.10353
G1 X115.184 Y125.391 E0.04750
G1 X113.690 Y126.044 E0.04855
G1 X112.130 Y126.350 E0.04737
G1 X103.444 Y126.377 E0.25872
G1 X102.460 Y126.303 E0.02940
G1 X101.465 Y126.090 E0.03031
G1 X100.476 Y125.729 E0.03135
G1 X99.580 Y125.249 E0.03028
G1 X98.438 Y124.367 E0.04298
G1 X96.030 Y121.897 E0.10275
G1 X86.327 Y108.767 E0.48631
G1 X85.582 Y107.415 E0.04597
G1 X85.263 Y106.366 E0.03267
G1 X85.128 Y105.284 E0.03248
G1 X85.131 Y95.657 E0.28675
G1 X85.239 Y94.700 E0.02870
G1 X85.463 Y93.788 E0.02796
G1 X85.804 Y92.903 E0.02825
G1 X86.251 Y92.079 E0.02792
G1 X87.277 Y90.800 E0.04886
G1 F6240.000
G1 X87.616 Y90.529 E-0.47500
G1 E-0.02500 F7200.00000
G1 Z0.800 F7800.000
G1 X103.225 Y118.843
G1 Z0.200
G1 E0.50000 F7200.00000
G1 F1800.000
G1 X103.586 Y118.862 E0.01076
G1 X110.920 Y118.866 E0.21844
G1 X112.020 Y118.833 E0.03279
G1 X111.659 Y119.147 E0.01426
G1 X111.579 Y119.190 E0.00271
G1 X111.445 Y119.213 E0.00403
G1 X103.530 Y119.213 E0.23577
G1 X103.367 Y119.167 E0.00504
G1 X103.165 Y118.993 E0.00795
G1 X103.203 Y118.899 E0.00302
G1 F6240.000
G1 X103.586 Y118.862 E-0.42208
G1 X103.635 Y118.862 E-0.05292
G1 E-0.02500 F7200.00000
G1 Z0.800 F7800.000
G1 X101.672 Y118.289
G1 Z0.200
G1 E0.50000 F7200.00000
G1 F1800.000
G1 X102.118 Y118.289 E0.01328
G1 X102.591 Y118.388 E0.01439
G1 X103.094 Y118.459 E0.01514
G1 X103.596 Y118.484 E0.01497
G1 X110.914 Y118.489 E0.21799
G1 X111.904 Y118.459 E0.02949
G1 X112.409 Y118.388 E0.01521
G1 X112.882 Y118.289 E0.01439
G1 X113.328 Y118.289 E0.01328
G1 X113.049 Y118.569 E0.01178
G1 X112.288 Y119.100 E0.02764
G1 X111.874 Y119.460 E0.01632
G1 X111.703 Y119.551 E0.00580
G1 X111.478 Y119.590 E0.00680
G1 X103.392 Y119.579 E0.24084
G1 X103.242 Y119.531 E0.00469
G1 X103.148 Y119.476 E0.00324
G1 X102.712 Y119.100 E0.01716
G1 X101.951 Y118.569 E0.02763
G1 X101.714 Y118.331 E0.00999
G1 X102.062 Y118.377 F7800.000
G1 X102.263 Y118.537
G1 F1800.000
G1 X103.020 Y118.850 E0.01059
G1 F6240.000
G1 X102.619 Y118.684 E-0.47500
G1 E-0.02500 F7200.00000
G1 Z0.800 F7800.000
G1 X112.349 Y118.611
G1 Z0.200
G1 E0.50000 F7200.00000
G1 F1800.000
G1 X112.585 Y118.598 E0.00098
G1 X112.526 Y118.674 E0.00040
G1 F6240.000
G1 X112.585 Y118.598 E-0.10597
G1 X112.349 Y118.611 E-0.25928
G1 E-0.13475 F7200.00000
G1 Z0.800 F7800.000
G1 X118.447 Y100.702
G1 Z0.200
G1 E0.50000 F7200.00000
G1 F1800.000
G1 X118.138 Y100.568 E0.01003
G1 X117.852 Y100.373 E0.01031
G1 X117.557 Y100.060 E0.01282
G1 X117.381 Y99.762 E0.01030
G1 X117.267 Y99.445 E0.01004
G1 X117.214 Y99.112 E0.01003
G1 X117.225 Y98.776 E0.01004
G1 X117.298 Y98.447 E0.01003
G1 X117.432 Y98.138 E0.01003
G1 X117.621 Y97.859 E0.01004
G1 X117.866 Y97.615 E0.01030
G1 X118.229 Y97.384 E0.01281
G1 X118.555 Y97.267 E0.01032
G1 X118.897 Y97.213 E0.01030
G1 X119.326 Y97.240 E0.01282
G1 X119.659 Y97.336 E0.01031
G1 X119.959 Y97.489 E0.01004
G1 X120.225 Y97.696 E0.01003
G1 X120.448 Y97.948 E0.01003
G1 X120.619 Y98.238 E0.01002
G1 X120.733 Y98.555 E0.01004
G1 X120.786 Y98.888 E0.01003
G1 X120.775 Y99.224 E0.01004
G1 X120.702 Y99.553 E0.01003
G1 X120.568 Y99.862 E0.01003
G1 X120.379 Y100.141 E0.01004
G1 X120.140 Y100.379 E0.01003
G1 X119.854 Y100.573 E0.01031
G1 X119.454 Y100.732 E0.01281
G1 X119.112 Y100.786 E0.01031
G1 X118.776 Y100.775 E0.01004
G1 X118.506 Y100.715 E0.00824
G1 X118.588 Y100.347 F7800.000
G1 F1800.000
G1 X118.321 Y100.236 E0.00862
G1 X118.098 Y100.085 E0.00801
G1 X117.860 Y99.832 E0.01034
G1 X117.724 Y99.601 E0.00800
G1 X117.634 Y99.351 E0.00792
G1 X117.592 Y99.089 E0.00790
G1 X117.601 Y98.823 E0.00791
G1 X117.658 Y98.564 E0.00790
G1 X117.764 Y98.321 E0.00791
G1 X117.913 Y98.101 E0.00791
G1 X118.103 Y97.911 E0.00800
G1 X118.396 Y97.725 E0.01033
G1 X118.649 Y97.634 E0.00802
G1 X118.915 Y97.592 E0.00800
G1 X119.261 Y97.614 E0.01034
G1 X119.519 Y97.689 E0.00801
G1 X119.756 Y97.809 E0.00791
G1 X119.966 Y97.972 E0.00790
G1 X120.141 Y98.171 E0.00791
G1 X120.276 Y98.399 E0.00790
G1 X120.366 Y98.649 E0.00792
G1 X120.408 Y98.911 E0.00790
G1 X120.399 Y99.177 E0.00791
G1 X120.342 Y99.436 E0.00790
G1 X120.236 Y99.679 E0.00791
G1 X120.087 Y99.899 E0.00791
G1 X119.899 Y100.087 E0.00791
G1 X119.677 Y100.238 E0.00801
G1 X119.354 Y100.366 E0.01033
G1 X119.089 Y100.408 E0.00800
G1 X118.823 Y100.399 E0.00791
G1 X118.646 Y100.360 E0.00539
G1 X118.375 Y100.543 F7800.000
G1 F6240.000
G1 X118.321 Y100.236 E-0.38215
G1 X118.251 Y100.189 E-0.09285
G1 E-0.02500 F7200.00000
G1 Z0.800 F7800.000
G1 X97.775 Y99.224
G1 Z0.200
G1 E0.50000 F7200.00000
G1 F1800.000
G1 X97.702 Y99.553 E0.01002
G1 X97.568 Y99.862 E0.01003
G1 X97.379 Y100.141 E0.01004
G1 X97.141 Y100.379 E0.01003
G1 X96.854 Y100.573 E0.01031
G1 X96.454 Y100.732 E0.01282
G1 X96.112 Y100.786 E0.01030
G1 X95.776 Y100.775 E0.01004
G1 X95.447 Y100.702 E0.01002
G1 X95.138 Y100.568 E0.01003
G1 X94.859 Y100.379 E0.01004
G1 X94.621 Y100.141 E0.01003
G1 X94.427 Y99.854 E0.01031
G1 X94.268 Y99.454 E0.01282
G1 X94.214 Y99.112 E0.01030
G1 X94.225 Y98.776 E0.01004
G1 X94.298 Y98.447 E0.01002
G1 X94.432 Y98.138 E0.01003
G1 X94.621 Y97.859 E0.01004
G1 X94.859 Y97.621 E0.01003
G1 X95.146 Y97.427 E0.01031
G1 X95.546 Y97.268 E0.01282
G1 X95.888 Y97.214 E0.01030
G1 X96.224 Y97.225 E0.01004
G1 X96.553 Y97.298 E0.01002
G1 X96.862 Y97.432 E0.01003
G1 X97.141 Y97.621 E0.01004
G1 X97.379 Y97.859 E0.01003
G1 X97.573 Y98.146 E0.01031
G1 X97.732 Y98.546 E0.01282
G1 X97.786 Y98.888 E0.01030
G1 X97.777 Y99.164 E0.00825
G1 X97.400 Y99.153 F7800.000
G1 F1800.000
G1 X97.342 Y99.436 E0.00862
G1 X97.236 Y99.679 E0.00791
G1 X97.087 Y99.899 E0.00791
G1 X96.899 Y100.087 E0.00791
G1 X96.677 Y100.238 E0.00801
G1 X96.354 Y100.366 E0.01034
G1 X96.089 Y100.408 E0.00800
G1 X95.823 Y100.399 E0.00791
G1 X95.564 Y100.342 E0.00790
G1 X95.321 Y100.236 E0.00791
G1 X95.101 Y100.087 E0.00791
G1 X94.913 Y99.899 E0.00791
G1 X94.762 Y99.677 E0.00801
G1 X94.634 Y99.354 E0.01034
G1 X94.592 Y99.089 E0.00800
G1 X94.601 Y98.823 E0.00791
G1 X94.658 Y98.564 E0.00790
G1 X94.764 Y98.321 E0.00791
G1 X94.913 Y98.101 E0.00791
G1 X95.101 Y97.913 E0.00791
G1 X95.323 Y97.762 E0.00801
G1 X95.646 Y97.634 E0.01034
G1 X95.911 Y97.592 E0.00800
G1 X96.177 Y97.601 E0.00791
G1 X96.436 Y97.658 E0.00790
G1 X96.679 Y97.764 E0.00791
G1 X96.899 Y97.913 E0.00791
G1 X97.087 Y98.101 E0.00791
G1 X97.238 Y98.323 E0.00801
G1 X97.366 Y98.646 E0.01034
G1 X97.408 Y98.911 E0.00800
G1 X97.402 Y99.093 E0.00540
G1 X97.633 Y99.325 F7800.000
G1 F6240.000
G1 X97.342 Y99.436 E-0.38200
G1 X97.308 Y99.514 E-0.09300
G1 E-0.02500 F7200.00000
G1 Z0.800 F7800.000
G1 X92.407 Y95.812
G1 Z0.200
G1 E0.50000 F7200.00000
G1 F1800.000
G1 X92.468 Y95.793 E0.00189
G1 X92.995 Y95.787 E0.01571
G1 X122.452 Y95.787 E0.87741
G1 X122.564 Y95.805 E0.00338
G1 X122.654 Y95.861 E0.00315
G1 X122.691 Y95.924 E0.00220
G1 X122.711 Y96.015 E0.00276
G1 X122.713 Y104.134 E0.24185
G1 X92.288 Y104.134 E0.90627
G1 X92.293 Y95.974 E0.24305
G1 X92.311 Y95.904 E0.00215
G1 X92.359 Y95.847 E0.00220
G1 X91.954 Y95.781 F7800.000
G1 F1800.000
G1 X92.001 Y95.687 E0.00312
G1 X92.097 Y95.571 E0.00449
G1 X92.219 Y95.483 E0.00449
G1 X92.424 Y95.416 E0.00641
G1 X122.481 Y95.410 E0.89530
G1 X122.682 Y95.442 E0.00605
G1 X122.848 Y95.526 E0.00557
G1 X122.951 Y95.623 E0.00419
G1 X123.046 Y95.784 E0.00557
G1 X123.088 Y95.973 E0.00577
G1 X123.090 Y104.511 E0.25432
G1 X91.910 Y104.511 E0.92874
G1 X91.916 Y95.926 E0.25571
G1 X91.939 Y95.839 E0.00269
G1 X92.056 Y95.759 F7800.000
G1 F6240.000
G1 X92.001 Y95.687 E-0.17954
G1 X92.097 Y95.571 E-0.16524
G1 X92.193 Y95.501 E-0.13022
G1 E-0.02500 F7200.00000
G1 Z0.800 F7800.000
G1 X92.401 Y103.250
G1 Z0.200
G1 E0.50000 F7200.00000
G1 F1800.000
G1 X93.003 Y103.851 E0.02564
G1 X93.542 Y103.851 E0.01627
G1 X92.571 Y102.880 E0.04140
G1 X92.572 Y102.341 E0.01626
G1 X94.082 Y103.851 E0.06439
G1 X94.622 Y103.851 E0.01627
G1 X92.572 Y101.801 E0.08738
G1 X92.572 Y101.262 E0.01626
G1 X95.161 Y103.851 E0.11037
G1 X95.701 Y103.851 E0.01627
G1 X92.573 Y100.723 E0.13335
G1 X92.573 Y100.184 E0.01626
G1 X96.241 Y103.851 E0.15634
G1 X96.780 Y103.851 E0.01627
G1 X92.574 Y99.644 E0.17933
G1 X92.574 Y99.105 E0.01626
G1 X97.490 Y104.021 E0.20955
G1 F6240.000
G1 X97.183 Y103.714 E-0.47500
G1 E-0.02500 F7200.00000
G1 Z0.800 F7800.000
G1 X103.426 Y104.021
G1 Z0.200
G1 E0.50000 F7200.00000
G1 F1800.000
G1 X98.031 Y98.625 E0.23000
G1 X98.069 Y98.870 E0.00745
G1 X98.059 Y99.194 E0.00977
G1 X102.717 Y103.851 E0.19854
G1 X102.177 Y103.851 E0.01627
G1 X97.970 Y99.644 E0.17933
G1 X97.804 Y100.018 E0.01232
G1 X101.637 Y103.851 E0.16341
G1 X101.098 Y103.851 E0.01627
G1 X97.583 Y100.336 E0.14983
G1 X97.311 Y100.605 E0.01150
G1 X100.558 Y103.851 E0.13840
G1 X100.018 Y103.851 E0.01627
G1 X96.990 Y100.823 E0.12909
G1 X96.604 Y100.976 E0.01252
G1 X99.479 Y103.851 E0.12254
G1 X98.939 Y103.851 E0.01627
G1 X96.153 Y101.066 E0.11874
G1 X95.740 Y101.057 E0.01246
G1 X95.566 Y101.018 E0.00536
G1 X98.399 Y103.851 E0.12077
G1 X97.860 Y103.851 E0.01627
G1 X92.574 Y98.566 E0.22531
G1 X92.575 Y98.027 E0.01626
G1 X93.978 Y99.430 E0.05983
G1 X93.931 Y99.130 E0.00915
G1 X93.939 Y98.852 E0.00840
G1 X92.575 Y97.487 E0.05816
G1 X92.576 Y96.948 E0.01626
G1 X94.021 Y98.393 E0.06160
G1 X94.179 Y98.011 E0.01245
G1 X92.576 Y96.409 E0.06832
G1 X92.576 Y96.080 E0.00992
G1 X92.782 Y96.075 E0.00620
G1 X94.395 Y97.689 E0.06879
G1 X94.664 Y97.417 E0.01150
G1 X93.316 Y96.070 E0.05743
G1 X93.856 Y96.070 E0.01627
G1 X94.982 Y97.196 E0.04801
G1 X95.363 Y97.037 E0.01243
G1 X94.396 Y96.070 E0.04122
G1 X94.935 Y96.070 E0.01627
G1 X95.806 Y96.941 E0.03713
G1 X96.260 Y96.943 E0.01368
G1 X96.373 Y96.968 E0.00351
G1 X95.475 Y96.070 E0.03830
G1 X96.015 Y96.070 E0.01627
G1 X103.796 Y103.851 E0.33171
G1 X104.336 Y103.851 E0.01627
G1 X96.554 Y96.070 E0.33171
G1 X97.094 Y96.070 E0.01627
G1 X104.875 Y103.851 E0.33171
G1 X105.415 Y103.851 E0.01627
G1 X97.634 Y96.070 E0.33171
G1 X98.173 Y96.070 E0.01627
G1 X105.955 Y103.851 E0.33171
G1 X106.494 Y103.851 E0.01627
G1 X98.713 Y96.070 E0.33171
G1 X99.253 Y96.070 E0.01627
G1 X107.034 Y103.851 E0.33171
G1 X107.573 Y103.851 E0.01627
G1 X99.792 Y96.070 E0.33171
G1 X100.332 Y96.070 E0.01627
G1 X108.113 Y103.851 E0.33171
G1 X108.653 Y103.851 E0.01627
G1 X100.872 Y96.070 E0.33171
G1 X101.411 Y96.070 E0.01627
G1 X109.192 Y103.851 E0.33171
G1 X109.732 Y103.851 E0.01627
G1 X101.951 Y96.070 E0.33171
G1 X102.491 Y96.070 E0.01627
G1 X110.272 Y103.851 E0.33171
G1 X110.811 Y103.851 E0.01627
G1 X103.030 Y96.070 E0.33171
G1 X103.570 Y96.070 E0.01627
G1 X111.351 Y103.851 E0.33171
G1 X111.891 Y103.851 E0.01627
G1 X104.110 Y96.070 E0.33171
G1 X104.649 Y96.070 E0.01627
G1 X112.430 Y103.851 E0.33171
G1 X112.970 Y103.851 E0.01627
G1 X105.189 Y96.070 E0.33171
G1 X105.729 Y96.070 E0.01627
G1 X113.510 Y103.851 E0.33171
G1 X114.049 Y103.851 E0.01627
G1 X106.268 Y96.070 E0.33171
G1 X106.808 Y96.070 E0.01627
G1 X114.589 Y103.851 E0.33171
G1 X115.129 Y103.851 E0.01627
G1 X107.347 Y96.070 E0.33171
G1 X107.887 Y96.070 E0.01627
G1 X115.668 Y103.851 E0.33171
G1 X116.208 Y103.851 E0.01627
G1 X108.427 Y96.070 E0.33171
G1 X108.966 Y96.070 E0.01627
G1 X116.748 Y103.851 E0.33171
G1 X117.287 Y103.851 E0.01627
G1 X109.506 Y96.070 E0.33171
G1 X110.046 Y96.070 E0.01627
G1 X117.827 Y103.851 E0.33171
G1 X118.367 Y103.851 E0.01627
G1 X110.585 Y96.070 E0.33171
G1 X111.125 Y96.070 E0.01627
G1 X118.906 Y103.851 E0.33171
G1 X119.446 Y103.851 E0.01627
G1 X111.665 Y96.070 E0.33171
G1 X112.204 Y96.070 E0.01627
G1 X119.986 Y103.851 E0.33171
G1 X120.525 Y103.851 E0.01627
G1 X112.744 Y96.070 E0.33171
G1 X113.284 Y96.070 E0.01627
G1 X121.065 Y103.851 E0.33171
G1 X121.605 Y103.851 E0.01627
G1 X118.813 Y101.059 E0.11901
G1 X119.130 Y101.069 E0.00957
G1 X119.331 Y101.038 E0.00612
G1 X122.144 Y103.851 E0.11994
G1 X122.430 Y103.851 E0.00861
G1 X122.430 Y103.597 E0.00766
G1 X119.751 Y100.918 E0.11420
G1 X119.987 Y100.825 E0.00766
G1 X120.112 Y100.740 E0.00456
G1 X122.430 Y103.057 E0.09879
G1 X122.430 Y102.518 E0.01627
G1 X120.416 Y100.503 E0.08586
G1 X120.598 Y100.322 E0.00775
G1 X120.669 Y100.217 E0.00382
G1 X122.430 Y101.978 E0.07507
G1 X122.429 Y101.438 E0.01627
G1 X120.869 Y99.878 E0.06651
G1 X120.972 Y99.641 E0.00779
G1 X121.008 Y99.477 E0.00504
G1 X122.429 Y100.898 E0.06058
G1 X122.429 Y100.359 E0.01627
G1 X121.065 Y98.995 E0.05814
G1 X121.069 Y98.870 E0.00377
G1 X121.008 Y98.484 E0.01176
G1 X120.959 Y98.349 E0.00434
G1 X122.429 Y99.819 E0.06265
G1 X122.429 Y99.279 E0.01627
G1 X119.220 Y96.070 E0.13680
G1 X119.760 Y96.070 E0.01627
G1 X122.429 Y98.739 E0.11379
G1 X122.429 Y98.199 E0.01627
G1 X120.299 Y96.070 E0.09078
G1 X120.839 Y96.070 E0.01627
G1 X122.429 Y97.660 E0.06777
G1 X122.429 Y97.120 E0.01627
G1 X121.379 Y96.070 E0.04476
G1 X121.918 Y96.070 E0.01627
G1 X122.598 Y96.750 E0.02899
G1 F6240.000
G1 X122.292 Y96.443 E-0.47500
G1 E-0.02500 F7200.00000
G1 Z0.800 F7800.000
G1 X119.987 Y97.377
G1 Z0.200
G1 E0.50000 F7200.00000
G1 F1800.000
G1 X118.680 Y96.070 E0.05571
G1 X118.141 Y96.070 E0.01627
G1 X119.007 Y96.936 E0.03694
G1 X118.883 Y96.929 E0.00374
G1 X118.518 Y96.986 E0.01116
G1 X117.601 Y96.070 E0.03907
G1 X117.061 Y96.070 E0.01627
G1 X118.116 Y97.124 E0.04495
G1 X117.784 Y97.332 E0.01181
G1 X116.522 Y96.070 E0.05380
G1 X115.982 Y96.070 E0.01627
G1 X117.496 Y97.584 E0.06456
G1 X117.402 Y97.678 E0.00401
G1 X117.260 Y97.888 E0.00763
G1 X115.442 Y96.070 E0.07749
G1 X114.903 Y96.070 E0.01627
G1 X117.078 Y98.245 E0.09272
G1 X117.028 Y98.359 E0.00376
G1 X116.959 Y98.666 E0.00948
G1 X114.363 Y96.070 E0.11068
G1 X113.823 Y96.070 E0.01627
G1 X117.144 Y99.390 E0.14154
M106 S51
G1 F6240.000
G1 X116.837 Y99.084 E-0.47500
G1 E-0.02500 F7200.00000
G1 Z0.800 F7800.000
G1 X123.690 Y88.720
G1 Z0.400
G1 E0.50000 F7200.00000
G1 F0.000
G1 X124.786 Y88.986 E0.03359
G1 X125.881 Y89.444 E0.03536
G1 X126.839 Y90.034 E0.03349
G1 X127.738 Y90.806 E0.03531
G1 X128.472 Y91.669 E0.03376
G1 X129.088 Y92.682 E0.03531
G1 X129.518 Y93.727 E0.03365
G1 X129.767 Y94.734 E0.03091
G1 X129.874 Y95.801 E0.03195
G1 X129.871 Y105.306 E0.28313
G1 X129.784 Y106.125 E0.02451
G1 X129.592 Y106.925 E0.02451
G1 X129.295 Y107.699 E0.02470
G1 X128.904 Y108.423 E0.02451
G1 X118.910 Y121.973 E0.50152
G1 X116.471 Y124.450 E0.10353
G1 X115.184 Y125.391 E0.04750
G1 X113.690 Y126.044 E0.04855
G1 X112.130 Y126.350 E0.04737
