; generated by PrusaSlicer 2.2.0+linux-x64 on 2021-03-07 at 14:36:47 UTC

; 

; external perimeters extrusion width = 0.45mm
; perimeters extrusion width = 0.45mm
; infill extrusion width = 0.45mm
; solid infill extrusion width = 0.45mm
; top infill extrusion width = 0.40mm
; first layer extrusion width = 0.42mm

M201 X9000 Y9000 Z500 E10000 ; sets maximum accelerations, mm/sec^2
M203 X500 Y500 Z12 E120 ; sets maximum feedrates, mm/sec
M204 P1500 R1500 T1500 ; sets acceleration (P, T) and retract acceleration (R), mm/sec^2
M205 X10.00 Y10.00 Z0.20 E2.50 ; sets the jerk limits, mm/sec
M205 S0 T0 ; sets the minimum extruding and travel feed rate, mm/sec
M107
M83  ; extruder relative mode
G0 Z25 ; move z 25 mm up

M104 S230 ; set extruder temp
M140 S85 ; set bed temp
M190 S85 ; wait for bed temp
M109 S230 ; wait for extruder temp

G28 ; home all
G29 ; mesh bed leveling
G92 E0.0
G1 Y10  F1000.0 ; intro line
G1 X60.0 E9.0  F1000.0 ; intro line
G1 Z0  F1000.0 ; intro line
G1 X100.0 E12.5  F1000.0 ; intro line
G92 E0.0


G21 ; set units to millimeters
G90 ; use absolute coordinates
M83 ; use relative distances for extrusion
M900 K45 ; Filament gcode
G1 E-1.40000 F7200.00000
G1 Z0.050 F7800.000
G1 Z0.250
G1 X66.923 Y23.589
G1 Z0.050
G1 E1.40000 F7200.00000
G1 F1800.000
G1 X67.789 Y22.275 E0.04936
G1 X68.902 Y21.132 E0.05002
G1 X70.141 Y20.260 E0.04751
G1 X71.413 Y19.663 E0.04406
G1 X72.721 Y19.296 E0.04257
G1 X112.521 Y12.075 E1.26829
G1 X114.227 Y11.933 E0.05367
G1 X139.267 Y11.933 E0.78510
G1 X141.441 Y12.144 E0.06850
G1 X143.473 Y12.742 E0.06642
G1 X145.422 Y13.747 E0.06876
G1 X146.880 Y14.877 E0.05782
G1 X147.711 Y15.711 E0.03692
G1 X148.532 Y16.722 E0.04084
G1 X148.986 Y17.423 E0.02619
G1 X149.838 Y19.122 E0.05958
G1 X150.451 Y21.266 E0.06992
G1 X150.626 Y22.934 E0.05257
G1 X152.132 Y49.555 E0.83604
G1 X152.134 Y63.516 E0.43772
G1 X152.057 Y64.322 E0.02541
G1 X151.876 Y65.119 E0.02561
G1 X151.597 Y65.880 E0.02541
G1 X151.220 Y66.605 E0.02561
G1 X150.758 Y67.271 E0.02541
G1 X150.211 Y67.877 E0.02561
G1 X149.591 Y68.408 E0.02561
G1 X148.913 Y68.853 E0.02541
G1 X148.196 Y69.203 E0.02502
G1 X147.435 Y69.463 E0.02522
G1 X145.858 Y69.686 E0.04995
G1 X107.729 Y69.687 E1.19550
G1 X106.228 Y69.500 E0.04742
G1 X105.060 Y69.087 E0.03887
G1 X78.982 Y56.752 E0.90450
G1 X77.973 Y56.060 E0.03838
G1 X77.113 Y55.266 E0.03668
G1 X73.180 Y50.940 E0.18333
G1 X72.445 Y49.904 E0.03984
G1 X66.406 Y35.666 E0.48492
G1 X66.113 Y34.739 E0.03049
G1 X65.964 Y33.778 E0.03049
G1 X65.952 Y27.164 E0.20736
G1 X66.058 Y26.147 E0.03207
G1 X66.314 Y25.058 E0.03506
G1 X66.900 Y23.645 E0.04798
G1 F6240.000
G1 X67.561 Y22.627 E-1.33000
G1 E-0.07000 F7200.00000
G1 Z0.250 F7800.000
G1 X135.063 Y48.022
G1 Z0.050
G1 E1.40000 F7200.00000
G1 F1800.000
G1 X135.345 Y47.280 E0.02489
G1 X135.796 Y46.626 E0.02489
G1 X136.390 Y46.100 E0.02489
G1 X137.093 Y45.731 E0.02489
G1 X137.864 Y45.541 E0.02489
G1 X138.657 Y45.541 E0.02489
G1 X139.428 Y45.731 E0.02489
G1 X140.131 Y46.100 E0.02489
G1 X140.725 Y46.626 E0.02489
G1 X141.176 Y47.280 E0.02489
G1 X141.458 Y48.022 E0.02489
G1 X141.553 Y48.810 E0.02489
G1 X141.458 Y49.598 E0.02489
G1 X141.176 Y50.340 E0.02489
G1 X140.725 Y50.993 E0.02489
G1 X140.131 Y51.520 E0.02489
G1 X139.428 Y51.889 E0.02489
G1 X138.657 Y52.079 E0.02489
G1 X137.864 Y52.079 E0.02489
G1 X137.093 Y51.889 E0.02489
G1 X136.390 Y51.520 E0.02489
G1 X135.796 Y50.993 E0.02489
G1 X135.345 Y50.340 E0.02489
G1 X135.063 Y49.598 E0.02489
G1 X134.968 Y48.810 E0.02489
G1 X135.056 Y48.081 E0.02301
G1 X135.430 Y48.127 F7800.000
G1 F1800.000
G1 X135.681 Y47.456 E0.02245
G1 X136.080 Y46.878 E0.02202
G1 X136.606 Y46.412 E0.02202
G1 X137.227 Y46.086 E0.02202
G1 X137.909 Y45.918 E0.02202
G1 X138.612 Y45.918 E0.02202
G1 X139.293 Y46.086 E0.02202
G1 X139.915 Y46.412 E0.02202
G1 X140.441 Y46.878 E0.02202
G1 X140.840 Y47.456 E0.02202
G1 X141.089 Y48.113 E0.02202
G1 X141.173 Y48.810 E0.02202
G1 X141.089 Y49.507 E0.02202
G1 X140.840 Y50.164 E0.02202
G1 X140.441 Y50.742 E0.02202
G1 X139.915 Y51.207 E0.02202
G1 X139.293 Y51.534 E0.02202
G1 X138.612 Y51.702 E0.02202
G1 X137.909 Y51.702 E0.02202
G1 X137.227 Y51.534 E0.02202
G1 X136.606 Y51.207 E0.02202
G1 X136.080 Y50.742 E0.02202
G1 X135.681 Y50.164 E0.02202
G1 X135.432 Y49.507 E0.02202
G1 X135.347 Y48.810 E0.02202
G1 X135.423 Y48.186 E0.01969
G1 X135.141 Y47.851 F7800.000
G1 F6240.000
G1 X135.681 Y47.456 E-0.84898
G1 X135.930 Y47.095 E-0.48102
G1 E-0.07000 F7200.00000
G1 Z0.250 F7800.000
G1 X118.553 Y48.810
G1 Z0.050
G1 E1.40000 F7200.00000
G1 F1800.000
G1 X118.458 Y49.598 E0.02489
G1 X118.176 Y50.340 E0.02489
G1 X117.725 Y50.993 E0.02489
G1 X117.131 Y51.520 E0.02489
G1 X116.428 Y51.889 E0.02489
G1 X115.657 Y52.079 E0.02489
G1 X114.864 Y52.079 E0.02489
G1 X114.093 Y51.889 E0.02489
G1 X113.390 Y51.520 E0.02489
G1 X112.796 Y50.993 E0.02489
G1 X112.345 Y50.340 E0.02489
G1 X112.063 Y49.598 E0.02489
G1 X111.968 Y48.810 E0.02489
G1 X112.063 Y48.022 E0.02489
G1 X112.345 Y47.280 E0.02489
G1 X112.796 Y46.626 E0.02489
G1 X113.390 Y46.100 E0.02489
G1 X114.093 Y45.731 E0.02489
G1 X114.864 Y45.541 E0.02489
G1 X115.657 Y45.541 E0.02489
G1 X116.428 Y45.731 E0.02489
G1 X117.131 Y46.100 E0.02489
G1 X117.725 Y46.626 E0.02489
G1 X118.176 Y47.280 E0.02489
G1 X118.458 Y48.022 E0.02489
G1 X118.546 Y48.750 E0.02301
G1 X118.172 Y48.796 F7800.000
G1 F1800.000
G1 X118.089 Y49.507 E0.02245
G1 X117.840 Y50.164 E0.02202
G1 X117.441 Y50.742 E0.02202
G1 X116.915 Y51.207 E0.02202
G1 X116.293 Y51.534 E0.02202
G1 X115.612 Y51.702 E0.02202
G1 X114.909 Y51.702 E0.02202
G1 X114.227 Y51.534 E0.02202
G1 X113.606 Y51.207 E0.02202
G1 X113.080 Y50.742 E0.02202
G1 X112.681 Y50.164 E0.02202
G1 X112.432 Y49.507 E0.02202
G1 X112.347 Y48.810 E0.02202
G1 X112.432 Y48.113 E0.02202
G1 X112.681 Y47.456 E0.02202
G1 X113.080 Y46.878 E0.02202
G1 X113.606 Y46.412 E0.02202
G1 X114.227 Y46.086 E0.02202
G1 X114.909 Y45.918 E0.02202
G1 X115.612 Y45.918 E0.02202
G1 X115.952 Y46.002 E0.01101
G1 X116.293 Y46.086 E0.01101
G1 X116.915 Y46.412 E0.02202
G1 X117.441 Y46.878 E0.02202
G1 X117.840 Y47.456 E0.02202
G1 X118.089 Y48.113 E0.02202
G1 X118.165 Y48.736 E0.01969
G1 X118.519 Y48.995 F7800.000
G1 F6240.000
G1 X118.089 Y49.507 E-0.84898
G1 X117.933 Y49.917 E-0.48102
G1 E-0.07000 F7200.00000
G1 Z0.250 F7800.000
G1 X115.657 Y29.079
G1 Z0.050
G1 E1.40000 F7200.00000
G1 F1800.000
G1 X114.864 Y29.079 E0.02489
G1 X114.093 Y28.889 E0.02489
G1 X113.390 Y28.520 E0.02489
G1 X112.796 Y27.993 E0.02489
G1 X112.345 Y27.340 E0.02489
G1 X112.063 Y26.598 E0.02489
G1 X111.968 Y25.810 E0.02489
G1 X112.063 Y25.022 E0.02489
G1 X112.345 Y24.280 E0.02489
G1 X112.796 Y23.626 E0.02489
G1 X113.390 Y23.100 E0.02489
G1 X114.093 Y22.731 E0.02489
G1 X114.864 Y22.541 E0.02489
G1 X115.657 Y22.541 E0.02489
G1 X116.428 Y22.731 E0.02489
G1 X117.131 Y23.100 E0.02489
G1 X117.725 Y23.626 E0.02489
G1 X118.176 Y24.280 E0.02489
G1 X118.458 Y25.022 E0.02489
G1 X118.553 Y25.810 E0.02489
G1 X118.458 Y26.598 E0.02489
G1 X118.176 Y27.340 E0.02489
G1 X117.725 Y27.993 E0.02489
G1 X117.131 Y28.520 E0.02489
G1 X116.428 Y28.889 E0.02489
G1 X115.716 Y29.064 E0.02301
G1 X115.625 Y28.698 F7800.000
G1 F1800.000
G1 X114.909 Y28.702 E0.02245
G1 X114.227 Y28.534 E0.02202
G1 X113.606 Y28.207 E0.02202
G1 X113.080 Y27.742 E0.02202
G1 X112.681 Y27.164 E0.02202
G1 X112.432 Y26.507 E0.02202
G1 X112.347 Y25.810 E0.02202
G1 X112.432 Y25.113 E0.02202
G1 X112.681 Y24.456 E0.02202
G1 X113.080 Y23.878 E0.02202
G1 X113.606 Y23.412 E0.02202
G1 X114.227 Y23.086 E0.02202
G1 X114.909 Y22.918 E0.02202
G1 X115.612 Y22.918 E0.02202
G1 X116.293 Y23.086 E0.02202
G1 X116.915 Y23.412 E0.02202
G1 X117.441 Y23.878 E0.02202
G1 X117.840 Y24.456 E0.02202
G1 X118.089 Y25.113 E0.02202
G1 X118.173 Y25.810 E0.02202
G1 X118.089 Y26.507 E0.02202
G1 X117.840 Y27.164 E0.02202
G1 X117.441 Y27.742 E0.02202
G1 X116.915 Y28.207 E0.02202
G1 X116.293 Y28.534 E0.02202
G1 X115.684 Y28.684 E0.01969
G1 X115.470 Y29.067 F7800.000
G1 F6240.000
G1 X114.909 Y28.702 E-0.84898
G1 X114.483 Y28.597 E-0.48102
G1 E-0.07000 F7200.00000
G1 Z0.250 F7800.000
G1 X120.473 Y21.523
G1 Z0.050
G1 E1.40000 F7200.00000
G1 F1800.000
G1 X133.048 Y21.523 E0.39425
G1 X133.048 Y60.097 E1.20947
G1 X120.473 Y60.097 E0.39425
G1 X120.473 Y21.583 E1.20758
G1 X120.850 Y21.900 F7800.000
G1 F1800.000
G1 X132.670 Y21.900 E0.37061
G1 X132.670 Y59.720 E1.18582
G1 X120.850 Y59.720 E0.37061
G1 X120.850 Y21.960 E1.18394
G1 X120.810 Y21.502 F7800.000
G1 F6240.000
G1 X122.064 Y21.954 E-1.33000
G1 E-0.07000 F7200.00000
G1 Z0.250 F7800.000
G1 X135.063 Y25.022
G1 Z0.050
G1 E1.40000 F7200.00000
G1 F1800.000
G1 X135.345 Y24.280 E0.02489
G1 X135.796 Y23.626 E0.02489
G1 X136.390 Y23.100 E0.02489
G1 X137.093 Y22.731 E0.02489
G1 X137.864 Y22.541 E0.02489
G1 X138.657 Y22.541 E0.02489
G1 X139.428 Y22.731 E0.02489
G1 X140.131 Y23.100 E0.02489
G1 X140.725 Y23.626 E0.02489
G1 X141.176 Y24.280 E0.02489
G1 X141.458 Y25.022 E0.02489
G1 X141.553 Y25.810 E0.02489
G1 X141.458 Y26.598 E0.02489
G1 X141.176 Y27.340 E0.02489
G1 X140.725 Y27.993 E0.02489
G1 X140.131 Y28.520 E0.02489
G1 X139.428 Y28.889 E0.02489
G1 X138.657 Y29.079 E0.02489
G1 X137.864 Y29.079 E0.02489
G1 X137.093 Y28.889 E0.02489
G1 X136.390 Y28.520 E0.02489
G1 X135.796 Y27.993 E0.02489
G1 X135.345 Y27.340 E0.02489
G1 X135.063 Y26.598 E0.02489
G1 X134.968 Y25.810 E0.02489
G1 X135.056 Y25.081 E0.02301
G1 X135.430 Y25.127 F7800.000
G1 F1800.000
G1 X135.681 Y24.456 E0.02245
G1 X136.080 Y23.878 E0.02202
G1 X136.606 Y23.412 E0.02202
G1 X137.227 Y23.086 E0.02202
G1 X137.909 Y22.918 E0.02202
G1 X138.612 Y22.918 E0.02202
G1 X139.293 Y23.086 E0.02202
G1 X139.915 Y23.412 E0.02202
G1 X140.441 Y23.878 E0.02202
G1 X140.840 Y24.456 E0.02202
G1 X141.089 Y25.113 E0.02202
G1 X141.173 Y25.810 E0.02202
G1 X141.089 Y26.507 E0.02202
G1 X140.840 Y27.164 E0.02202
G1 X140.441 Y27.742 E0.02202
G1 X139.915 Y28.207 E0.02202
G1 X139.293 Y28.534 E0.02202
G1 X138.612 Y28.702 E0.02202
G1 X137.909 Y28.702 E0.02202
G1 X137.227 Y28.534 E0.02202
G1 X136.606 Y28.207 E0.02202
G1 X136.080 Y27.742 E0.02202
G1 X135.681 Y27.164 E0.02202
G1 X135.432 Y26.507 E0.02202
G1 X135.347 Y25.810 E0.02202
G1 X135.423 Y25.186 E0.01969
G1 X135.141 Y24.851 F7800.000
G1 F6240.000
G1 X135.681 Y24.456 E-0.84898
G1 X135.930 Y24.095 E-0.48102
G1 E-0.07000 F7200.00000
G1 Z0.250 F7800.000
G1 X143.473 Y48.636
G1 Z0.050
G1 E1.40000 F7200.00000
G1 F1800.000
G1 X144.973 Y50.136 E0.06651
G1 X144.973 Y62.523 E0.38838
G1 X108.548 Y62.523 E1.14211
G1 X108.548 Y50.136 E0.38838
G1 X110.048 Y48.636 E0.06651
G1 X110.048 Y23.349 E0.79287
G1 X110.132 Y22.489 E0.02709
G1 X110.372 Y21.699 E0.02587
G1 X110.761 Y20.971 E0.02587
G1 X111.284 Y20.334 E0.02587
G1 X111.922 Y19.810 E0.02587
G1 X112.650 Y19.421 E0.02587
G1 X113.439 Y19.182 E0.02587
G1 X114.299 Y19.097 E0.02709
G1 X139.222 Y19.097 E0.78143
G1 X140.082 Y19.182 E0.02709
G1 X140.871 Y19.421 E0.02587
G1 X141.599 Y19.810 E0.02587
G1 X142.237 Y20.334 E0.02587
G1 X142.760 Y20.971 E0.02587
G1 X143.149 Y21.699 E0.02587
G1 X143.389 Y22.489 E0.02587
G1 X143.473 Y23.349 E0.02709
G1 X143.473 Y48.576 E0.79099
G1 X143.850 Y48.480 F7800.000
G1 F1800.000
G1 X145.350 Y49.980 E0.06651
G1 X145.350 Y62.900 E0.40510
G1 X108.170 Y62.900 E1.16575
G1 X108.170 Y49.980 E0.40510
G1 X109.670 Y48.480 E0.06651
G1 X109.670 Y23.330 E0.78855
G1 X109.761 Y22.415 E0.02883
G1 X110.022 Y21.554 E0.02820
G1 X110.446 Y20.761 E0.02820
G1 X111.016 Y20.066 E0.02820
G1 X111.711 Y19.495 E0.02820
G1 X112.505 Y19.071 E0.02820
G1 X113.365 Y18.810 E0.02820
G1 X114.281 Y18.720 E0.02883
G1 X139.240 Y18.720 E0.78259
G1 X140.156 Y18.810 E0.02884
G1 X141.016 Y19.071 E0.02820
G1 X141.809 Y19.495 E0.02820
G1 X142.505 Y20.066 E0.02820
G1 X143.075 Y20.761 E0.02820
G1 X143.499 Y21.554 E0.02820
G1 X143.760 Y22.415 E0.02820
G1 X143.850 Y23.330 E0.02883
G1 X143.850 Y48.420 E0.78667
G1 X143.651 Y48.826 F7800.000
G1 F6240.000
G1 X144.691 Y49.294 E-1.33000
G1 E-0.07000 F7200.00000
G1 Z0.250 F7800.000
G1 X143.360 Y36.327
G1 Z0.050
G1 E1.40000 F7200.00000
G1 F1800.000
G1 X133.330 Y26.297 E0.44690
G1 X133.330 Y26.833 E0.01688
G1 X143.191 Y36.693 E0.43934
G1 X143.191 Y37.229 E0.01688
G1 X133.330 Y27.369 E0.43934
G1 X133.330 Y27.905 E0.01688
G1 X143.191 Y37.765 E0.43934
G1 X143.191 Y38.301 E0.01688
G1 X133.330 Y28.441 E0.43934
G1 X133.330 Y28.976 E0.01688
G1 X143.191 Y38.837 E0.43934
G1 X143.191 Y39.373 E0.01688
G1 X133.330 Y29.512 E0.43934
G1 X133.330 Y30.048 E0.01688
G1 X143.191 Y39.908 E0.43934
G1 X143.191 Y40.444 E0.01688
G1 X133.330 Y30.584 E0.43934
G1 X133.330 Y31.120 E0.01688
G1 X143.191 Y40.980 E0.43934
G1 X143.191 Y41.516 E0.01688
G1 X133.330 Y31.656 E0.43934
G1 X133.330 Y32.192 E0.01688
G1 X143.191 Y42.052 E0.43934
G1 X143.191 Y42.588 E0.01688
G1 X133.330 Y32.727 E0.43934
G1 X133.330 Y33.263 E0.01688
G1 X143.191 Y43.124 E0.43934
G1 X143.191 Y43.659 E0.01688
G1 X133.330 Y33.799 E0.43934
G1 X133.330 Y34.335 E0.01688
G1 X143.191 Y44.195 E0.43934
G1 X143.191 Y44.731 E0.01688
G1 X133.330 Y34.871 E0.43934
G1 X133.330 Y35.407 E0.01688
G1 X143.191 Y45.267 E0.43934
G1 X143.191 Y45.803 E0.01688
G1 X133.330 Y35.943 E0.43934
G1 X133.330 Y36.478 E0.01688
G1 X143.191 Y46.339 E0.43934
G1 X143.191 Y46.875 E0.01688
G1 X133.330 Y37.014 E0.43934
G1 X133.330 Y37.550 E0.01688
G1 X143.191 Y47.410 E0.43934
G1 X143.191 Y47.946 E0.01688
G1 X133.330 Y38.086 E0.43934
G1 X133.330 Y38.622 E0.01688
G1 X143.191 Y48.482 E0.43934
G1 X143.191 Y48.753 E0.00853
G1 X144.691 Y50.253 E0.06684
G1 X144.691 Y50.518 E0.00835
G1 X141.495 Y47.322 E0.14239
G1 X141.734 Y47.954 E0.02128
G1 X141.754 Y48.117 E0.00520
G1 X144.691 Y51.054 E0.13084
G1 X144.691 Y51.590 E0.01688
G1 X141.828 Y48.727 E0.12754
G1 X141.838 Y48.810 E0.00262
G1 X141.788 Y49.223 E0.01311
G1 X144.691 Y52.126 E0.12933
G1 X144.691 Y52.661 E0.01688
G1 X141.723 Y49.694 E0.13220
G1 X141.576 Y50.083 E0.01309
G1 X144.691 Y53.197 E0.13877
G1 X144.691 Y53.733 E0.01688
G1 X141.429 Y50.471 E0.14533
G1 X141.210 Y50.789 E0.01214
G1 X144.691 Y54.269 E0.15508
G1 X144.691 Y54.805 E0.01688
G1 X140.991 Y51.106 E0.16483
G1 X140.938 Y51.182 E0.00294
G1 X140.723 Y51.373 E0.00906
G1 X144.691 Y55.341 E0.17678
G1 X144.691 Y55.877 E0.01688
G1 X140.439 Y51.625 E0.18944
G1 X140.293 Y51.754 E0.00615
G1 X140.122 Y51.844 E0.00607
G1 X144.691 Y56.412 E0.20356
G1 X144.691 Y56.948 E0.01688
G1 X139.771 Y52.028 E0.21922
G1 X139.529 Y52.155 E0.00859
G1 X139.395 Y52.188 E0.00436
G1 X144.691 Y57.484 E0.23597
G1 X144.691 Y58.020 E0.01688
G1 X138.965 Y52.294 E0.25512
G1 X138.692 Y52.361 E0.00886
G1 X138.496 Y52.361 E0.00616
G1 X144.691 Y58.556 E0.27600
G1 X144.691 Y59.092 E0.01688
G1 X137.960 Y52.361 E0.29988
G1 X137.829 Y52.361 E0.00413
G1 X137.292 Y52.229 E0.01743
G1 X144.691 Y59.628 E0.32965
G1 X144.691 Y60.163 E0.01688
G1 X133.330 Y48.803 E0.50617
G1 X133.330 Y48.267 E0.01688
G1 X134.822 Y49.759 E0.06646
G1 X134.787 Y49.666 E0.00313
G1 X134.721 Y49.122 E0.01728
G1 X133.330 Y47.731 E0.06195
G1 X133.330 Y47.196 E0.01688
G1 X134.711 Y48.576 E0.06152
G1 X134.769 Y48.099 E0.01517
G1 X133.330 Y46.660 E0.06411
G1 X133.330 Y46.124 E0.01688
G1 X134.889 Y47.683 E0.06946
G1 X135.037 Y47.294 E0.01309
G1 X133.330 Y45.588 E0.07603
G1 X133.330 Y45.052 E0.01688
G1 X135.228 Y46.950 E0.08457
G1 X135.447 Y46.633 E0.01214
G1 X133.330 Y44.516 E0.09432
G1 X133.330 Y43.980 E0.01688
G1 X135.691 Y46.341 E0.10519
G1 X135.975 Y46.089 E0.01196
G1 X133.330 Y43.445 E0.11785
G1 X133.330 Y42.909 E0.01688
G1 X136.267 Y45.845 E0.13084
G1 X136.618 Y45.661 E0.01250
G1 X133.330 Y42.373 E0.14649
G1 X133.330 Y41.837 E0.01688
G1 X136.970 Y45.476 E0.16215
G1 X137.394 Y45.365 E0.01384
G1 X133.330 Y41.301 E0.18108
G1 X133.330 Y40.765 E0.01688
G1 X137.824 Y45.259 E0.20024
G1 X138.359 Y45.258 E0.01685
G1 X133.330 Y40.229 E0.22406
G1 X133.330 Y39.694 E0.01688
G1 X138.961 Y45.325 E0.25090
G1 X139.529 Y45.465 E0.01842
G1 X139.756 Y45.584 E0.00809
G1 X133.161 Y38.988 E0.29389
G1 F6240.000
G1 X134.019 Y39.846 E-1.33000
G1 E-0.07000 F7200.00000
G1 Z0.250 F7800.000
G1 X142.815 Y21.314
G1 Z0.050
G1 E1.40000 F7200.00000
G1 F1800.000
G1 X142.035 Y20.534 E0.03473
G1 X141.441 Y20.046 E0.02422
G1 X140.762 Y19.684 E0.02424
