; generated by PrusaSlicer 2.2.0+linux-x64 on 2021-03-04 at 21:36:33 UTC

; 

; external perimeters extrusion width = 0.45mm
; perimeters extrusion width = 0.45mm
; infill extrusion width = 0.45mm
; solid infill extrusion width = 0.45mm
; top infill extrusion width = 0.40mm
; first layer extrusion width = 0.42mm

M201 X9000 Y9000 Z500 E10000 ; sets maximum accelerations, mm/sec^2
M203 X500 Y500 Z12 E120 ; sets maximum feedrates, mm/sec
M204 P1500 R1500 T1500 ; sets acceleration (P, T) and retract acceleration (R), mm/sec^2
M205 X10.00 Y10.00 Z0.20 E2.50 ; sets the jerk limits, mm/sec
M205 S0 T0 ; sets the minimum extruding and travel feed rate, mm/sec
M107
M83  ; extruder relative mode
G0 Z25 ; move z 25 mm up

M104 S230 ; set extruder temp
M140 S85 ; set bed temp
M190 S85 ; wait for bed temp
M109 S230 ; wait for extruder temp

G28 ; home all
G29 ; mesh bed leveling
G92 E0.0
G1 Y10  F1000.0 ; intro line
G1 X60.0 E9.0  F1000.0 ; intro line
G1 Z0  F1000.0 ; intro line
G1 X100.0 E12.5  F1000.0 ; intro line
G92 E0.0


G21 ; set units to millimeters
G90 ; use absolute coordinates
M83 ; use relative distances for extrusion
M900 K45 ; Filament gcode
G1 E-1.40000 F7200.00000
G1 Z0.200 F7800.000
G1 Z0.400
G1 X86.910 Y82.001
G1 Z0.200
G1 E1.40000 F7200.00000
G1 F1800.000
G1 X88.693 Y80.531 E0.07246
G1 X90.731 Y79.455 E0.07226
G1 X92.281 Y78.962 E0.05100
G1 X93.067 Y78.791 E0.02522
G1 X94.960 Y78.623 E0.05960
G1 X120.006 Y78.623 E0.78530
G1 X122.107 Y78.820 E0.06616
G1 X123.937 Y79.333 E0.05959
G1 X125.828 Y80.242 E0.06579
G1 X126.801 Y80.895 E0.03672
G1 X128.174 Y82.088 E0.05704
G1 X129.530 Y83.787 E0.06817
G1 X130.513 Y85.650 E0.06603
G1 X131.135 Y87.668 E0.06623
G1 X131.365 Y89.611 E0.06134
G1 X132.876 Y116.389 E0.84093
G1 X132.867 Y130.355 E0.43791
G1 X132.586 Y131.905 E0.04936
G1 X131.937 Y133.332 E0.04917
G1 X130.969 Y134.550 E0.04878
G1 X129.739 Y135.493 E0.04859
G1 X128.319 Y136.112 E0.04859
G1 X126.784 Y136.371 E0.04878
G1 X88.357 Y136.375 E1.20488
G1 X87.518 Y136.301 E0.02639
G1 X86.703 Y136.119 E0.02619
G1 X85.913 Y135.829 E0.02639
G1 X85.168 Y135.437 E0.02639
G1 X84.083 Y134.600 E0.04295
G1 X83.199 Y133.546 E0.04315
G1 X82.564 Y132.332 E0.04295
G1 X82.203 Y131.010 E0.04295
G1 X82.123 Y130.035 E0.03068
G1 X82.123 Y116.469 E0.42536
G1 X83.751 Y88.387 E0.88196
G1 X83.922 Y87.430 E0.03049
G1 X84.397 Y85.881 E0.05081
G1 X85.408 Y83.886 E0.07011
G1 X86.872 Y82.048 E0.07368
G1 F6240.000
G1 X87.805 Y81.271 E-1.33000
G1 E-0.07000 F7200.00000
G1 Z0.400 F7800.000
G1 X116.535 Y113.316
G1 Z0.200
G1 E1.40000 F7200.00000
G1 F1800.000
G1 X117.129 Y112.790 E0.02489
G1 X117.832 Y112.421 E0.02489
G1 X118.603 Y112.231 E0.02489
G1 X119.397 Y112.231 E0.02489
G1 X120.168 Y112.421 E0.02489
G1 X120.871 Y112.790 E0.02489
G1 X121.465 Y113.316 E0.02489
G1 X121.916 Y113.970 E0.02489
G1 X122.197 Y114.712 E0.02489
G1 X122.293 Y115.500 E0.02489
G1 X122.197 Y116.288 E0.02489
G1 X121.916 Y117.030 E0.02489
G1 X121.465 Y117.684 E0.02489
G1 X120.870 Y118.210 E0.02489
G1 X120.168 Y118.579 E0.02489
G1 X119.397 Y118.769 E0.02489
G1 X118.603 Y118.769 E0.02489
G1 X117.832 Y118.579 E0.02489
G1 X117.129 Y118.210 E0.02489
G1 X116.535 Y117.684 E0.02489
G1 X116.084 Y117.030 E0.02489
G1 X115.803 Y116.288 E0.02489
G1 X115.707 Y115.500 E0.02489
G1 X115.803 Y114.712 E0.02489
G1 X116.084 Y113.970 E0.02489
G1 X116.501 Y113.366 E0.02301
G1 X116.812 Y113.580 F7800.000
G1 F1800.000
G1 X117.345 Y113.103 E0.02245
G1 X117.967 Y112.776 E0.02202
G1 X118.649 Y112.608 E0.02202
G1 X119.351 Y112.608 E0.02202
G1 X120.033 Y112.776 E0.02202
G1 X120.655 Y113.103 E0.02202
G1 X121.180 Y113.568 E0.02202
G1 X121.579 Y114.146 E0.02202
G1 X121.828 Y114.803 E0.02202
G1 X121.913 Y115.500 E0.02202
G1 X121.828 Y116.197 E0.02202
G1 X121.579 Y116.854 E0.02202
G1 X121.180 Y117.432 E0.02202
G1 X120.655 Y117.897 E0.02202
G1 X120.033 Y118.224 E0.02202
G1 X119.351 Y118.392 E0.02202
G1 X118.649 Y118.392 E0.02202
G1 X117.967 Y118.224 E0.02202
G1 X117.345 Y117.897 E0.02202
G1 X116.820 Y117.432 E0.02202
G1 X116.421 Y116.854 E0.02202
G1 X116.172 Y116.197 E0.02202
G1 X116.087 Y115.500 E0.02202
G1 X116.172 Y114.803 E0.02202
G1 X116.421 Y114.146 E0.02202
G1 X116.777 Y113.629 E0.01969
G1 X116.683 Y113.201 F7800.000
G1 F6240.000
G1 X117.345 Y113.103 E-0.84899
G1 X117.734 Y112.899 E-0.48101
G1 E-0.07000 F7200.00000
G1 Z0.400 F7800.000
G1 X99.293 Y115.500
G1 Z0.200
G1 E1.40000 F7200.00000
G1 F1800.000
G1 X99.197 Y116.288 E0.02489
G1 X98.916 Y117.030 E0.02489
G1 X98.465 Y117.684 E0.02489
G1 X97.870 Y118.210 E0.02489
G1 X97.168 Y118.579 E0.02489
G1 X96.397 Y118.769 E0.02489
G1 X95.603 Y118.769 E0.02489
G1 X94.832 Y118.579 E0.02489
G1 X94.129 Y118.210 E0.02489
G1 X93.535 Y117.684 E0.02489
G1 X93.084 Y117.030 E0.02489
G1 X92.803 Y116.288 E0.02489
G1 X92.707 Y115.500 E0.02489
G1 X92.803 Y114.712 E0.02489
G1 X93.084 Y113.970 E0.02489
G1 X93.535 Y113.316 E0.02489
G1 X94.129 Y112.790 E0.02489
G1 X94.832 Y112.421 E0.02489
G1 X95.603 Y112.231 E0.02489
G1 X96.397 Y112.231 E0.02489
G1 X97.168 Y112.421 E0.02489
G1 X97.871 Y112.790 E0.02489
G1 X98.465 Y113.316 E0.02489
G1 X98.916 Y113.970 E0.02489
G1 X99.197 Y114.712 E0.02489
G1 X99.286 Y115.441 E0.02301
G1 X98.911 Y115.486 F7800.000
G1 F1800.000
G1 X98.828 Y116.197 E0.02245
G1 X98.579 Y116.854 E0.02202
G1 X98.180 Y117.432 E0.02202
G1 X97.655 Y117.897 E0.02202
G1 X97.033 Y118.224 E0.02202
G1 X96.351 Y118.392 E0.02202
G1 X95.649 Y118.392 E0.02202
G1 X94.967 Y118.224 E0.02202
G1 X94.345 Y117.897 E0.02202
G1 X93.820 Y117.432 E0.02202
G1 X93.421 Y116.854 E0.02202
G1 X93.172 Y116.197 E0.02202
G1 X93.087 Y115.500 E0.02202
G1 X93.172 Y114.803 E0.02202
G1 X93.421 Y114.146 E0.02202
G1 X93.820 Y113.568 E0.02202
G1 X94.345 Y113.103 E0.02202
G1 X94.967 Y112.776 E0.02202
G1 X95.649 Y112.608 E0.02202
G1 X96.351 Y112.608 E0.02202
G1 X96.692 Y112.692 E0.01101
G1 X97.033 Y112.776 E0.01101
G1 X97.655 Y113.103 E0.02202
G1 X98.180 Y113.568 E0.02202
G1 X98.579 Y114.146 E0.02202
G1 X98.828 Y114.803 E0.02202
G1 X98.904 Y115.426 E0.01969
G1 X99.258 Y115.685 F7800.000
G1 F6240.000
G1 X98.828 Y116.197 E-0.84898
G1 X98.673 Y116.608 E-0.48102
G1 E-0.07000 F7200.00000
G1 Z0.400 F7800.000
G1 X96.397 Y95.769
G1 Z0.200
G1 E1.40000 F7200.00000
G1 F1800.000
G1 X95.603 Y95.769 E0.02489
G1 X94.832 Y95.579 E0.02489
G1 X94.129 Y95.210 E0.02489
G1 X93.535 Y94.684 E0.02489
G1 X93.084 Y94.030 E0.02489
G1 X92.803 Y93.288 E0.02489
G1 X92.707 Y92.500 E0.02489
G1 X92.803 Y91.712 E0.02489
G1 X93.084 Y90.970 E0.02489
G1 X93.535 Y90.316 E0.02489
G1 X94.129 Y89.790 E0.02489
G1 X94.832 Y89.421 E0.02489
G1 X95.603 Y89.231 E0.02489
G1 X96.397 Y89.231 E0.02489
G1 X97.168 Y89.421 E0.02489
G1 X97.871 Y89.790 E0.02489
G1 X98.465 Y90.316 E0.02489
G1 X98.916 Y90.970 E0.02489
G1 X99.197 Y91.712 E0.02489
G1 X99.293 Y92.500 E0.02489
G1 X99.197 Y93.288 E0.02489
G1 X98.916 Y94.030 E0.02489
G1 X98.465 Y94.684 E0.02489
G1 X97.870 Y95.210 E0.02489
G1 X97.168 Y95.579 E0.02489
G1 X96.455 Y95.754 E0.02301
G1 X96.365 Y95.388 F7800.000
G1 F1800.000
G1 X95.649 Y95.392 E0.02245
G1 X94.967 Y95.224 E0.02202
G1 X94.345 Y94.897 E0.02202
G1 X93.820 Y94.432 E0.02202
G1 X93.421 Y93.854 E0.02202
G1 X93.172 Y93.197 E0.02202
G1 X93.087 Y92.500 E0.02202
G1 X93.172 Y91.803 E0.02202
G1 X93.421 Y91.146 E0.02202
G1 X93.820 Y90.568 E0.02202
G1 X94.345 Y90.103 E0.02202
G1 X94.967 Y89.776 E0.02202
G1 X95.649 Y89.608 E0.02202
G1 X96.351 Y89.608 E0.02202
G1 X97.033 Y89.776 E0.02202
G1 X97.655 Y90.103 E0.02202
G1 X98.180 Y90.568 E0.02202
G1 X98.579 Y91.146 E0.02202
G1 X98.828 Y91.803 E0.02202
G1 X98.913 Y92.500 E0.02202
G1 X98.828 Y93.197 E0.02202
G1 X98.579 Y93.854 E0.02202
G1 X98.180 Y94.432 E0.02202
G1 X97.655 Y94.897 E0.02202
G1 X97.033 Y95.224 E0.02202
G1 X96.423 Y95.374 E0.01969
G1 X96.209 Y95.757 F7800.000
G1 F6240.000
G1 X95.649 Y95.392 E-0.84898
G1 X95.223 Y95.287 E-0.48102
G1 E-0.07000 F7200.00000
G1 Z0.400 F7800.000
G1 X101.213 Y88.213
G1 Z0.200
G1 E1.40000 F7200.00000
G1 F1800.000
G1 X113.787 Y88.213 E0.39425
G1 X113.787 Y126.787 E1.20947
G1 X101.213 Y126.787 E0.39425
G1 X101.213 Y88.273 E1.20758
G1 X101.590 Y88.590 F7800.000
G1 F1800.000
G1 X113.410 Y88.590 E0.37061
G1 X113.410 Y126.410 E1.18582
G1 X101.590 Y126.410 E0.37061
G1 X101.590 Y88.650 E1.18394
G1 X101.550 Y88.192 F7800.000
G1 F6240.000
G1 X102.803 Y88.644 E-1.33000
G1 E-0.07000 F7200.00000
G1 Z0.400 F7800.000
G1 X115.803 Y91.712
G1 Z0.200
G1 E1.40000 F7200.00000
G1 F1800.000
G1 X116.084 Y90.970 E0.02489
G1 X116.535 Y90.316 E0.02489
G1 X117.129 Y89.790 E0.02489
G1 X117.832 Y89.421 E0.02489
G1 X118.603 Y89.231 E0.02489
G1 X119.397 Y89.231 E0.02489
G1 X120.168 Y89.421 E0.02489
G1 X120.871 Y89.790 E0.02489
G1 X121.465 Y90.316 E0.02489
G1 X121.916 Y90.970 E0.02489
G1 X122.197 Y91.712 E0.02489
G1 X122.293 Y92.500 E0.02489
G1 X122.197 Y93.288 E0.02489
G1 X121.916 Y94.030 E0.02489
G1 X121.465 Y94.684 E0.02489
G1 X120.870 Y95.210 E0.02489
G1 X120.168 Y95.579 E0.02489
G1 X119.397 Y95.769 E0.02489
G1 X118.603 Y95.769 E0.02489
G1 X117.832 Y95.579 E0.02489
G1 X117.129 Y95.210 E0.02489
G1 X116.535 Y94.684 E0.02489
G1 X116.084 Y94.030 E0.02489
G1 X115.803 Y93.288 E0.02489
G1 X115.707 Y92.500 E0.02489
G1 X115.796 Y91.772 E0.02301
G1 X116.170 Y91.817 F7800.000
G1 F1800.000
G1 X116.421 Y91.146 E0.02245
G1 X116.820 Y90.568 E0.02202
G1 X117.345 Y90.103 E0.02202
G1 X117.967 Y89.776 E0.02202
G1 X118.649 Y89.608 E0.02202
G1 X119.351 Y89.608 E0.02202
G1 X120.033 Y89.776 E0.02202
G1 X120.655 Y90.103 E0.02202
G1 X121.180 Y90.568 E0.02202
G1 X121.579 Y91.146 E0.02202
G1 X121.828 Y91.803 E0.02202
G1 X121.913 Y92.500 E0.02202
G1 X121.828 Y93.197 E0.02202
G1 X121.579 Y93.854 E0.02202
G1 X121.180 Y94.432 E0.02202
G1 X120.655 Y94.897 E0.02202
G1 X120.033 Y95.224 E0.02202
G1 X119.351 Y95.392 E0.02202
G1 X118.649 Y95.392 E0.02202
G1 X117.967 Y95.224 E0.02202
G1 X117.345 Y94.897 E0.02202
G1 X116.820 Y94.432 E0.02202
G1 X116.421 Y93.854 E0.02202
G1 X116.172 Y93.197 E0.02202
G1 X116.087 Y92.500 E0.02202
G1 X116.163 Y91.877 E0.01969
G1 X115.880 Y91.541 F7800.000
G1 F6240.000
G1 X116.421 Y91.146 E-0.84898
G1 X116.670 Y90.785 E-0.48102
G1 E-0.07000 F7200.00000
G1 Z0.400 F7800.000
G1 X124.213 Y115.326
G1 Z0.200
G1 E1.40000 F7200.00000
G1 F1800.000
G1 X125.713 Y116.826 E0.06651
G1 X125.713 Y129.213 E0.38838
G1 X89.287 Y129.213 E1.14211
G1 X89.287 Y116.826 E0.38838
G1 X90.787 Y115.326 E0.06651
G1 X90.787 Y90.039 E0.79287
G1 X90.872 Y89.179 E0.02709
G1 X91.111 Y88.389 E0.02587
G1 X91.500 Y87.662 E0.02587
G1 X92.024 Y87.024 E0.02587
G1 X92.662 Y86.500 E0.02587
G1 X93.389 Y86.111 E0.02587
G1 X94.179 Y85.872 E0.02587
G1 X95.039 Y85.787 E0.02709
G1 X119.961 Y85.787 E0.78143
G1 X120.821 Y85.872 E0.02709
G1 X121.611 Y86.111 E0.02587
G1 X122.338 Y86.500 E0.02587
G1 X122.976 Y87.024 E0.02587
G1 X123.500 Y87.662 E0.02587
G1 X123.889 Y88.389 E0.02587
G1 X124.128 Y89.179 E0.02587
G1 X124.213 Y90.039 E0.02709
G1 X124.213 Y115.266 E0.79099
G1 X124.590 Y115.170 F7800.000
G1 F1800.000
G1 X126.090 Y116.670 E0.06651
G1 X126.090 Y129.590 E0.40510
G1 X88.910 Y129.590 E1.16575
G1 X88.910 Y116.670 E0.40510
G1 X90.410 Y115.170 E0.06651
G1 X90.410 Y90.020 E0.78855
G1 X90.500 Y89.105 E0.02883
G1 X90.761 Y88.244 E0.02820
G1 X91.185 Y87.451 E0.02820
G1 X91.756 Y86.756 E0.02820
G1 X92.451 Y86.185 E0.02820
G1 X93.244 Y85.761 E0.02820
G1 X94.105 Y85.500 E0.02820
G1 X95.020 Y85.410 E0.02883
G1 X119.980 Y85.410 E0.78259
G1 X120.895 Y85.500 E0.02884
G1 X121.756 Y85.761 E0.02820
G1 X122.549 Y86.185 E0.02820
G1 X123.244 Y86.756 E0.02820
G1 X123.815 Y87.451 E0.02820
G1 X124.239 Y88.244 E0.02820
G1 X124.500 Y89.105 E0.02820
G1 X124.590 Y90.020 E0.02883
G1 X124.590 Y115.110 E0.78667
G1 X124.390 Y115.516 F7800.000
G1 F6240.000
G1 X125.431 Y115.984 E-1.33000
G1 E-0.07000 F7200.00000
G1 Z0.400 F7800.000
G1 X124.100 Y103.017
G1 Z0.200
G1 E1.40000 F7200.00000
G1 F1800.000
G1 X114.070 Y92.987 E0.44690
G1 X114.070 Y93.523 E0.01688
G1 X123.930 Y103.383 E0.43934
G1 X123.930 Y103.919 E0.01688
G1 X114.070 Y94.059 E0.43934
G1 X114.070 Y94.595 E0.01688
G1 X123.930 Y104.455 E0.43934
G1 X123.930 Y104.991 E0.01688
G1 X114.070 Y95.131 E0.43934
G1 X114.070 Y95.667 E0.01688
G1 X123.930 Y105.527 E0.43934
G1 X123.930 Y106.063 E0.01688
G1 X114.070 Y96.203 E0.43934
G1 X114.070 Y96.738 E0.01688
G1 X123.930 Y106.599 E0.43934
G1 X123.930 Y107.134 E0.01688
G1 X114.070 Y97.274 E0.43934
G1 X114.070 Y97.810 E0.01688
G1 X123.930 Y107.670 E0.43934
G1 X123.930 Y108.206 E0.01688
G1 X114.070 Y98.346 E0.43934
G1 X114.070 Y98.882 E0.01688
G1 X123.930 Y108.742 E0.43934
G1 X123.930 Y109.278 E0.01688
G1 X114.070 Y99.418 E0.43934
G1 X114.070 Y99.954 E0.01688
G1 X123.930 Y109.814 E0.43934
G1 X123.930 Y110.350 E0.01688
G1 X114.070 Y100.489 E0.43934
G1 X114.070 Y101.025 E0.01688
G1 X123.930 Y110.885 E0.43934
G1 X123.930 Y111.421 E0.01688
G1 X114.070 Y101.561 E0.43934
G1 X114.070 Y102.097 E0.01688
G1 X123.930 Y111.957 E0.43934
G1 X123.930 Y112.493 E0.01688
G1 X114.070 Y102.633 E0.43934
G1 X114.070 Y103.169 E0.01688
G1 X123.930 Y113.029 E0.43934
G1 X123.930 Y113.565 E0.01688
G1 X114.070 Y103.705 E0.43934
G1 X114.070 Y104.240 E0.01688
G1 X123.930 Y114.101 E0.43934
G1 X123.930 Y114.636 E0.01688
G1 X114.070 Y104.776 E0.43934
G1 X114.070 Y105.312 E0.01688
G1 X123.930 Y115.172 E0.43934
G1 X123.930 Y115.443 E0.00853
G1 X125.430 Y116.943 E0.06684
G1 X125.430 Y117.208 E0.00835
G1 X122.234 Y114.012 E0.14239
G1 X122.474 Y114.644 E0.02128
G1 X122.494 Y114.808 E0.00520
G1 X125.430 Y117.744 E0.13084
G1 X125.430 Y118.280 E0.01688
G1 X122.568 Y115.417 E0.12754
G1 X122.578 Y115.500 E0.00262
G1 X122.528 Y115.913 E0.01311
G1 X125.430 Y118.816 E0.12933
G1 X125.430 Y119.352 E0.01688
G1 X122.463 Y116.385 E0.13220
G1 X122.316 Y116.773 E0.01309
G1 X125.430 Y119.887 E0.13877
G1 X125.430 Y120.423 E0.01688
G1 X122.168 Y117.162 E0.14533
G1 X121.950 Y117.479 E0.01214
G1 X125.430 Y120.959 E0.15508
G1 X125.430 Y121.495 E0.01688
G1 X121.731 Y117.796 E0.16483
G1 X121.678 Y117.873 E0.00294
G1 X121.463 Y118.063 E0.00906
G1 X125.430 Y122.031 E0.17678
G1 X125.430 Y122.567 E0.01688
G1 X121.178 Y118.315 E0.18944
G1 X121.032 Y118.444 E0.00615
G1 X120.862 Y118.534 E0.00607
G1 X125.430 Y123.103 E0.20356
G1 X125.430 Y123.638 E0.01688
G1 X120.510 Y118.718 E0.21922
G1 X120.269 Y118.845 E0.00859
G1 X120.134 Y118.878 E0.00436
G1 X125.430 Y124.174 E0.23597
G1 X125.430 Y124.710 E0.01688
G1 X119.704 Y118.984 E0.25512
G1 X119.431 Y119.052 E0.00886
G1 X119.236 Y119.052 E0.00616
G1 X125.430 Y125.246 E0.27600
G1 X125.430 Y125.782 E0.01688
G1 X118.700 Y119.052 E0.29988
G1 X118.569 Y119.052 E0.00413
G1 X118.032 Y118.919 E0.01743
G1 X125.430 Y126.318 E0.32965
G1 X125.430 Y126.854 E0.01688
G1 X114.070 Y115.493 E0.50617
G1 X114.070 Y114.958 E0.01688
G1 X115.561 Y116.449 E0.06646
G1 X115.526 Y116.356 E0.00313
G1 X115.460 Y115.812 E0.01728
G1 X114.070 Y114.422 E0.06195
G1 X114.070 Y113.886 E0.01688
G1 X115.451 Y115.267 E0.06152
G1 X115.509 Y114.789 E0.01517
G1 X114.070 Y113.350 E0.06411
G1 X114.070 Y112.814 E0.01688
G1 X115.629 Y114.373 E0.06946
G1 X115.776 Y113.985 E0.01309
G1 X114.070 Y112.278 E0.07603
G1 X114.070 Y111.742 E0.01688
G1 X115.968 Y113.640 E0.08457
G1 X116.187 Y113.323 E0.01214
G1 X114.070 Y111.207 E0.09432
G1 X114.070 Y110.671 E0.01688
G1 X116.431 Y113.031 E0.10519
G1 X116.715 Y112.780 E0.01196
G1 X114.070 Y110.135 E0.11785
G1 X114.070 Y109.599 E0.01688
G1 X117.006 Y112.535 E0.13084
G1 X117.358 Y112.351 E0.01250
G1 X114.070 Y109.063 E0.14649
G1 X114.070 Y108.527 E0.01688
G1 X117.709 Y112.166 E0.16215
G1 X118.134 Y112.056 E0.01384
G1 X114.070 Y107.991 E0.18108
G1 X114.070 Y107.456 E0.01688
G1 X118.564 Y111.950 E0.20024
G1 X119.099 Y111.948 E0.01685
G1 X114.070 Y106.920 E0.22406
G1 X114.070 Y106.384 E0.01688
G1 X119.701 Y112.015 E0.25090
G1 X120.269 Y112.155 E0.01842
G1 X120.496 Y112.274 E0.00809
G1 X113.900 Y105.678 E0.29389
G1 F6240.000
G1 X114.758 Y106.536 E-1.33000
G1 E-0.07000 F7200.00000
G1 Z0.400 F7800.000
G1 X123.554 Y88.004
G1 Z0.200
G1 E1.40000 F7200.00000
G1 F1800.000
G1 X122.775 Y87.224 E0.03473
G1 X122.181 Y86.737 E0.02422
G1 X121.502 Y86.374 E0.02424
G1 X121.339 Y86.324 E0.00536
G1 X123.676 Y88.661 E0.10410
