; generated by PrusaSlicer 2.2.0+linux-x64 on 2021-01-05 at 20:05:56 UTC

; 

; external perimeters extrusion width = 0.45mm
; perimeters extrusion width = 0.45mm
; infill extrusion width = 0.45mm
; solid infill extrusion width = 0.45mm
; top infill extrusion width = 0.40mm
; first layer extrusion width = 0.42mm

M201 X9000 Y9000 Z500 E10000 ; sets maximum accelerations, mm/sec^2
M203 X500 Y500 Z12 E120 ; sets maximum feedrates, mm/sec
M204 P1500 R1500 T1500 ; sets acceleration (P, T) and retract acceleration (R), mm/sec^2
M205 X10.00 Y10.00 Z0.20 E2.50 ; sets the jerk limits, mm/sec
M205 S0 T0 ; sets the minimum extruding and travel feed rate, mm/sec
M107
M83  ; extruder relative mode
G0 Z25 ; move z 25 mm up

M104 S240 ; set extruder temp
M140 S85 ; set bed temp
M190 S85 ; wait for bed temp
M109 S240 ; wait for extruder temp

G28 ; home all
G29 ; mesh bed leveling
G92 E0.0
G1 Y10  F1000.0 ; intro line
G1 X60.0 E9.0  F1000.0 ; intro line
G1 Z0  F1000.0 ; intro line
G1 X100.0 E12.5  F1000.0 ; intro line
G92 E0.0


G21 ; set units to millimeters
G90 ; use absolute coordinates
M83 ; use relative distances for extrusion
M900 K45 ; Filament gcode
G1 E-1.40000 F7200.00000
G1 Z0.200 F7800.000
G1 Z0.400
G1 X80.957 Y84.699
G1 Z0.200
G1 E1.40000 F7200.00000
G1 F1800.000
G1 X82.119 Y83.692 E0.04824
G1 X83.484 Y82.897 E0.04952
G1 X84.955 Y82.376 E0.04893
G1 X86.524 Y82.137 E0.04977
G1 X128.006 Y82.123 E1.30063
G1 X129.548 Y82.267 E0.04855
G1 X131.015 Y82.684 E0.04783
G1 X132.405 Y83.375 E0.04867
G1 X133.590 Y84.262 E0.04640
G1 X134.565 Y85.297 E0.04458
G1 X135.401 Y86.577 E0.04795
G1 X135.983 Y87.962 E0.04711
G1 X136.312 Y89.458 E0.04802
G1 X136.377 Y90.490 E0.03242
G1 X136.363 Y124.978 E1.08134
G1 X136.135 Y126.498 E0.04818
G1 X135.655 Y127.900 E0.04648
G1 X134.983 Y129.126 E0.04383
G1 X134.043 Y130.301 E0.04718
G1 X132.784 Y131.376 E0.05194
G1 X131.245 Y132.223 E0.05506
G1 X129.644 Y132.714 E0.05251
G1 X128.028 Y132.877 E0.05090
G1 X86.559 Y132.865 E1.30024
G1 X85.069 Y132.651 E0.04720
G1 X83.731 Y132.212 E0.04417
G1 X82.421 Y131.515 E0.04652
G1 X81.199 Y130.543 E0.04893
G1 X80.127 Y129.289 E0.05175
G1 X79.280 Y127.751 E0.05506
G1 X78.787 Y126.150 E0.05251
G1 X78.623 Y124.535 E0.05090
G1 X78.638 Y90.003 E1.08271
G1 X78.868 Y88.490 E0.04798
G1 X79.347 Y87.094 E0.04628
G1 X80.017 Y85.874 E0.04363
G1 X80.919 Y84.746 E0.04529
G1 F6240.000
G1 X81.831 Y83.945 E-1.33000
G1 E-0.07000 F7200.00000
G1 Z0.400 F7800.000
G1 X98.099 Y116.023
G1 Z0.200
G1 E1.40000 F7200.00000
G1 F1800.000
G1 X98.682 Y115.814 E0.01941
G1 X99.293 Y115.717 E0.01941
G1 X99.912 Y115.736 E0.01941
G1 X100.517 Y115.871 E0.01941
G1 X101.076 Y116.113 E0.01912
G1 X101.433 Y116.340 E0.01324
G1 X101.758 Y116.609 E0.01324
G1 X102.161 Y117.066 E0.01912
G1 X102.477 Y117.599 E0.01942
G1 X102.686 Y118.182 E0.01942
G1 X102.783 Y118.793 E0.01941
G1 X102.764 Y119.412 E0.01941
G1 X102.629 Y120.017 E0.01941
G1 X102.387 Y120.576 E0.01912
G1 X102.160 Y120.933 E0.01324
G1 X101.891 Y121.258 E0.01324
G1 X101.434 Y121.661 E0.01912
G1 X100.901 Y121.977 E0.01942
G1 X100.318 Y122.186 E0.01941
G1 X99.707 Y122.283 E0.01941
G1 X99.088 Y122.264 E0.01942
G1 X98.483 Y122.129 E0.01941
G1 X97.915 Y121.883 E0.01941
G1 X97.403 Y121.535 E0.01941
G1 X96.965 Y121.097 E0.01941
G1 X96.617 Y120.585 E0.01942
G1 X96.375 Y120.025 E0.01912
G1 X96.270 Y119.616 E0.01323
G1 X96.217 Y119.197 E0.01324
G1 X96.236 Y118.588 E0.01913
G1 X96.371 Y117.983 E0.01942
G1 X96.613 Y117.424 E0.01912
G1 X96.840 Y117.067 E0.01324
G1 X97.109 Y116.742 E0.01324
G1 X97.566 Y116.338 E0.01912
G1 X98.048 Y116.054 E0.01753
G1 X98.240 Y116.378 F7800.000
G1 F1800.000
G1 X98.776 Y116.180 E0.01793
G1 X99.317 Y116.095 E0.01718
G1 X99.865 Y116.112 E0.01718
G1 X100.400 Y116.231 E0.01718
G1 X100.899 Y116.448 E0.01708
G1 X101.211 Y116.645 E0.01156
G1 X101.495 Y116.880 E0.01156
G1 X101.855 Y117.289 E0.01707
G1 X102.134 Y117.761 E0.01718
G1 X102.320 Y118.276 E0.01718
G1 X102.405 Y118.817 E0.01718
G1 X102.388 Y119.365 E0.01718
G1 X102.269 Y119.900 E0.01718
G1 X102.052 Y120.399 E0.01708
G1 X101.855 Y120.711 E0.01157
G1 X101.620 Y120.995 E0.01157
G1 X101.211 Y121.355 E0.01707
G1 X100.739 Y121.634 E0.01718
G1 X100.224 Y121.820 E0.01718
G1 X99.683 Y121.905 E0.01718
G1 X99.135 Y121.888 E0.01718
G1 X98.600 Y121.769 E0.01718
G1 X98.098 Y121.551 E0.01718
G1 X97.644 Y121.243 E0.01718
G1 X97.257 Y120.856 E0.01718
G1 X96.949 Y120.402 E0.01718
G1 X96.733 Y119.903 E0.01708
G1 X96.641 Y119.545 E0.01156
G1 X96.595 Y119.179 E0.01156
G1 X96.612 Y118.635 E0.01708
G1 X96.731 Y118.100 E0.01718
G1 X96.948 Y117.601 E0.01707
G1 X97.145 Y117.289 E0.01157
G1 X97.380 Y117.005 E0.01156
G1 X97.789 Y116.645 E0.01708
G1 X98.188 Y116.409 E0.01453
G1 X98.271 Y115.980 F7800.000
G1 F6240.000
G1 X98.776 Y116.180 E-0.69163
G1 X99.317 Y116.095 E-0.60059
G1 X99.352 Y116.096 E-0.03778
G1 E-0.07000 F7200.00000
G1 Z0.400 F7800.000
G1 X88.213 Y100.713
G1 Z0.200
G1 E1.40000 F7200.00000
G1 F1800.000
G1 X126.787 Y100.713 E1.20947
G1 X126.787 Y114.287 E0.42561
G1 X88.213 Y114.287 E1.20947
G1 X88.213 Y100.773 E0.42373
G1 X88.590 Y101.090 F7800.000
G1 F1800.000
G1 X126.410 Y101.090 E1.18582
G1 X126.410 Y113.910 E0.40196
G1 X88.590 Y113.910 E1.18582
G1 X88.590 Y101.150 E0.40008
G1 X88.429 Y100.724 F7800.000
G1 F6240.000
G1 X89.803 Y101.148 E-1.33000
G1 E-0.07000 F7200.00000
G1 Z0.400 F7800.000
G1 X96.523 Y97.401
G1 Z0.200
G1 E1.40000 F7200.00000
G1 F1800.000
G1 X96.314 Y96.818 E0.01941
G1 X96.217 Y96.207 E0.01941
G1 X96.236 Y95.597 E0.01913
G1 X96.315 Y95.182 E0.01324
G1 X96.445 Y94.781 E0.01323
G1 X96.722 Y94.237 E0.01913
G1 X97.102 Y93.748 E0.01942
G1 X97.566 Y93.339 E0.01941
G1 X98.099 Y93.023 E0.01942
G1 X98.682 Y92.814 E0.01941
G1 X99.293 Y92.717 E0.01941
G1 X99.912 Y92.736 E0.01942
G1 X100.517 Y92.871 E0.01941
G1 X101.085 Y93.117 E0.01941
G1 X101.597 Y93.465 E0.01941
G1 X102.035 Y93.903 E0.01941
G1 X102.383 Y94.415 E0.01942
G1 X102.625 Y94.975 E0.01912
G1 X102.730 Y95.384 E0.01324
G1 X102.783 Y95.803 E0.01324
G1 X102.764 Y96.412 E0.01912
G1 X102.631 Y97.008 E0.01913
G1 X102.475 Y97.400 E0.01324
G1 X102.272 Y97.770 E0.01324
G1 X101.898 Y98.252 E0.01912
G1 X101.434 Y98.662 E0.01941
G1 X100.901 Y98.977 E0.01941
G1 X100.318 Y99.186 E0.01941
G1 X99.707 Y99.283 E0.01941
G1 X99.088 Y99.264 E0.01941
G1 X98.483 Y99.129 E0.01941
G1 X97.924 Y98.887 E0.01912
G1 X97.567 Y98.660 E0.01324
G1 X97.242 Y98.391 E0.01324
G1 X96.839 Y97.934 E0.01912
G1 X96.554 Y97.452 E0.01754
G1 X96.878 Y97.260 F7800.000
G1 F1800.000
G1 X96.680 Y96.724 E0.01793
G1 X96.595 Y96.183 E0.01718
G1 X96.612 Y95.638 E0.01708
G1 X96.681 Y95.276 E0.01156
G1 X96.795 Y94.925 E0.01156
G1 X97.042 Y94.440 E0.01708
G1 X97.378 Y94.007 E0.01718
G1 X97.789 Y93.645 E0.01718
G1 X98.261 Y93.366 E0.01718
G1 X98.776 Y93.180 E0.01718
G1 X99.317 Y93.095 E0.01718
G1 X99.865 Y93.112 E0.01718
G1 X100.400 Y93.231 E0.01718
G1 X100.902 Y93.449 E0.01718
G1 X101.356 Y93.757 E0.01718
G1 X101.743 Y94.144 E0.01718
G1 X102.051 Y94.598 E0.01718
G1 X102.267 Y95.097 E0.01708
G1 X102.359 Y95.455 E0.01156
G1 X102.405 Y95.821 E0.01156
G1 X102.388 Y96.365 E0.01707
G1 X102.269 Y96.896 E0.01708
G1 X102.134 Y97.239 E0.01156
G1 X101.956 Y97.562 E0.01156
G1 X101.622 Y97.993 E0.01707
G1 X101.211 Y98.355 E0.01718
G1 X100.739 Y98.634 E0.01718
G1 X100.224 Y98.820 E0.01718
G1 X99.683 Y98.905 E0.01718
G1 X99.135 Y98.888 E0.01718
G1 X98.600 Y98.769 E0.01718
G1 X98.101 Y98.552 E0.01708
G1 X97.789 Y98.355 E0.01156
G1 X97.505 Y98.120 E0.01156
G1 X97.145 Y97.711 E0.01707
G1 X96.909 Y97.312 E0.01454
G1 X96.480 Y97.229 F7800.000
G1 F6240.000
G1 X96.680 Y96.724 E-0.69153
G1 X96.595 Y96.183 E-0.60055
G1 X96.596 Y96.148 E-0.03792
G1 E-0.07000 F7200.00000
G1 Z0.400 F7800.000
G1 X119.217 Y96.207
G1 Z0.200
G1 E1.40000 F7200.00000
G1 F1800.000
G1 X119.236 Y95.588 E0.01941
G1 X119.371 Y94.983 E0.01941
G1 X119.617 Y94.415 E0.01942
G1 X119.965 Y93.903 E0.01942
G1 X120.396 Y93.472 E0.01912
G1 X120.738 Y93.224 E0.01323
G1 X121.108 Y93.020 E0.01324
G1 X121.682 Y92.814 E0.01912
G1 X122.293 Y92.717 E0.01941
G1 X122.912 Y92.736 E0.01942
G1 X123.517 Y92.871 E0.01941
G1 X124.085 Y93.117 E0.01941
G1 X124.597 Y93.465 E0.01942
G1 X125.035 Y93.903 E0.01941
G1 X125.383 Y94.415 E0.01942
G1 X125.625 Y94.975 E0.01912
G1 X125.730 Y95.384 E0.01323
G1 X125.783 Y95.803 E0.01324
G1 X125.764 Y96.412 E0.01913
G1 X125.629 Y97.017 E0.01941
G1 X125.383 Y97.585 E0.01941
G1 X125.035 Y98.097 E0.01941
G1 X124.597 Y98.535 E0.01941
G1 X124.085 Y98.883 E0.01942
G1 X123.525 Y99.125 E0.01912
G1 X123.116 Y99.230 E0.01324
G1 X122.697 Y99.283 E0.01324
G1 X122.088 Y99.264 E0.01912
G1 X121.492 Y99.131 E0.01913
G1 X121.100 Y98.975 E0.01324
G1 X120.730 Y98.772 E0.01324
G1 X120.248 Y98.398 E0.01912
G1 X119.838 Y97.934 E0.01941
G1 X119.523 Y97.401 E0.01942
G1 X119.314 Y96.818 E0.01942
G1 X119.226 Y96.266 E0.01753
G1 X119.598 Y96.207 F7800.000
G1 F1800.000
G1 X119.612 Y95.635 E0.01793
G1 X119.731 Y95.100 E0.01718
G1 X119.949 Y94.598 E0.01718
G1 X120.257 Y94.144 E0.01718
G1 X120.642 Y93.759 E0.01707
G1 X120.940 Y93.543 E0.01156
G1 X121.264 Y93.365 E0.01157
G1 X121.776 Y93.180 E0.01707
G1 X122.317 Y93.095 E0.01718
G1 X122.865 Y93.112 E0.01718
G1 X123.399 Y93.231 E0.01718
G1 X123.902 Y93.449 E0.01718
G1 X124.356 Y93.757 E0.01718
G1 X124.743 Y94.144 E0.01718
G1 X125.051 Y94.598 E0.01718
G1 X125.267 Y95.097 E0.01708
G1 X125.359 Y95.455 E0.01156
G1 X125.405 Y95.821 E0.01156
G1 X125.388 Y96.365 E0.01708
G1 X125.269 Y96.900 E0.01718
G1 X125.051 Y97.402 E0.01718
G1 X124.743 Y97.856 E0.01718
G1 X124.356 Y98.243 E0.01718
G1 X123.902 Y98.551 E0.01718
G1 X123.403 Y98.767 E0.01708
G1 X123.045 Y98.859 E0.01156
G1 X122.679 Y98.905 E0.01156
G1 X122.135 Y98.888 E0.01707
G1 X121.604 Y98.769 E0.01708
G1 X121.261 Y98.634 E0.01156
G1 X120.938 Y98.456 E0.01156
G1 X120.507 Y98.122 E0.01708
G1 X120.145 Y97.711 E0.01718
G1 X119.866 Y97.239 E0.01718
G1 X119.680 Y96.724 E0.01718
G1 X119.608 Y96.266 E0.01453
G1 X119.239 Y96.031 F7800.000
G1 F6240.000
G1 X119.612 Y95.635 E-0.69165
G1 X119.731 Y95.100 E-0.60057
G1 X119.745 Y95.069 E-0.03778
G1 E-0.07000 F7200.00000
G1 Z0.400 F7800.000
G1 X122.293 Y115.717
G1 Z0.200
G1 E1.40000 F7200.00000
G1 F1800.000
G1 X122.912 Y115.736 E0.01941
G1 X123.517 Y115.871 E0.01941
G1 X124.076 Y116.113 E0.01912
G1 X124.433 Y116.340 E0.01324
G1 X124.758 Y116.609 E0.01324
G1 X125.161 Y117.066 E0.01912
G1 X125.477 Y117.599 E0.01942
G1 X125.686 Y118.182 E0.01941
G1 X125.783 Y118.793 E0.01941
G1 X125.764 Y119.412 E0.01942
G1 X125.629 Y120.017 E0.01941
G1 X125.383 Y120.585 E0.01941
G1 X125.035 Y121.097 E0.01942
G1 X124.597 Y121.535 E0.01941
G1 X124.085 Y121.883 E0.01942
G1 X123.525 Y122.125 E0.01912
G1 X123.116 Y122.230 E0.01323
G1 X122.697 Y122.283 E0.01324
G1 X122.088 Y122.264 E0.01913
G1 X121.483 Y122.129 E0.01942
G1 X120.915 Y121.883 E0.01941
G1 X120.403 Y121.535 E0.01941
G1 X119.965 Y121.097 E0.01941
G1 X119.617 Y120.585 E0.01942
G1 X119.375 Y120.025 E0.01913
G1 X119.270 Y119.616 E0.01324
G1 X119.217 Y119.197 E0.01323
G1 X119.236 Y118.588 E0.01912
G1 X119.371 Y117.983 E0.01942
G1 X119.617 Y117.415 E0.01941
G1 X119.960 Y116.911 E0.01912
G1 X120.249 Y116.603 E0.01324
G1 X120.574 Y116.334 E0.01324
G1 X121.099 Y116.023 E0.01912
G1 X121.682 Y115.814 E0.01942
G1 X122.234 Y115.726 E0.01753
G1 X122.293 Y116.099 F7800.000
G1 F1800.000
G1 X122.865 Y116.112 E0.01793
G1 X123.400 Y116.231 E0.01718
G1 X123.899 Y116.448 E0.01708
G1 X124.211 Y116.645 E0.01157
G1 X124.495 Y116.880 E0.01157
G1 X124.855 Y117.289 E0.01707
G1 X125.134 Y117.761 E0.01718
G1 X125.320 Y118.276 E0.01718
G1 X125.405 Y118.817 E0.01718
G1 X125.388 Y119.365 E0.01718
G1 X125.269 Y119.899 E0.01718
G1 X125.051 Y120.402 E0.01718
G1 X124.743 Y120.856 E0.01718
G1 X124.356 Y121.243 E0.01718
G1 X123.902 Y121.551 E0.01718
G1 X123.403 Y121.767 E0.01708
G1 X123.045 Y121.859 E0.01156
G1 X122.679 Y121.905 E0.01156
G1 X122.135 Y121.888 E0.01708
G1 X121.600 Y121.769 E0.01718
G1 X121.098 Y121.551 E0.01718
G1 X120.644 Y121.243 E0.01718
G1 X120.257 Y120.856 E0.01718
G1 X119.949 Y120.402 E0.01718
G1 X119.733 Y119.903 E0.01708
G1 X119.641 Y119.545 E0.01157
G1 X119.595 Y119.179 E0.01156
G1 X119.612 Y118.635 E0.01708
G1 X119.731 Y118.100 E0.01718
G1 X119.949 Y117.598 E0.01718
G1 X120.255 Y117.147 E0.01708
G1 X120.508 Y116.878 E0.01156
G1 X120.792 Y116.643 E0.01156
G1 X121.261 Y116.366 E0.01707
G1 X121.776 Y116.180 E0.01718
G1 X122.234 Y116.108 E0.01453
G1 X122.469 Y115.739 F7800.000
G1 F6240.000
G1 X122.865 Y116.112 E-0.69162
G1 X123.400 Y116.231 E-0.60057
G1 X123.431 Y116.245 E-0.03781
G1 E-0.07000 F7200.00000
G1 Z0.400 F7800.000
G1 X129.152 Y124.874
G1 Z0.200
G1 E1.40000 F7200.00000
G1 F1800.000
G1 X129.100 Y125.007 E0.00448
G1 X128.974 Y125.219 E0.00772
G1 X128.779 Y125.427 E0.00895
G1 X128.583 Y125.560 E0.00743
G1 X128.374 Y125.651 E0.00714
G1 X128.143 Y125.703 E0.00743
G1 X127.978 Y125.713 E0.00516
G1 X87.031 Y125.713 E1.28389
G1 X86.764 Y125.688 E0.00841
G1 X86.626 Y125.652 E0.00447
G1 X86.493 Y125.600 E0.00448
G1 X86.281 Y125.474 E0.00772
G1 X86.073 Y125.279 E0.00895
G1 X85.940 Y125.083 E0.00743
G1 X85.849 Y124.874 E0.00714
G1 X85.797 Y124.643 E0.00743
G1 X85.787 Y124.478 E0.00516
G1 X85.787 Y90.531 E1.06441
G1 X85.812 Y90.264 E0.00841
G1 X85.848 Y90.126 E0.00447
G1 X85.900 Y89.993 E0.00448
G1 X86.026 Y89.781 E0.00772
G1 X86.221 Y89.573 E0.00895
G1 X86.417 Y89.440 E0.00743
G1 X86.626 Y89.349 E0.00714
G1 X86.857 Y89.297 E0.00743
G1 X87.022 Y89.287 E0.00516
G1 X128.067 Y89.291 E1.28695
G1 X128.301 Y89.328 E0.00743
G1 X128.515 Y89.405 E0.00714
G1 X128.711 Y89.521 E0.00714
G1 X128.882 Y89.672 E0.00714
G1 X129.022 Y89.852 E0.00714
G1 X129.125 Y90.054 E0.00714
G1 X129.189 Y90.273 E0.00713
G1 X129.213 Y90.531 E0.00812
G1 X129.213 Y124.469 E1.06412
G1 X129.167 Y124.816 E0.01097
G1 X129.512 Y124.991 F7800.000
G1 F1800.000
G1 X129.439 Y125.174 E0.00616
G1 X129.284 Y125.437 E0.00958
G1 X129.016 Y125.722 E0.01229
G1 X128.766 Y125.892 E0.00948
G1 X128.491 Y126.011 E0.00938
G1 X128.196 Y126.077 E0.00948
G1 X127.990 Y126.090 E0.00646
G1 X87.013 Y126.090 E1.28481
G1 X86.699 Y126.061 E0.00989
G1 X86.509 Y126.012 E0.00615
G1 X86.326 Y125.939 E0.00616
G1 X86.063 Y125.784 E0.00958
G1 X85.778 Y125.516 E0.01229
G1 X85.608 Y125.266 E0.00948
G1 X85.489 Y124.991 E0.00938
G1 X85.423 Y124.696 E0.00948
G1 X85.410 Y124.490 E0.00646
G1 X85.410 Y90.513 E1.06533
G1 X85.439 Y90.199 E0.00989
G1 X85.488 Y90.009 E0.00615
G1 X85.561 Y89.826 E0.00616
G1 X85.716 Y89.563 E0.00958
G1 X85.984 Y89.278 E0.01229
G1 X86.234 Y89.108 E0.00948
G1 X86.509 Y88.989 E0.00938
G1 X86.804 Y88.923 E0.00948
G1 X87.010 Y88.910 E0.00646
G1 X128.097 Y88.914 E1.28825
G1 X128.395 Y88.961 E0.00948
G1 X128.677 Y89.062 E0.00938
G1 X128.934 Y89.214 E0.00938
G1 X129.158 Y89.412 E0.00938
G1 X129.342 Y89.649 E0.00938
G1 X129.477 Y89.915 E0.00938
G1 X129.561 Y90.202 E0.00937
G1 X129.590 Y90.513 E0.00979
G1 X129.590 Y124.487 E1.06523
G1 X129.561 Y124.801 E0.00989
G1 X129.527 Y124.933 E0.00427
G1 X129.320 Y125.034 F7800.000
G1 F6240.000
G1 X129.439 Y125.174 E-0.28058
G1 X129.284 Y125.437 E-0.33506
G1 X129.016 Y125.722 E-0.42957
G1 X128.801 Y125.868 E-0.28480
G1 E-0.07000 F7200.00000
G1 Z0.400 F7800.000
G1 X129.100 Y120.801
G1 Z0.200
G1 E1.40000 F7200.00000
G1 F1800.000
G1 X125.671 Y117.372 E0.15261
G1 X125.734 Y117.478 E0.00388
G1 X125.961 Y118.111 E0.02117
G1 X125.978 Y118.214 E0.00328
G1 X128.930 Y121.167 E0.13140
G1 X128.930 Y121.702 E0.01685
G1 X126.065 Y118.837 E0.12752
G1 X126.049 Y119.356 E0.01634
G1 X128.930 Y122.237 E0.12825
G1 X128.930 Y122.772 E0.01685
G1 X125.965 Y119.808 E0.13196
G1 X125.899 Y120.104 E0.00957
G1 X125.847 Y120.224 E0.00412
G1 X128.930 Y123.308 E0.13723
G1 X128.930 Y123.843 E0.01685
G1 X125.685 Y120.598 E0.14442
G1 X125.632 Y120.722 E0.00424
G1 X125.487 Y120.935 E0.00812
G1 X128.930 Y124.378 E0.15325
G1 X128.909 Y124.679 E0.00948
G1 X128.857 Y124.840 E0.00534
G1 X125.270 Y121.254 E0.15962
G1 X125.007 Y121.525 E0.01191
G1 X128.642 Y125.160 E0.16179
G1 X128.446 Y125.312 E0.00778
G1 X128.315 Y125.369 E0.00451
G1 X124.731 Y121.785 E0.15948
G1 X124.413 Y122.002 E0.01213
G1 X127.841 Y125.430 E0.15258
G1 X127.306 Y125.430 E0.01685
