; generated by Slic3r 1.3.0 on 2020-12-26 at 19:47:06

; external perimeters extrusion width = 0.45mm (2.04mm^3/s)
; perimeters extrusion width = 0.45mm (3.66mm^3/s)
; infill extrusion width = 0.45mm (6.51mm^3/s)
; solid infill extrusion width = 0.45mm (6.51mm^3/s)
; top infill extrusion width = 0.45mm (3.26mm^3/s)

M107
M83  ; extruder relative mode
; G28 ; home all 
G0 Z25 ; move z 25 mm up
M104 S220 ; set extruder temp
M140 S60 ; set bed temp
M190 S60 ; wait for bed temp
M109 S220 ; wait for extruder temp
G28 ; home all
G29 ; mesh bed leveling
G92 E0.0
G1 Y10  F1000.0 ; intro line
G1 X60.0 E9.0  F1000.0 ; intro line
G1 Z0  F1000.0 ; intro line
G1 X100.0 E12.5  F1000.0 ; intro line
G92 E0.0



; Filament gcode

G21 ; set units to millimeters
G90 ; use absolute coordinates
M83 ; use relative distances for extrusion
;BEFORE_LAYER_CHANGE
G92 E0.0
;0.2
G1 E-0.50000 F7200.00000
G1 Z0.600 F7800.000
G1 X87.858 Y96.193 F7800.000
G1 Z0.200 F7800.000
G1 E0.50000 F7200.00000
G1 F1800
G1 X88.904 Y95.317 E0.04492
G1 X89.844 Y95.123 E0.03159
G1 X125.156 Y95.123 E1.16254
G1 X126.463 Y95.515 E0.04492
G1 X127.339 Y96.560 E0.04492
G1 X127.533 Y97.500 E0.03159
G1 X127.533 Y117.500 E0.65844
G1 X127.142 Y118.807 E0.04492
G1 X126.096 Y119.683 E0.04492
G1 X125.156 Y119.877 E0.03159
G1 X89.844 Y119.877 E1.16254
G1 X88.537 Y119.485 E0.04492
G1 X87.661 Y118.440 E0.04492
G1 X87.467 Y117.500 E0.03159
G1 X87.467 Y97.500 E0.65844
G1 X87.841 Y96.250 E0.04294
G1 F6240
G1 X88.167 Y95.964 E-0.47500
G1 E-0.02500 F7200.00000
G1 Z0.800 F7800.000
G1 X116.087 Y111.087 F7800.000
G1 Z0.200 F7800.000
G1 E0.50000 F7200.00000
G1 F1800
G1 X99.913 Y111.087 E0.53249
G1 X99.913 Y103.913 E0.23619
G1 X116.087 Y103.913 E0.53249
G1 X116.087 Y111.027 E0.23421
G1 X115.710 Y110.710 F7800.000
G1 F1800
G1 X100.290 Y110.710 E0.50766
G1 X100.290 Y104.290 E0.21136
G1 X115.710 Y104.290 E0.50766
G1 X115.710 Y110.650 E0.20938
G1 X115.863 Y111.080 F7800.000
G1 F6240
G1 X115.277 Y110.652 E-0.47500
G1 E-0.02500 F7200.00000
G1 Z0.800 F7800.000
G1 X116.589 Y112.750 F7800.000
G1 Z0.200 F7800.000
G1 E0.50000 F7200.00000
G1 F1800
G1 X118.544 Y116.137 E0.12876
G1 X122.456 Y116.137 E0.12876
G1 X122.917 Y115.337 E0.03041
G1 X123.679 Y115.337 E0.02507
G1 X123.679 Y116.913 E0.05188
G1 X91.321 Y116.913 E1.06528
G1 X91.321 Y113.087 E0.12595
G1 X99.087 Y113.087 E0.25567
G1 X99.087 Y101.913 E0.36788
G1 X91.321 Y101.913 E0.25567
G1 X91.321 Y98.087 E0.12595
G1 X123.679 Y98.087 E1.06528
G1 X123.679 Y99.663 E0.05188
G1 X122.917 Y99.663 E0.02507
G1 X122.456 Y98.863 E0.03041
G1 X118.544 Y98.863 E0.12876
G1 X116.589 Y102.250 E0.12876
G1 X118.544 Y105.637 E0.12876
G1 X122.456 Y105.637 E0.12876
G1 X122.917 Y104.837 E0.03041
G1 X123.679 Y104.837 E0.02507
G1 X123.679 Y110.163 E0.17534
G1 X122.917 Y110.163 E0.02507
G1 X122.456 Y109.363 E0.03041
G1 X118.544 Y109.363 E0.12876
G1 X116.619 Y112.698 E0.12679
G1 X117.024 Y112.750 F7800.000
G1 F1800
G1 X118.762 Y115.760 E0.11443
G1 X122.238 Y115.760 E0.11443
G1 X122.700 Y114.960 E0.03041
G1 X124.056 Y114.960 E0.04465
G1 X124.056 Y117.290 E0.07671
G1 X90.944 Y117.290 E1.09010
G1 X90.944 Y112.710 E0.15078
G1 X98.710 Y112.710 E0.25567
G1 X98.710 Y102.290 E0.34305
G1 X90.944 Y102.290 E0.25567
G1 X90.944 Y97.710 E0.15078
G1 X124.056 Y97.710 E1.09010
G1 X124.056 Y100.040 E0.07671
G1 X122.700 Y100.040 E0.04465
G1 X122.238 Y99.240 E0.03041
G1 X118.762 Y99.240 E0.11443
G1 X117.024 Y102.250 E0.11443
G1 X118.762 Y105.260 E0.11443
G1 X122.238 Y105.260 E0.11443
G1 X122.700 Y104.460 E0.03041
G1 X124.056 Y104.460 E0.04465
G1 X124.056 Y110.540 E0.20017
G1 X122.700 Y110.540 E0.04465
G1 X122.238 Y109.740 E0.03041
G1 X118.762 Y109.740 E0.11443
G1 X117.054 Y112.698 E0.11245
G1 X116.678 Y112.950 F7800.000
G1 F6240
G1 X117.265 Y113.076 E-0.47500
G1 E-0.02500 F7200.00000
G1 Z0.800 F7800.000
G1 X116.112 Y112.750 F7800.000
G1 X115.390 Y112.333 F7800.000
G1 X116.655 Y111.500 F7800.000
G1 X117.468 Y108.466 F7800.000
G1 X117.985 Y107.500 F7800.000
G1 X121.816 Y107.500 F7800.000
G1 X122.959 Y108.797 F7800.000
G1 X123.196 Y109.680 F7800.000
G1 X123.058 Y109.835 F7800.000
G1 Z0.200 F7800.000
G1 E0.50000 F7200.00000
G1 F1800
G1 X123.368 Y109.525 E0.01445
G1 X123.368 Y108.991 E0.01761
G1 X122.863 Y109.497 E0.02357
G1 X122.667 Y109.158 E0.01289
G1 X123.368 Y108.457 E0.03269
G1 X123.368 Y107.923 E0.01761
G1 X122.239 Y109.053 E0.05268
G1 X121.705 Y109.053 E0.01761
G1 X123.368 Y107.389 E0.07759
G1 X123.368 Y106.855 E0.01761
G1 X121.170 Y109.053 E0.10250
G1 X120.636 Y109.053 E0.01761
G1 X123.368 Y106.320 E0.12741
G1 X123.368 Y105.786 E0.01761
G1 X120.102 Y109.053 E0.15232
G1 X119.568 Y109.053 E0.01761
G1 X122.673 Y105.947 E0.14480
G1 X122.139 Y105.947 E0.01761
G1 X119.034 Y109.053 E0.14480
G1 X118.500 Y109.053 E0.01761
G1 X121.605 Y105.947 E0.14480
G1 X121.071 Y105.947 E0.01761
G1 F6240
G1 X121.504 Y105.947 E-0.47500
G1 E-0.02500 F7200.00000
G1 Z0.800 F7800.000
G1 X122.698 Y105.923 F7800.000
G1 Z0.200 F7800.000
G1 E0.50000 F7200.00000
G1 F1800
G1 X123.368 Y105.252 E0.03127
G1 F6240
G1 X123.062 Y105.559 E-0.47500
G1 E-0.02500 F7200.00000
G1 Z0.800 F7800.000
G1 X123.266 Y105.250 F7800.000
G1 X123.156 Y99.250 F7800.000
G1 X122.992 Y99.219 F7800.000
G1 Z0.200 F7800.000
G1 E0.50000 F7200.00000
G1 F1800
G1 X123.368 Y98.843 E0.01757
G1 X123.368 Y98.397 E0.01468
G1 X123.279 Y98.397 E0.00294
G1 X122.796 Y98.881 E0.02254
G1 X122.607 Y98.553 E0.01250
G1 X122.590 Y98.553 E0.00054
G1 X122.745 Y98.397 E0.00723
G1 X122.211 Y98.397 E0.01761
G1 X122.056 Y98.553 E0.00723
G1 X121.522 Y98.553 E0.01761
G1 X121.677 Y98.397 E0.00723
G1 X121.143 Y98.397 E0.01761
G1 X120.988 Y98.553 E0.00723
G1 X120.454 Y98.553 E0.01761
G1 X120.609 Y98.397 E0.00723
G1 X120.074 Y98.397 E0.01761
G1 X119.919 Y98.553 E0.00723
G1 X119.385 Y98.553 E0.01761
G1 X119.540 Y98.397 E0.00723
G1 X119.006 Y98.397 E0.01761
G1 X118.851 Y98.553 E0.00723
G1 X118.317 Y98.553 E0.01761
G1 X118.472 Y98.397 E0.00723
G1 X117.938 Y98.397 E0.01761
G1 F6240
G1 X118.371 Y98.397 E-0.47500
G1 E-0.02500 F7200.00000
G1 Z0.800 F7800.000
G1 X118.277 Y98.500 F7800.000
G1 X123.235 Y116.603 F7800.000
G1 Z0.200 F7800.000
G1 E0.50000 F7200.00000
G1 F1800
G1 X123.368 Y116.469 E0.00622
G1 X123.368 Y115.935 E0.01761
G1 X122.701 Y116.603 E0.03113
G1 X122.167 Y116.603 E0.01761
G1 X122.322 Y116.447 E0.00723
G1 X121.788 Y116.447 E0.01761
G1 X121.633 Y116.603 E0.00723
G1 X121.098 Y116.603 E0.01761
G1 X121.253 Y116.447 E0.00723
G1 X120.719 Y116.447 E0.01761
G1 X120.564 Y116.603 E0.00723
G1 X120.030 Y116.603 E0.01761
G1 X120.185 Y116.447 E0.00723
G1 X119.651 Y116.447 E0.01761
G1 X119.496 Y116.603 E0.00723
G1 X118.962 Y116.603 E0.01761
G1 X119.117 Y116.447 E0.00723
G1 X118.583 Y116.447 E0.01761
G1 X118.428 Y116.603 E0.00723
G1 X117.894 Y116.603 E0.01761
G1 X118.267 Y116.229 E0.01742
G1 X118.072 Y115.890 E0.01289
G1 X117.359 Y116.603 E0.03322
G1 X116.825 Y116.603 E0.01761
G1 X117.876 Y115.552 E0.04901
G1 X117.681 Y115.213 E0.01289
G1 X116.291 Y116.603 E0.06480
G1 X115.757 Y116.603 E0.01761
G1 X117.485 Y114.874 E0.08059
G1 X117.290 Y114.536 E0.01289
G1 X115.223 Y116.603 E0.09638
G1 X114.689 Y116.603 E0.01761
G1 X117.094 Y114.197 E0.11217
G1 X116.899 Y113.858 E0.01289
G1 X114.155 Y116.603 E0.12797
G1 X113.620 Y116.603 E0.01761
G1 X116.703 Y113.520 E0.14376
G1 X116.508 Y113.181 E0.01289
G1 X113.086 Y116.603 E0.15955
G1 X112.552 Y116.603 E0.01761
G1 X116.312 Y112.843 E0.17534
G1 X116.220 Y112.683 E0.00606
G1 X116.607 Y112.014 E0.02549
G1 X112.018 Y116.603 E0.21399
G1 X111.484 Y116.603 E0.01761
G1 X117.336 Y110.750 E0.27292
G1 X118.066 Y109.486 E0.04812
G1 X116.397 Y111.155 E0.07781
G1 X116.397 Y110.621 E0.01761
G1 X121.071 Y105.947 E0.21793
G1 X120.537 Y105.947 E0.01761
G1 X116.397 Y110.087 E0.19302
G1 X116.397 Y109.552 E0.01761
G1 X120.002 Y105.947 E0.16811
G1 X119.468 Y105.947 E0.01761
G1 X116.397 Y109.018 E0.14320
G1 X116.397 Y108.484 E0.01761
G1 X118.934 Y105.947 E0.11830
G1 X118.400 Y105.947 E0.01761
G1 X116.397 Y107.950 E0.09339
G1 X116.397 Y107.416 E0.01761
G1 X118.200 Y105.613 E0.08407
G1 X118.005 Y105.274 E0.01289
G1 X116.397 Y106.882 E0.07496
G1 X116.397 Y106.348 E0.01761
G1 X117.809 Y104.936 E0.06584
G1 X117.614 Y104.597 E0.01289
G1 X116.397 Y105.813 E0.05672
G1 X116.397 Y105.279 E0.01761
G1 X117.418 Y104.259 E0.04760
G1 X117.223 Y103.920 E0.01289
G1 X116.397 Y104.745 E0.03849
G1 X116.397 Y104.211 E0.01761
G1 X117.027 Y103.581 E0.02937
G1 X116.832 Y103.243 E0.01289
G1 X116.397 Y103.677 E0.02025
G1 X116.397 Y103.603 E0.00245
G1 X115.938 Y103.603 E0.01516
G1 X116.636 Y102.904 E0.03258
G1 X116.441 Y102.565 E0.01289
G1 X115.404 Y103.603 E0.04837
G1 X114.869 Y103.603 E0.01761
G1 X116.245 Y102.227 E0.06416
G1 X116.220 Y102.183 E0.00165
G1 X116.856 Y101.082 E0.04195
G1 X114.335 Y103.603 E0.11756
G1 X113.801 Y103.603 E0.01761
G1 X117.586 Y99.818 E0.17650
G1 X118.316 Y98.554 E0.04812
G1 X113.267 Y103.603 E0.23544
G1 X112.733 Y103.603 E0.01761
G1 X117.938 Y98.397 E0.24273
G1 X117.404 Y98.397 E0.01761
G1 X112.199 Y103.603 E0.24273
G1 X111.665 Y103.603 E0.01761
G1 X116.870 Y98.397 E0.24273
G1 X116.336 Y98.397 E0.01761
G1 X111.130 Y103.603 E0.24273
G1 X110.596 Y103.603 E0.01761
G1 X115.801 Y98.397 E0.24273
G1 X115.267 Y98.397 E0.01761
G1 X110.062 Y103.603 E0.24273
G1 X109.528 Y103.603 E0.01761
G1 X114.733 Y98.397 E0.24273
G1 X114.199 Y98.397 E0.01761
G1 X108.994 Y103.603 E0.24273
G1 X108.460 Y103.603 E0.01761
G1 X113.665 Y98.397 E0.24273
G1 X113.131 Y98.397 E0.01761
G1 X107.926 Y103.603 E0.24273
G1 X107.392 Y103.603 E0.01761
G1 X112.597 Y98.397 E0.24273
G1 X112.062 Y98.397 E0.01761
G1 X106.857 Y103.603 E0.24273
G1 X106.323 Y103.603 E0.01761
G1 X111.528 Y98.397 E0.24273
G1 X110.994 Y98.397 E0.01761
G1 X105.789 Y103.603 E0.24273
G1 X105.255 Y103.603 E0.01761
G1 X110.460 Y98.397 E0.24273
G1 X109.926 Y98.397 E0.01761
G1 X104.721 Y103.603 E0.24273
G1 X104.187 Y103.603 E0.01761
G1 X109.392 Y98.397 E0.24273
G1 X108.858 Y98.397 E0.01761
G1 X103.653 Y103.603 E0.24273
G1 X103.118 Y103.603 E0.01761
G1 X108.323 Y98.397 E0.24273
G1 X107.789 Y98.397 E0.01761
G1 X102.584 Y103.603 E0.24273
G1 X102.050 Y103.603 E0.01761
G1 X107.255 Y98.397 E0.24273
G1 X106.721 Y98.397 E0.01761
G1 X101.516 Y103.603 E0.24273
G1 X100.982 Y103.603 E0.01761
G1 X106.187 Y98.397 E0.24273
G1 X105.653 Y98.397 E0.01761
G1 X100.448 Y103.603 E0.24273
G1 X99.914 Y103.603 E0.01761
G1 X105.119 Y98.397 E0.24273
G1 X104.585 Y98.397 E0.01761
G1 X99.397 Y103.585 E0.24189
G1 X99.397 Y103.050 E0.01761
G1 X104.050 Y98.397 E0.21699
G1 X103.516 Y98.397 E0.01761
G1 X99.397 Y102.516 E0.19208
G1 X99.397 Y101.982 E0.01761
G1 X102.982 Y98.397 E0.16717
G1 X102.448 Y98.397 E0.01761
G1 X99.243 Y101.603 E0.14947
G1 X98.709 Y101.603 E0.01761
G1 X101.914 Y98.397 E0.14947
G1 X101.380 Y98.397 E0.01761
G1 X98.175 Y101.603 E0.14947
G1 X97.641 Y101.603 E0.01761
G1 X100.846 Y98.397 E0.14947
G1 X100.311 Y98.397 E0.01761
G1 X97.106 Y101.603 E0.14947
G1 X96.572 Y101.603 E0.01761
G1 X99.777 Y98.397 E0.14947
G1 X99.243 Y98.397 E0.01761
G1 X96.038 Y101.603 E0.14947
G1 X95.504 Y101.603 E0.01761
G1 X98.709 Y98.397 E0.14947
G1 X98.175 Y98.397 E0.01761
G1 X94.970 Y101.603 E0.14947
G1 X94.436 Y101.603 E0.01761
G1 X97.641 Y98.397 E0.14947
G1 X97.107 Y98.397 E0.01761
G1 X93.902 Y101.603 E0.14947
G1 X93.367 Y101.603 E0.01761
G1 X96.572 Y98.397 E0.14947
G1 X96.038 Y98.397 E0.01761
G1 X92.833 Y101.603 E0.14947
G1 X92.299 Y101.603 E0.01761
G1 X95.504 Y98.397 E0.14947
G1 X94.970 Y98.397 E0.01761
G1 X91.765 Y101.603 E0.14947
G1 X91.632 Y101.603 E0.00440
G1 X91.632 Y101.202 E0.01322
G1 X94.436 Y98.397 E0.13078
G1 X93.902 Y98.397 E0.01761
G1 X91.632 Y100.668 E0.10587
G1 X91.632 Y100.133 E0.01761
G1 X93.368 Y98.397 E0.08096
G1 X92.833 Y98.397 E0.01761
G1 X91.632 Y99.599 E0.05605
G1 X91.632 Y99.065 E0.01761
G1 X92.299 Y98.397 E0.03114
G1 X91.765 Y98.397 E0.01761
G1 X91.632 Y98.531 E0.00622
G1 F6240
G1 X91.765 Y98.397 E-0.20667
G1 F6240
G1 X92.010 Y98.397 E-0.26833
G1 E-0.02500 F7200.00000
G1 Z0.800 F7800.000
G1 X93.234 Y100.000 F7800.000
G1 X99.500 Y100.000 F7800.000
G1 X101.949 Y101.000 F7800.000
G1 X99.397 Y103.585 F7800.000
G1 Z0.200 F7800.000
G1 E0.50000 F7200.00000
G1 F1800
G1 X99.397 Y104.119 E0.01761
G1 X99.603 Y103.914 E0.00956
G1 X99.603 Y104.448 E0.01761
G1 X99.397 Y104.653 E0.00956
G1 X99.397 Y105.187 E0.01761
G1 X99.603 Y104.982 E0.00956
G1 X99.603 Y105.516 E0.01761
G1 X99.397 Y105.721 E0.00956
G1 X99.397 Y106.255 E0.01761
G1 X99.603 Y106.050 E0.00956
G1 X99.603 Y106.584 E0.01761
G1 X99.397 Y106.789 E0.00956
G1 X99.397 Y107.323 E0.01761
G1 X99.603 Y107.118 E0.00956
G1 X99.603 Y107.653 E0.01761
G1 X99.397 Y107.858 E0.00956
G1 X99.397 Y108.392 E0.01761
G1 X99.603 Y108.187 E0.00956
G1 X99.603 Y108.721 E0.01761
G1 X99.397 Y108.926 E0.00956
G1 X99.397 Y109.460 E0.01761
G1 X99.603 Y109.255 E0.00956
G1 X99.603 Y109.789 E0.01761
G1 X99.397 Y109.994 E0.00956
G1 X99.397 Y110.528 E0.01761
G1 X99.603 Y110.323 E0.00956
G1 X99.603 Y110.857 E0.01761
G1 X99.397 Y111.062 E0.00956
G1 X99.397 Y111.597 E0.01761
G1 X99.603 Y111.392 E0.00956
G1 X100.131 Y111.397 E0.01742
G1 X99.397 Y112.131 E0.03419
G1 X99.397 Y112.665 E0.01761
G1 X100.665 Y111.397 E0.05910
G1 X101.199 Y111.397 E0.01761
G1 X99.397 Y113.199 E0.08401
G1 F6240
G1 X99.704 Y112.893 E-0.47500
G1 E-0.02500 F7200.00000
G1 Z0.800 F7800.000
G1 X92.122 Y113.531 F7800.000
G1 Z0.200 F7800.000
G1 E0.50000 F7200.00000
G1 F1800
G1 X91.632 Y113.531 E0.01617
G1 X91.632 Y114.021 E0.01617
G1 X92.255 Y113.397 E0.02908
G1 X92.789 Y113.397 E0.01761
G1 X91.632 Y114.555 E0.05399
G1 X91.632 Y115.089 E0.01761
G1 X93.323 Y113.397 E0.07890
G1 X93.858 Y113.397 E0.01761
G1 X91.632 Y115.623 E0.10381
G1 X91.632 Y116.158 E0.01761
G1 X94.392 Y113.397 E0.12872
G1 X94.926 Y113.397 E0.01761
G1 X91.721 Y116.603 E0.14947
G1 X92.255 Y116.603 E0.01761
G1 X95.460 Y113.397 E0.14947
G1 X95.994 Y113.397 E0.01761
G1 X92.789 Y116.603 E0.14947
G1 X93.323 Y116.603 E0.01761
G1 X96.528 Y113.397 E0.14947
G1 X97.062 Y113.397 E0.01761
G1 X93.857 Y116.603 E0.14947
G1 X94.392 Y116.603 E0.01761
G1 X97.597 Y113.397 E0.14947
G1 X98.131 Y113.397 E0.01761
G1 X94.926 Y116.603 E0.14947
G1 X95.460 Y116.603 E0.01761
G1 X98.665 Y113.397 E0.14947
G1 X99.199 Y113.397 E0.01761
G1 X95.994 Y116.603 E0.14947
G1 X96.528 Y116.603 E0.01761
G1 X101.733 Y111.397 E0.24273
G1 X102.267 Y111.397 E0.01761
G1 X97.062 Y116.603 E0.24273
G1 X97.596 Y116.603 E0.01761
G1 X102.801 Y111.397 E0.24273
G1 X103.336 Y111.397 E0.01761
G1 X98.130 Y116.603 E0.24273
G1 X98.665 Y116.603 E0.01761
G1 X103.870 Y111.397 E0.24273
G1 X104.404 Y111.397 E0.01761
G1 X99.199 Y116.603 E0.24273
G1 X99.733 Y116.603 E0.01761
G1 X104.938 Y111.397 E0.24273
G1 X105.472 Y111.397 E0.01761
G1 X100.267 Y116.603 E0.24273
G1 X100.801 Y116.603 E0.01761
G1 X106.006 Y111.397 E0.24273
G1 X106.540 Y111.397 E0.01761
G1 X101.335 Y116.603 E0.24273
G1 X101.869 Y116.603 E0.01761
G1 X107.074 Y111.397 E0.24273
G1 X107.609 Y111.397 E0.01761
G1 X102.404 Y116.603 E0.24273
G1 X102.938 Y116.603 E0.01761
G1 X108.143 Y111.397 E0.24273
G1 X108.677 Y111.397 E0.01761
G1 X103.472 Y116.603 E0.24273
G1 X104.006 Y116.603 E0.01761
G1 X109.211 Y111.397 E0.24273
G1 X109.745 Y111.397 E0.01761
G1 X104.540 Y116.603 E0.24273
G1 X105.074 Y116.603 E0.01761
G1 X110.279 Y111.397 E0.24273
G1 X110.813 Y111.397 E0.01761
G1 X105.608 Y116.603 E0.24273
G1 X106.143 Y116.603 E0.01761
G1 X111.348 Y111.397 E0.24273
G1 X111.882 Y111.397 E0.01761
G1 X106.677 Y116.603 E0.24273
G1 X107.211 Y116.603 E0.01761
G1 X112.416 Y111.397 E0.24273
G1 X112.950 Y111.397 E0.01761
G1 X107.745 Y116.603 E0.24273
G1 X108.279 Y116.603 E0.01761
G1 X113.484 Y111.397 E0.24273
G1 X114.018 Y111.397 E0.01761
G1 X108.813 Y116.603 E0.24273
G1 X109.347 Y116.603 E0.01761
G1 X114.552 Y111.397 E0.24273
G1 X115.087 Y111.397 E0.01761
G1 X109.882 Y116.603 E0.24273
G1 X110.416 Y116.603 E0.01761
G1 X115.621 Y111.397 E0.24273
G1 X116.155 Y111.397 E0.01761
G1 X110.950 Y116.603 E0.24273
M106 S51
;BEFORE_LAYER_CHANGE
G92 E0.0
;0.4
G1 F6240
G1 X111.256 Y116.296 E-0.47500
G1 E-0.02500 F7200.00000
G1 Z0.800 F7800.000
G1 X85.500 Y104.500 F7800.000
G1 X85.500 Y95.500 F7800.000
G1 X88.904 Y95.317 F7800.000
G1 Z0.400 F7800.000
