; generated by Slic3r 1.3.0 on 2020-02-04 at 21:06:13

; external perimeters extrusion width = 0.45mm (2.04mm^3/s)
; perimeters extrusion width = 0.45mm (3.66mm^3/s)
; infill extrusion width = 0.45mm (6.51mm^3/s)
; solid infill extrusion width = 0.45mm (6.51mm^3/s)
; top infill extrusion width = 0.45mm (3.26mm^3/s)

M107
M83  ; extruder relative mode
G28 ; home all 
G0 Z25 ; move z 25 mm up
M104 S210 ; set extruder temp
M140 S60 ; set bed temp
M190 S60 ; wait for bed temp
M109 S210 ; wait for extruder temp
G28 ; home all
G29 ; mesh bed leveling
G92 E0.0
G1 Y10  F1000.0 ; intro line
G1 X60.0 E9.0  F1000.0 ; intro line
G1 Z0  F1000.0 ; intro line
G1 X100.0 E12.5  F1000.0 ; intro line
G92 E0.0



; Filament gcode

G21 ; set units to millimeters
G90 ; use absolute coordinates
M83 ; use relative distances for extrusion
;BEFORE_LAYER_CHANGE
G92 E0.0
;0.2
G1 E-0.50000 F7200.00000
G1 Z0.600 F7800.000
G1 X88.453 Y74.197 F7800.000
G1 Z0.200 F7800.000
G1 E0.50000 F7200.00000
G1 F1800
G1 X88.669 Y73.949 E0.01035
G1 X91.709 Y70.909 E0.13479
G1 X93.390 Y70.213 E0.05704
G1 X121.610 Y70.213 E0.88483
G1 X123.291 Y70.909 E0.05704
G1 X126.331 Y73.949 E0.13479
G1 X126.547 Y74.197 E0.01035
G1 X139.464 Y91.313 E0.67232
G1 X139.944 Y92.745 E0.04735
G1 X139.944 Y126.965 E1.07296
G1 X139.248 Y128.646 E0.05704
G1 X136.208 Y131.686 E0.13479
G1 X136.017 Y131.857 E0.00803
G1 X120.600 Y144.262 E0.62044
G1 X119.110 Y144.787 E0.04954
G1 X95.890 Y144.787 E0.72806
G1 X94.400 Y144.262 E0.04954
G1 X78.983 Y131.857 E0.62044
G1 X78.792 Y131.686 E0.00803
G1 X75.752 Y128.646 E0.13479
G1 X75.056 Y126.965 E0.05704
G1 X75.056 Y92.745 E1.07296
G1 X75.536 Y91.313 E0.04735
G1 X88.416 Y74.245 E0.67043
G1 F6240
G1 X88.669 Y73.949 E-0.42730
G1 F6240
G1 X88.700 Y73.918 E-0.04770
G1 E-0.02500 F7200.00000
G1 Z0.800 F7800.000
G1 X136.580 Y126.557 F7800.000
G1 Z0.200 F7800.000
G1 E0.50000 F7200.00000
G1 F1800
G1 X134.118 Y129.018 E0.10915
G1 X126.701 Y129.018 E0.23254
G1 X121.163 Y134.557 E0.24558
G1 X121.163 Y138.962 E0.13812
G1 X118.701 Y141.423 E0.10915
G1 X96.299 Y141.423 E0.70242
G1 X93.837 Y138.962 E0.10915
G1 X93.837 Y134.557 E0.13812
G1 X88.299 Y129.018 E0.24558
G1 X80.882 Y129.018 E0.23254
G1 X78.420 Y126.557 E0.10915
G1 X78.420 Y93.154 E1.04732
G1 X80.882 Y90.692 E0.10915
G1 X85.799 Y90.692 E0.15416
G1 X91.337 Y85.154 E0.24558
G1 X91.337 Y76.038 E0.28581
G1 X93.799 Y73.577 E0.10915
G1 X121.201 Y73.577 E0.85919
G1 X123.663 Y76.038 E0.10915
G1 X123.663 Y85.154 E0.28581
G1 X129.201 Y90.692 E0.24558
G1 X134.118 Y90.692 E0.15416
G1 X136.580 Y93.154 E0.10915
G1 X136.580 Y126.497 E1.04544
G1 X136.957 Y126.713 F7800.000
G1 F1800
G1 X134.274 Y129.395 E0.11894
G1 X126.858 Y129.395 E0.23254
G1 X121.540 Y134.713 E0.23579
G1 X121.540 Y139.118 E0.13812
G1 X118.858 Y141.800 E0.11894
G1 X96.142 Y141.800 E0.71222
G1 X93.460 Y139.118 E0.11894
G1 X93.460 Y134.713 E0.13812
G1 X88.142 Y129.395 E0.23579
G1 X80.726 Y129.395 E0.23254
G1 X78.043 Y126.713 E0.11894
G1 X78.043 Y92.998 E1.05711
G1 X80.726 Y90.315 E0.11894
G1 X85.642 Y90.315 E0.15416
G1 X90.960 Y84.998 E0.23579
G1 X90.960 Y75.882 E0.28581
G1 X93.642 Y73.200 E0.11894
G1 X121.358 Y73.200 E0.86899
G1 X124.040 Y75.882 E0.11894
G1 X124.040 Y84.998 E0.28581
G1 X129.358 Y90.315 E0.23579
G1 X134.274 Y90.315 E0.15416
G1 X136.957 Y92.998 E0.11894
G1 X136.957 Y126.653 E1.05523
G1 X136.557 Y126.723 F7800.000
G1 F6240
G1 X136.654 Y126.963 E-0.47500
G1 E-0.02500 F7200.00000
G1 Z0.800 F7800.000
G1 X133.895 Y128.708 F7800.000
G1 Z0.200 F7800.000
G1 E0.50000 F7200.00000
G1 F1800
G1 X136.269 Y126.334 E0.10561
G1 X136.269 Y125.799 E0.01683
G1 X133.360 Y128.708 E0.12941
G1 X132.825 Y128.708 E0.01683
G1 X136.269 Y125.264 E0.15321
G1 X136.269 Y124.729 E0.01683
G1 X132.290 Y128.708 E0.17701
G1 X131.755 Y128.708 E0.01683
G1 X136.269 Y124.194 E0.20081
G1 X136.269 Y123.659 E0.01683
G1 X131.220 Y128.708 E0.22461
G1 X130.685 Y128.708 E0.01683
G1 X136.269 Y123.124 E0.24841
G1 X136.269 Y122.589 E0.01683
G1 X130.150 Y128.708 E0.27221
G1 X129.615 Y128.708 E0.01683
G1 X136.269 Y122.054 E0.29601
G1 X136.269 Y121.519 E0.01683
G1 X129.080 Y128.708 E0.31981
G1 X128.545 Y128.708 E0.01683
G1 X136.269 Y120.984 E0.34361
G1 X136.269 Y120.449 E0.01683
G1 X128.010 Y128.708 E0.36740
G1 X127.475 Y128.708 E0.01683
G1 X136.269 Y119.914 E0.39120
G1 X136.269 Y119.379 E0.01683
G1 X126.940 Y128.708 E0.41500
G1 X126.479 Y128.708 E0.01452
G1 X120.719 Y134.467 E0.25620
G1 X120.719 Y134.929 E0.01452
G1 X114.535 Y141.113 E0.27511
G1 X114.000 Y141.113 E0.01683
G1 X136.269 Y118.844 E0.99065
G1 X136.269 Y118.309 E0.01683
G1 X113.465 Y141.113 E1.01445
G1 X112.930 Y141.113 E0.01683
G1 X136.269 Y117.774 E1.03825
G1 X136.269 Y117.239 E0.01683
G1 X112.395 Y141.113 E1.06205
G1 X111.860 Y141.113 E0.01683
G1 X136.269 Y116.704 E1.08585
G1 X136.269 Y116.169 E0.01683
G1 X111.325 Y141.113 E1.10964
G1 X110.790 Y141.113 E0.01683
G1 X136.269 Y115.634 E1.13344
G1 X136.269 Y115.099 E0.01683
G1 X110.255 Y141.113 E1.15724
G1 X109.720 Y141.113 E0.01683
G1 X136.269 Y114.564 E1.18104
G1 X136.269 Y114.029 E0.01683
G1 X109.185 Y141.113 E1.20484
G1 X108.650 Y141.113 E0.01683
G1 X136.269 Y113.494 E1.22864
G1 X136.269 Y112.959 E0.01683
G1 X108.115 Y141.113 E1.25244
G1 X107.580 Y141.113 E0.01683
G1 X136.269 Y112.424 E1.27624
G1 X136.269 Y111.889 E0.01683
G1 X107.045 Y141.113 E1.30004
G1 X106.510 Y141.113 E0.01683
G1 X136.269 Y111.354 E1.32384
G1 X136.269 Y110.819 E0.01683
G1 X105.975 Y141.113 E1.34764
G1 X105.440 Y141.113 E0.01683
G1 X136.269 Y110.284 E1.37144
G1 X136.269 Y109.749 E0.01683
G1 X104.905 Y141.113 E1.39523
G1 X104.370 Y141.113 E0.01683
G1 X136.269 Y109.214 E1.41903
G1 X136.269 Y108.679 E0.01683
G1 X103.835 Y141.113 E1.44283
G1 X103.300 Y141.113 E0.01683
G1 X136.269 Y108.144 E1.46663
G1 X136.269 Y107.609 E0.01683
G1 X102.765 Y141.113 E1.49043
G1 X102.230 Y141.113 E0.01683
G1 X136.269 Y107.074 E1.51423
G1 X136.269 Y106.539 E0.01683
G1 X101.695 Y141.113 E1.53803
G1 X101.160 Y141.113 E0.01683
G1 X136.269 Y106.004 E1.56183
G1 X136.269 Y105.469 E0.01683
G1 X100.625 Y141.113 E1.58563
G1 X100.090 Y141.113 E0.01683
G1 X136.269 Y104.934 E1.60943
G1 X136.269 Y104.399 E0.01683
G1 X99.555 Y141.113 E1.63323
G1 X99.020 Y141.113 E0.01683
G1 X136.269 Y103.864 E1.65703
G1 X136.269 Y103.329 E0.01683
G1 X98.485 Y141.113 E1.68082
G1 X97.950 Y141.113 E0.01683
G1 X136.269 Y102.794 E1.70462
G1 X136.269 Y102.259 E0.01683
G1 X97.415 Y141.113 E1.72842
G1 X96.880 Y141.113 E0.01683
G1 X136.269 Y101.724 E1.75222
G1 X136.269 Y101.189 E0.01683
G1 X96.367 Y141.091 E1.77506
G1 X96.099 Y140.824 E0.01190
G1 X136.269 Y100.654 E1.78696
G1 X136.269 Y100.119 E0.01683
G1 X95.832 Y140.556 E1.79886
G1 X95.564 Y140.289 E0.01190
G1 X136.269 Y99.584 E1.81076
G1 X136.269 Y99.049 E0.01683
G1 X95.297 Y140.021 E1.82266
G1 X95.029 Y139.754 E0.01190
G1 X136.269 Y98.514 E1.83456
G1 X136.269 Y97.979 E0.01683
G1 X94.762 Y139.486 E1.84646
G1 X94.494 Y139.219 E0.01190
G1 X136.269 Y97.444 E1.85836
G1 X136.269 Y96.909 E0.01683
G1 X94.227 Y138.951 E1.87026
G1 X94.147 Y138.872 E0.00352
G1 X94.147 Y138.496 E0.01185
G1 X136.269 Y96.374 E1.87378
G1 X136.269 Y95.839 E0.01683
G1 X94.147 Y137.961 E1.87378
G1 X94.147 Y137.426 E0.01683
G1 X136.269 Y95.304 E1.87378
G1 X136.269 Y94.769 E0.01683
G1 X94.147 Y136.891 E1.87378
G1 X94.147 Y136.356 E0.01683
G1 X136.269 Y94.234 E1.87378
G1 X136.269 Y93.699 E0.01683
G1 X94.147 Y135.821 E1.87378
G1 X94.147 Y135.286 E0.01683
G1 X136.229 Y93.204 E1.87202
G1 X135.962 Y92.936 E0.01190
G1 X94.147 Y134.751 E1.86012
G1 X94.147 Y134.467 E0.00892
G1 X94.022 Y134.341 E0.00559
G1 X135.694 Y92.669 E1.85381
G1 X135.427 Y92.401 E0.01190
G1 X93.754 Y134.074 E1.85381
G1 X93.487 Y133.806 E0.01190
G1 X135.159 Y92.134 E1.85381
G1 X134.892 Y91.866 E0.01190
G1 X93.219 Y133.539 E1.85381
G1 X92.952 Y133.271 E0.01190
G1 X134.625 Y91.599 E1.85381
G1 X134.357 Y91.331 E0.01190
G1 X92.684 Y133.004 E1.85381
G1 X92.417 Y132.736 E0.01190
G1 X134.090 Y91.064 E1.85381
G1 X134.029 Y91.003 E0.00271
G1 X133.616 Y91.003 E0.01299
G1 X92.149 Y132.469 E1.84462
G1 X91.882 Y132.201 E0.01190
G1 X133.081 Y91.003 E1.83272
G1 X132.546 Y91.003 E0.01683
G1 X91.614 Y131.934 E1.82082
G1 X91.347 Y131.666 E0.01190
G1 X132.011 Y91.003 E1.80892
G1 X131.476 Y91.003 E0.01683
G1 X91.079 Y131.399 E1.79702
G1 X90.812 Y131.131 E0.01190
G1 X130.941 Y91.003 E1.78512
G1 X130.406 Y91.003 E0.01683
G1 X90.544 Y130.864 E1.77322
G1 X90.277 Y130.596 E0.01190
G1 X129.871 Y91.003 E1.76132
G1 X129.336 Y91.003 E0.01683
G1 X90.009 Y130.329 E1.74943
G1 X89.742 Y130.061 E0.01190
G1 X128.956 Y90.847 E1.74445
G1 X128.689 Y90.580 E0.01190
G1 X89.474 Y129.794 E1.74445
G1 X89.207 Y129.526 E0.01190
G1 X128.421 Y90.312 E1.74445
G1 X128.154 Y90.045 E0.01190
G1 X88.939 Y129.259 E1.74445
G1 X88.672 Y128.991 E0.01190
G1 X127.886 Y89.777 E1.74445
G1 X127.619 Y89.510 E0.01190
G1 X88.404 Y128.724 E1.74445
G1 X88.388 Y128.708 E0.00072
G1 X87.886 Y128.708 E0.01581
G1 X127.351 Y89.242 E1.75563
G1 X127.084 Y88.975 E0.01190
G1 X87.351 Y128.708 E1.76753
G1 X86.816 Y128.708 E0.01683
G1 X126.816 Y88.707 E1.77943
G1 X126.549 Y88.440 E0.01190
G1 X86.281 Y128.708 E1.79133
G1 X85.746 Y128.708 E0.01683
G1 X126.281 Y88.172 E1.80323
G1 X126.014 Y87.905 E0.01190
G1 X85.211 Y128.708 E1.81513
G1 X84.676 Y128.708 E0.01683
G1 X125.746 Y87.637 E1.82703
G1 X125.479 Y87.370 E0.01190
G1 X84.141 Y128.708 E1.83893
G1 X83.606 Y128.708 E0.01683
G1 X125.211 Y87.102 E1.85082
G1 X124.944 Y86.835 E0.01190
G1 X83.071 Y128.708 E1.86272
G1 X82.536 Y128.708 E0.01683
G1 X124.676 Y86.567 E1.87462
G1 X124.409 Y86.300 E0.01190
G1 X82.001 Y128.708 E1.88652
G1 X81.466 Y128.708 E0.01683
G1 X124.141 Y86.032 E1.89842
G1 X123.874 Y85.765 E0.01190
G1 X80.951 Y128.687 E1.90941
G1 X80.684 Y128.420 E0.01190
G1 X123.606 Y85.497 E1.90941
G1 X123.353 Y85.243 E0.01129
G1 X123.353 Y85.216 E0.00087
G1 X80.416 Y128.152 E1.91003
G1 X80.149 Y127.885 E0.01190
G1 X123.353 Y84.681 E1.92193
G1 X123.353 Y84.146 E0.01683
G1 X79.881 Y127.617 E1.93383
G1 X79.614 Y127.350 E0.01190
G1 X123.353 Y83.611 E1.94572
G1 X123.353 Y83.076 E0.01683
G1 X79.346 Y127.082 E1.95762
G1 X79.079 Y126.815 E0.01190
G1 X123.353 Y82.541 E1.96952
G1 X123.353 Y82.006 E0.01683
G1 X78.811 Y126.547 E1.98142
G1 X78.731 Y126.467 E0.00357
G1 X78.731 Y126.093 E0.01178
G1 X123.353 Y81.471 E1.98499
G1 X123.353 Y80.936 E0.01683
G1 X78.731 Y125.558 E1.98499
G1 X78.731 Y125.023 E0.01683
G1 X123.353 Y80.401 E1.98499
G1 X123.353 Y79.866 E0.01683
G1 X78.731 Y124.488 E1.98499
G1 X78.731 Y123.953 E0.01683
G1 X123.353 Y79.331 E1.98499
G1 X123.353 Y78.796 E0.01683
G1 X78.731 Y123.418 E1.98499
G1 X78.731 Y122.883 E0.01683
G1 X123.353 Y78.261 E1.98499
G1 X123.353 Y77.726 E0.01683
G1 X78.731 Y122.348 E1.98499
G1 X78.731 Y121.813 E0.01683
G1 X123.353 Y77.191 E1.98499
G1 X123.353 Y76.656 E0.01683
G1 X78.731 Y121.278 E1.98499
G1 X78.731 Y120.743 E0.01683
G1 X123.349 Y76.124 E1.98484
G1 X123.082 Y75.857 E0.01190
G1 X78.731 Y120.208 E1.97294
G1 X78.731 Y119.673 E0.01683
G1 X122.814 Y75.589 E1.96104
G1 X122.547 Y75.322 E0.01190
G1 X78.731 Y119.138 E1.94914
G1 X78.731 Y118.603 E0.01683
G1 X122.279 Y75.054 E1.93724
G1 X122.012 Y74.787 E0.01190
G1 X78.731 Y118.068 E1.92534
G1 X78.731 Y117.533 E0.01683
G1 X121.744 Y74.519 E1.91344
G1 X121.477 Y74.252 E0.01190
G1 X78.731 Y116.998 E1.90154
G1 X78.731 Y116.463 E0.01683
G1 X121.209 Y73.984 E1.88964
G1 X121.112 Y73.887 E0.00433
G1 X120.771 Y73.887 E0.01071
G1 X78.731 Y115.928 E1.87017
G1 X78.731 Y115.393 E0.01683
G1 X120.236 Y73.887 E1.84637
G1 X119.701 Y73.887 E0.01683
G1 X78.731 Y114.858 E1.82257
G1 X78.731 Y114.323 E0.01683
G1 X119.166 Y73.887 E1.79878
G1 X118.631 Y73.887 E0.01683
G1 X78.731 Y113.788 E1.77498
G1 X78.731 Y113.253 E0.01683
G1 X118.096 Y73.887 E1.75118
G1 X117.561 Y73.887 E0.01683
G1 X78.731 Y112.718 E1.72738
G1 X78.731 Y112.183 E0.01683
G1 X117.026 Y73.887 E1.70358
G1 X116.491 Y73.887 E0.01683
G1 X78.731 Y111.648 E1.67978
G1 X78.731 Y111.113 E0.01683
G1 X115.956 Y73.887 E1.65598
G1 X115.421 Y73.887 E0.01683
G1 X78.731 Y110.578 E1.63218
G1 X78.731 Y110.043 E0.01683
G1 X114.886 Y73.887 E1.60838
G1 X114.351 Y73.887 E0.01683
G1 X78.731 Y109.508 E1.58458
G1 X78.731 Y108.973 E0.01683
G1 X113.816 Y73.887 E1.56078
G1 X113.281 Y73.887 E0.01683
G1 X78.731 Y108.438 E1.53698
G1 X78.731 Y107.903 E0.01683
G1 X112.746 Y73.887 E1.51319
G1 X112.211 Y73.887 E0.01683
G1 X78.731 Y107.368 E1.48939
G1 X78.731 Y106.833 E0.01683
G1 X111.677 Y73.887 E1.46559
G1 X111.142 Y73.887 E0.01683
G1 X78.731 Y106.298 E1.44179
G1 X78.731 Y105.763 E0.01683
G1 X110.607 Y73.887 E1.41799
G1 X110.072 Y73.887 E0.01683
G1 X78.731 Y105.228 E1.39419
G1 X78.731 Y104.693 E0.01683
G1 X109.537 Y73.887 E1.37039
G1 X109.002 Y73.887 E0.01683
G1 X78.731 Y104.158 E1.34659
G1 X78.731 Y103.623 E0.01683
G1 X108.467 Y73.887 E1.32279
G1 X107.932 Y73.887 E0.01683
G1 X78.731 Y103.088 E1.29899
G1 X78.731 Y102.553 E0.01683
G1 X107.397 Y73.887 E1.27519
G1 X106.862 Y73.887 E0.01683
G1 X78.731 Y102.018 E1.25139
G1 X78.731 Y101.483 E0.01683
G1 X106.327 Y73.887 E1.22760
G1 X105.792 Y73.887 E0.01683
G1 X78.731 Y100.948 E1.20380
G1 X78.731 Y100.413 E0.01683
G1 X105.257 Y73.887 E1.18000
G1 X104.722 Y73.887 E0.01683
G1 X78.731 Y99.878 E1.15620
G1 X78.731 Y99.343 E0.01683
G1 X104.187 Y73.887 E1.13240
G1 X103.652 Y73.887 E0.01683
G1 X78.731 Y98.808 E1.10860
G1 X78.731 Y98.273 E0.01683
G1 X86.001 Y91.003 E0.32342
G1 X85.466 Y91.003 E0.01683
G1 X78.731 Y97.738 E0.29962
G1 X78.731 Y97.203 E0.01683
G1 X84.931 Y91.003 E0.27582
G1 X84.396 Y91.003 E0.01683
G1 X78.731 Y96.668 E0.25202
G1 X78.731 Y96.133 E0.01683
G1 X83.861 Y91.003 E0.22822
G1 X83.326 Y91.003 E0.01683
G1 X78.731 Y95.598 E0.20442
G1 X78.731 Y95.063 E0.01683
G1 X82.791 Y91.003 E0.18062
G1 X82.256 Y91.003 E0.01683
G1 X78.731 Y94.528 E0.15682
G1 X78.731 Y93.993 E0.01683
G1 X81.721 Y91.003 E0.13302
G1 X81.186 Y91.003 E0.01683
G1 X78.731 Y93.458 E0.10922
G1 X78.731 Y93.377 E0.00256
G1 X80.971 Y91.136 E0.09968
G1 X81.053 Y91.136 E0.00256
G1 F6240
G1 X80.971 Y91.136 E-0.08909
G1 F6240
G1 X80.723 Y91.385 E-0.38591
G1 E-0.02500 F7200.00000
G1 Z0.800 F7800.000
G1 X82.623 Y94.894 F7800.000
G1 X85.970 Y98.241 F7800.000
G1 X103.198 Y108.334 F7800.000
G1 X104.151 Y108.728 F7800.000
G1 X107.500 Y108.611 F7800.000
G1 X107.500 Y101.075 F7800.000
G1 X91.647 Y85.356 F7800.000
G1 Z0.200 F7800.000
G1 E0.50000 F7200.00000
G1 F1800
G1 X103.117 Y73.887 E0.51020
G1 X102.582 Y73.887 E0.01683
G1 X91.647 Y84.821 E0.48640
G1 X91.647 Y84.286 E0.01683
G1 X102.047 Y73.887 E0.46260
G1 X101.512 Y73.887 E0.01683
G1 X91.647 Y83.751 E0.43881
G1 X91.647 Y83.216 E0.01683
G1 X100.977 Y73.887 E0.41501
G1 X100.442 Y73.887 E0.01683
G1 X91.647 Y82.681 E0.39121
G1 X91.647 Y82.146 E0.01683
G1 X99.907 Y73.887 E0.36741
G1 X99.372 Y73.887 E0.01683
G1 X91.647 Y81.611 E0.34361
G1 X91.647 Y81.076 E0.01683
G1 X98.837 Y73.887 E0.31981
G1 X98.302 Y73.887 E0.01683
G1 X91.647 Y80.541 E0.29601
G1 X91.647 Y80.006 E0.01683
G1 X97.767 Y73.887 E0.27221
G1 X97.232 Y73.887 E0.01683
G1 X91.647 Y79.471 E0.24841
G1 X91.647 Y78.936 E0.01683
G1 X96.697 Y73.887 E0.22461
G1 X96.162 Y73.887 E0.01683
G1 X91.647 Y78.401 E0.20081
G1 X91.647 Y77.866 E0.01683
G1 X95.627 Y73.887 E0.17701
G1 X95.092 Y73.887 E0.01683
G1 X91.647 Y77.331 E0.15322
G1 X91.647 Y76.796 E0.01683
G1 X94.557 Y73.887 E0.12942
G1 X94.022 Y73.887 E0.01683
G1 X91.647 Y76.261 E0.10562
G1 X93.888 Y74.020 E0.09969
G1 F6240
G1 X93.582 Y74.327 E-0.47500
G1 E-0.02500 F7200.00000
G1 Z0.800 F7800.000
G1 X120.853 Y134.795 F7800.000
G1 Z0.200 F7800.000
G1 E0.50000 F7200.00000
G1 F1800
G1 X120.853 Y135.330 E0.01683
G1 X115.070 Y141.113 E0.25724
G1 X115.605 Y141.113 E0.01683
G1 X120.853 Y135.865 E0.23344
G1 X120.853 Y136.400 E0.01683
G1 X116.140 Y141.113 E0.20964
G1 X116.675 Y141.113 E0.01683
G1 X120.853 Y136.935 E0.18584
G1 X120.853 Y137.470 E0.01683
G1 X117.210 Y141.113 E0.16204
G1 X117.745 Y141.113 E0.01683
G1 X120.853 Y138.005 E0.13824
G1 X120.853 Y138.540 E0.01683
G1 X118.280 Y141.113 E0.11445
M106 S255
M104 S200 ; set temperature
;BEFORE_LAYER_CHANGE
G92 E0.0
;0.4
G1 F6240
G1 X118.586 Y140.807 E-0.47500
G1 E-0.02500 F7200.00000
G1 Z0.800 F7800.000
G1 X88.453 Y74.197 F7800.000
