; generated by Slic3r 1.3.0 on 2020-02-05 at 21:13:32

; external perimeters extrusion width = 0.45mm (2.04mm^3/s)
; perimeters extrusion width = 0.45mm (3.66mm^3/s)
; infill extrusion width = 0.45mm (6.51mm^3/s)
; solid infill extrusion width = 0.45mm (6.51mm^3/s)
; top infill extrusion width = 0.45mm (3.26mm^3/s)

M107
M83  ; extruder relative mode
; G28 ; home all 
G0 Z25 ; move z 25 mm up
M104 S220 ; set extruder temp
M140 S85 ; set bed temp
M190 S85 ; wait for bed temp
M109 S220 ; wait for extruder temp
G28 ; home all
; G29 ; mesh bed leveling
G92 E0.0
G1 Y10  F1000.0 ; intro line
G1 X60.0 E9.0  F1000.0 ; intro line
G1 Z0  F1000.0 ; intro line
G1 X100.0 E12.5  F1000.0 ; intro line
G92 E0.0



; Filament gcode

G21 ; set units to millimeters
G90 ; use absolute coordinates
M83 ; use relative distances for extrusion
;BEFORE_LAYER_CHANGE
G92 E0.0
;0.2
G1 E-0.50000 F7200.00000
G1 Z0.600 F7800.000
G1 X81.911 Y91.497 F7800.000
G1 Z0.200 F7800.000
G1 E0.50000 F7200.00000
G1 F1800
G1 X82.273 Y91.199 E0.01472
G1 X82.648 Y90.942 E0.01424
G1 X83.108 Y90.684 E0.01654
G1 X83.538 Y90.494 E0.01473
G1 X84.038 Y90.326 E0.01654
G1 X84.480 Y90.221 E0.01424
G1 X84.944 Y90.152 E0.01473
G1 X85.397 Y90.124 E0.01424
G1 X129.603 Y90.124 E1.38603
G1 X130.260 Y90.177 E0.02067
G1 X130.961 Y90.325 E0.02246
G1 X131.652 Y90.572 E0.02302
G1 X132.240 Y90.873 E0.02070
G1 X132.785 Y91.243 E0.02066
G1 X133.302 Y91.698 E0.02159
G1 X133.721 Y92.169 E0.01978
G1 X134.098 Y92.712 E0.02072
G1 X134.405 Y93.297 E0.02071
G1 X134.637 Y93.913 E0.02063
G1 X134.793 Y94.555 E0.02072
G1 X134.869 Y95.208 E0.02061
G1 X134.875 Y119.661 E0.76671
G1 X134.814 Y120.318 E0.02069
G1 X134.654 Y121.032 E0.02295
G1 X134.428 Y121.652 E0.02069
G1 X134.126 Y122.240 E0.02073
G1 X133.756 Y122.786 E0.02068
G1 X133.302 Y123.302 E0.02154
G1 X132.786 Y123.756 E0.02156
G1 X132.241 Y124.126 E0.02066
G1 X131.652 Y124.427 E0.02072
G1 X131.032 Y124.654 E0.02070
G1 X130.391 Y124.803 E0.02064
G1 X129.731 Y124.872 E0.02079
G1 X85.397 Y124.876 E1.39006
G1 X84.683 Y124.814 E0.02249
G1 X84.039 Y124.675 E0.02066
G1 X83.348 Y124.427 E0.02300
G1 X82.760 Y124.127 E0.02070
G1 X82.215 Y123.756 E0.02068
G1 X81.698 Y123.302 E0.02157
G1 X81.243 Y122.785 E0.02159
G1 X80.873 Y122.240 E0.02066
G1 X80.572 Y121.652 E0.02069
G1 X80.346 Y121.032 E0.02069
G1 X80.186 Y120.321 E0.02285
G1 X80.125 Y119.661 E0.02080
G1 X80.136 Y95.133 E0.76904
G1 X80.197 Y94.609 E0.01654
G1 X80.307 Y94.105 E0.01619
G1 X80.447 Y93.661 E0.01459
G1 X80.652 Y93.175 E0.01655
G1 X80.873 Y92.761 E0.01471
G1 X81.164 Y92.321 E0.01654
G1 X81.496 Y91.911 E0.01656
G1 X81.866 Y91.537 E0.01648
G1 F6240
G1 X81.919 Y91.489 E-0.07787
G1 F6240
G1 X81.919 Y91.489 E-0.00007
G1 F6240
G1 X81.966 Y91.448 E-0.06861
G1 F6240
G1 X82.010 Y91.409 E-0.06434
G1 F6240
G1 X82.019 Y91.402 E-0.01210
G1 F6240
G1 X82.019 Y91.402 E-0.00002
G1 F6240
G1 X82.067 Y91.362 E-0.06860
G1 F6240
G1 X82.112 Y91.325 E-0.06377
G1 F6240
G1 X82.120 Y91.318 E-0.01211
G1 F6240
G1 X82.120 Y91.318 E-0.00002
G1 F6240
G1 X82.126 Y91.314 E-0.00807
G1 F6240
G1 X82.126 Y91.314 E-0.00000
G1 F6240
G1 X82.169 Y91.279 E-0.06054
G1 F6240
G1 X82.197 Y91.257 E-0.03886
G1 E-0.02500 F7200.00000
G1 Z0.800 F7800.000
G1 X102.510 Y107.470 F7800.000
G1 Z0.200 F7800.000
G1 E0.50000 F7200.00000
G1 F1800
G1 X99.210 Y107.470 E0.10347
G1 X99.210 Y104.170 E0.10347
G1 X101.130 Y104.170 E0.06020
G1 X101.130 Y103.630 E0.01693
G1 X99.210 Y103.630 E0.06020
G1 X99.210 Y102.250 E0.04327
G1 X102.510 Y102.250 E0.10347
G1 X102.510 Y105.550 E0.10347
G1 X100.590 Y105.550 E0.06020
G1 X100.590 Y106.090 E0.01693
G1 X102.510 Y106.090 E0.06020
G1 X102.510 Y107.410 E0.04139
G1 X102.634 Y107.850 F7800.000
G1 F6240
G1 X102.077 Y107.418 E-0.47500
G1 E-0.02500 F7200.00000
G1 Z0.800 F7800.000
G1 X102.017 Y108.260 F7800.000
G1 X101.659 Y108.503 F7800.000
G1 X101.217 Y108.260 F7800.000
G1 X101.217 Y106.064 F7800.000
G1 X100.881 Y105.822 F7800.000
G1 X100.860 Y105.367 F7800.000
G1 X103.300 Y105.367 F7800.000
G1 X103.822 Y104.187 F7800.000
G1 X104.522 Y104.391 F7800.000
G1 X104.751 Y105.241 F7800.000
G1 X104.648 Y105.529 F7800.000
G1 X105.560 Y105.007 F7800.000
G1 X107.638 Y106.288 F7800.000
G1 X109.505 Y105.986 F7800.000
G1 X109.837 Y106.414 F7800.000
G1 X110.275 Y106.634 F7800.000
G1 X112.601 Y107.350 F7800.000
G1 X112.039 Y109.883 F7800.000
G1 X114.243 Y111.934 F7800.000
G1 X114.488 Y112.978 F7800.000
G1 X115.629 Y112.378 F7800.000
G1 X116.338 Y112.839 F7800.000
G1 Z0.200 F7800.000
G1 E0.50000 F7200.00000
G1 F1800
G1 X119.301 Y113.347 E0.09425
G1 X121.399 Y111.195 E0.09425
G1 X121.831 Y114.170 E0.09425
G1 X124.526 Y115.500 E0.09425
G1 X121.831 Y116.830 E0.09425
G1 X121.399 Y119.805 E0.09425
G1 X119.301 Y117.653 E0.09425
G1 X116.338 Y118.161 E0.09425
G1 X117.737 Y115.500 E0.09425
G1 X116.366 Y112.893 E0.09237
G1 X117.027 Y113.340 F7800.000
G1 F1800
G1 X119.432 Y113.753 E0.07651
G1 X121.135 Y112.005 E0.07651
G1 X121.486 Y114.420 E0.07651
G1 X123.674 Y115.500 E0.07651
G1 X121.486 Y116.580 E0.07651
G1 X121.135 Y118.995 E0.07651
G1 X119.432 Y117.247 E0.07651
G1 X117.027 Y117.660 E0.07651
G1 X118.163 Y115.500 E0.07651
G1 X117.055 Y113.393 E0.07463
G1 X117.073 Y112.943 F7800.000
G1 F6240
G1 X117.484 Y113.458 E-0.47500
G1 E-0.02500 F7200.00000
G1 Z0.800 F7800.000
G1 X116.910 Y110.529 F7800.000
G1 Z0.200 F7800.000
G1 E0.50000 F7200.00000
G1 F1800
G1 X116.910 Y109.321 E0.03790
G1 X116.613 Y109.305 E0.00934
G1 X116.541 Y109.275 E0.00242
G1 X115.082 Y109.275 E0.04575
G1 X115.082 Y110.224 E0.02976
G1 X113.430 Y109.783 E0.05362
G1 X113.430 Y109.275 E0.01594
G1 X113.116 Y109.275 E0.00985
G1 X112.926 Y109.313 E0.00607
G1 X112.549 Y109.326 E0.01183
G1 X112.150 Y109.275 E0.01262
G1 X111.776 Y109.154 E0.01230
G1 X111.440 Y108.967 E0.01206
G1 X111.147 Y108.714 E0.01215
G1 X110.877 Y108.344 E0.01436
G1 X110.724 Y107.988 E0.01216
G1 X110.640 Y107.612 E0.01207
G1 X110.623 Y107.213 E0.01251
G1 X110.689 Y106.756 E0.01448
G1 X110.819 Y106.394 E0.01204
G1 X111.060 Y106.014 E0.01412
G1 X111.390 Y105.709 E0.01408
G1 X111.724 Y105.522 E0.01201
G1 X112.158 Y105.393 E0.01420
G1 X112.549 Y105.359 E0.01230
G1 X113.080 Y105.410 E0.01673
G1 X113.872 Y105.664 E0.02606
G1 X114.075 Y105.513 E0.00795
G1 X114.381 Y105.398 E0.01023
G1 X114.694 Y105.360 E0.00990
G1 X115.073 Y105.384 E0.01189
G1 X115.184 Y105.413 E0.00359
G1 X116.772 Y105.413 E0.04979
G1 X116.774 Y107.434 E0.06336
G1 X116.802 Y107.592 E0.00505
G1 X116.845 Y107.676 E0.00294
G1 X116.910 Y107.678 E0.00206
G1 X116.910 Y105.413 E0.07104
G1 X118.574 Y105.413 E0.05215
G1 X118.574 Y107.302 E0.05922
G1 X119.191 Y105.413 E0.06231
G1 X120.564 Y105.413 E0.04302
G1 X122.323 Y110.325 E0.16359
G1 X120.553 Y110.325 E0.05551
G1 X119.925 Y108.491 E0.06075
G1 X119.348 Y110.325 E0.06027
G1 X118.574 Y110.325 E0.02427
G1 X118.574 Y110.529 E0.00642
G1 X116.970 Y110.529 E0.05027
G1 X117.287 Y110.152 F7800.000
G1 F1800
G1 X117.287 Y105.790 E0.13678
G1 X118.197 Y105.790 E0.02851
G1 X118.197 Y109.668 E0.12158
G1 X119.465 Y105.790 E0.12792
G1 X120.298 Y105.790 E0.02612
G1 X121.787 Y109.948 E0.13847
G1 X120.822 Y109.948 E0.03026
G1 X119.915 Y107.260 E0.08894
G1 X119.071 Y109.948 E0.08832
G1 X118.197 Y109.948 E0.02742
G1 X118.197 Y110.152 E0.00642
G1 X117.347 Y110.152 E0.02663
G1 X116.888 Y110.182 F7800.000
G1 F6240
G1 X117.341 Y109.719 E-0.47500
G1 E-0.02500 F7200.00000
G1 Z0.800 F7800.000
G1 X117.240 Y108.961 F7800.000
G1 Z0.200 F7800.000
G1 E0.50000 F7200.00000
G1 F1800
G1 X116.697 Y108.932 E0.01703
G1 X116.395 Y108.806 E0.01026
G1 X116.316 Y108.744 E0.00317
G1 X116.311 Y108.898 E0.00483
G1 X115.464 Y108.898 E0.02655
G1 X115.492 Y107.846 E0.03298
G1 X115.492 Y105.790 E0.06448
G1 X116.395 Y105.790 E0.02832
G1 X116.397 Y107.467 E0.05258
G1 X116.441 Y107.714 E0.00785
G1 X116.538 Y107.904 E0.00672
G1 X116.652 Y108.008 E0.00484
G1 X116.802 Y108.060 E0.00500
G1 X117.240 Y108.042 E0.01372
G1 X117.240 Y108.901 E0.02691
G1 X117.285 Y109.358 F7800.000
G1 F6240
G1 X116.807 Y108.925 E-0.47500
G1 E-0.02500 F7200.00000
G1 Z0.800 F7800.000
G1 X115.405 Y108.898 F7800.000
G1 Z0.200 F7800.000
G1 E0.50000 F7200.00000
G1 F1800
G1 X114.705 Y108.898 E0.02195
G1 X114.705 Y109.733 E0.02619
G1 X113.807 Y109.494 E0.02914
G1 X113.807 Y108.898 E0.01868
G1 X113.390 Y108.898 E0.01307
G1 X113.390 Y108.803 E0.00298
G1 X113.201 Y108.874 E0.00634
G1 X112.883 Y108.937 E0.01018
G1 X112.567 Y108.948 E0.00991
G1 X112.233 Y108.905 E0.01056
G1 X111.928 Y108.807 E0.01005
G1 X111.658 Y108.656 E0.00969
G1 X111.426 Y108.457 E0.00959
G1 X111.207 Y108.156 E0.01167
G1 X111.084 Y107.871 E0.00972
G1 X111.016 Y107.562 E0.00992
G1 X111.002 Y107.232 E0.01037
G1 X111.057 Y106.847 E0.01218
G1 X111.160 Y106.561 E0.00953
G1 X111.352 Y106.258 E0.01127
G1 X111.614 Y106.016 E0.01115
G1 X111.872 Y105.871 E0.00929
G1 X112.228 Y105.765 E0.01166
G1 X112.547 Y105.738 E0.01002
G1 X113.004 Y105.781 E0.01439
G1 X113.569 Y105.963 E0.01862
G1 X113.392 Y106.744 E0.02512
G1 X112.900 Y106.576 E0.01631
G1 X112.642 Y106.549 E0.00813
G1 X112.421 Y106.579 E0.00700
G1 X112.238 Y106.660 E0.00628
G1 X112.092 Y106.790 E0.00612
G1 X111.985 Y106.969 E0.00654
G1 X111.925 Y107.203 E0.00755
G1 X111.924 Y107.464 E0.00819
G1 X111.977 Y107.692 E0.00734
G1 X112.056 Y107.847 E0.00546
G1 X112.167 Y107.972 E0.00523
G1 X112.307 Y108.065 E0.00528
G1 X112.483 Y108.123 E0.00582
G1 X112.719 Y108.138 E0.00741
G1 X112.919 Y108.112 E0.00631
G1 X113.361 Y107.951 E0.01475
G1 X113.406 Y108.106 E0.00505
G1 X113.808 Y108.106 E0.01258
G1 X113.810 Y106.729 E0.04315
G1 X113.841 Y106.450 E0.00883
G1 X113.921 Y106.197 E0.00831
G1 X114.076 Y105.981 E0.00833
G1 X114.257 Y105.847 E0.00706
G1 X114.471 Y105.767 E0.00717
G1 X114.705 Y105.738 E0.00739
G1 X115.013 Y105.758 E0.00966
G1 X115.387 Y105.855 E0.01213
G1 X115.341 Y106.626 E0.02422
G1 X114.949 Y106.563 E0.01246
G1 X114.794 Y106.573 E0.00486
G1 X114.738 Y106.639 E0.00272
G1 X114.705 Y106.855 E0.00685
G1 X114.705 Y108.106 E0.03920
G1 X115.405 Y108.106 E0.02195
G1 X115.405 Y108.838 E0.02296
G1 X115.501 Y109.286 F7800.000
G1 F6240
G1 X114.973 Y108.875 E-0.47500
G1 E-0.02500 F7200.00000
G1 Z0.800 F7800.000
G1 X115.495 Y109.688 F7800.000
G1 X115.495 Y107.344 F7800.000
G1 X114.752 Y107.392 F7800.000
G1 X113.839 Y105.130 F7800.000
G1 X113.667 Y103.019 F7800.000
G1 X112.304 Y103.700 F7800.000
G1 X111.386 Y104.357 F7800.000
G1 X110.534 Y105.257 F7800.000
G1 X110.102 Y105.007 F7800.000
G1 X109.864 Y104.595 F7800.000
G1 Z0.200 F7800.000
G1 E0.50000 F7200.00000
G1 F1800
G1 X105.136 Y104.595 E0.14824
G1 X102.772 Y100.500 E0.14824
G1 X105.136 Y96.405 E0.14824
G1 X109.864 Y96.405 E0.14824
G1 X112.228 Y100.500 E0.14824
G1 X109.894 Y104.543 E0.14636
G1 X109.646 Y104.217 F7800.000
G1 F1800
G1 X105.354 Y104.217 E0.13459
G1 X103.207 Y100.500 E0.13459
G1 X105.354 Y96.783 E0.13459
G1 X109.646 Y96.783 E0.13459
G1 X111.793 Y100.500 E0.13459
G1 X109.676 Y104.166 E0.13271
G1 X109.646 Y104.617 F7800.000
G1 F6240
G1 X109.243 Y104.171 E-0.47500
G1 E-0.02500 F7200.00000
G1 Z0.800 F7800.000
G1 X110.102 Y105.007 F7800.000
G1 X110.102 Y105.618 F7800.000
G1 X109.505 Y105.986 F7800.000
G1 X107.638 Y106.288 F7800.000
G1 X105.560 Y105.007 F7800.000
G1 X104.648 Y105.529 F7800.000
G1 X104.751 Y105.241 F7800.000
G1 X104.522 Y104.391 F7800.000
G1 X103.822 Y104.187 F7800.000
G1 X103.300 Y105.367 F7800.000
G1 X100.860 Y105.367 F7800.000
G1 X100.860 Y103.654 F7800.000
G1 X100.280 Y102.321 F7800.000
G1 X98.420 Y102.321 F7800.000
G1 X98.130 Y102.559 F7800.000
G1 X97.427 Y101.373 F7800.000
G1 Z0.200 F7800.000
G1 E0.50000 F7200.00000
G1 F1800
G1 X97.427 Y107.347 E0.18732
G1 X93.373 Y107.347 E0.12712
G1 X93.373 Y103.293 E0.12712
G1 X95.293 Y103.293 E0.06020
G1 X95.293 Y101.373 E0.06020
G1 X97.367 Y101.373 E0.06503
G1 X97.050 Y101.750 F7800.000
G1 F1800
G1 X97.050 Y106.970 E0.16367
G1 X95.670 Y106.970 E0.04327
G1 X95.670 Y105.050 E0.06020
G1 X95.130 Y105.050 E0.01693
G1 X95.130 Y106.970 E0.06020
G1 X93.750 Y106.970 E0.04327
G1 X93.750 Y103.670 E0.10347
G1 X95.670 Y103.670 E0.06020
G1 X95.670 Y101.750 E0.06020
G1 X96.990 Y101.750 E0.04139
G1 X97.430 Y101.626 F7800.000
G1 F6240
G1 X96.995 Y102.183 E-0.47500
G1 E-0.02500 F7200.00000
G1 Z0.800 F7800.000
G1 X102.887 Y101.873 F7800.000
G1 Z0.200 F7800.000
G1 E0.50000 F7200.00000
G1 F1800
G1 X100.542 Y101.873 E0.07351
G1 X101.137 Y101.569 E0.02092
G1 X101.605 Y101.185 E0.01899
G1 X101.989 Y100.717 E0.01899
G1 X102.275 Y100.182 E0.01899
G1 X102.451 Y99.603 E0.01899
G1 X102.510 Y99.000 E0.01899
G1 X102.451 Y98.397 E0.01899
G1 X102.275 Y97.818 E0.01899
G1 X101.989 Y97.283 E0.01899
G1 X101.605 Y96.815 E0.01899
G1 X101.137 Y96.431 E0.01899
G1 X100.602 Y96.145 E0.01899
G1 X100.023 Y95.969 E0.01900
G1 X99.417 Y95.910 E0.01909
G1 X98.817 Y95.970 E0.01889
G1 X98.238 Y96.145 E0.01899
G1 X97.703 Y96.431 E0.01899
G1 X97.235 Y96.815 E0.01899
G1 X96.851 Y97.283 E0.01899
G1 X96.565 Y97.818 E0.01899
G1 X96.430 Y98.262 E0.01456
G1 X96.328 Y97.951 E0.01028
G1 X96.078 Y97.509 E0.01592
G1 X95.746 Y97.124 E0.01592
G1 X95.346 Y96.812 E0.01592
G1 X94.892 Y96.584 E0.01592
G1 X94.403 Y96.448 E0.01592
G1 X93.896 Y96.411 E0.01592
G1 X93.393 Y96.473 E0.01592
G1 X92.910 Y96.632 E0.01592
G1 X92.469 Y96.883 E0.01592
G1 X92.084 Y97.214 E0.01592
G1 X91.772 Y97.614 E0.01592
G1 X91.544 Y98.068 E0.01592
G1 X91.471 Y98.332 E0.00858
G1 X91.431 Y98.200 E0.00430
G1 X91.238 Y97.839 E0.01285
G1 X90.978 Y97.522 E0.01285
G1 X90.661 Y97.262 E0.01285
G1 X90.300 Y97.069 E0.01285
G1 X89.908 Y96.950 E0.01285
G1 X89.498 Y96.910 E0.01291
G1 X89.092 Y96.950 E0.01278
G1 X88.700 Y97.069 E0.01284
G1 X88.339 Y97.262 E0.01285
G1 X88.022 Y97.522 E0.01285
G1 X87.762 Y97.839 E0.01285
G1 X87.569 Y98.200 E0.01285
G1 X87.450 Y98.592 E0.01285
G1 X87.410 Y99.000 E0.01285
G1 X87.450 Y99.408 E0.01285
G1 X87.569 Y99.800 E0.01285
G1 X87.762 Y100.161 E0.01285
G1 X88.022 Y100.478 E0.01285
G1 X88.339 Y100.738 E0.01285
G1 X88.700 Y100.931 E0.01285
G1 X88.913 Y100.995 E0.00697
G1 X88.913 Y103.007 E0.06308
G1 X89.873 Y103.007 E0.03010
G1 X89.873 Y104.713 E0.05349
G1 X88.913 Y104.713 E0.03010
G1 X88.913 Y106.847 E0.06691
G1 X92.967 Y106.847 E0.12712
G1 X92.967 Y101.386 E0.17124
G1 X93.517 Y101.552 E0.01802
G1 X94.024 Y101.589 E0.01592
G1 X94.527 Y101.527 E0.01592
G1 X95.010 Y101.368 E0.01592
G1 X95.451 Y101.117 E0.01592
G1 X95.836 Y100.786 E0.01592
G1 X96.148 Y100.386 E0.01592
G1 X96.376 Y99.932 E0.01592
G1 X96.430 Y99.737 E0.00633
G1 X96.565 Y100.182 E0.01458
G1 X96.851 Y100.717 E0.01899
G1 X97.235 Y101.185 E0.01899
G1 X97.703 Y101.569 E0.01899
G1 X98.238 Y101.855 E0.01899
G1 X98.833 Y102.032 E0.01948
G1 X98.833 Y107.738 E0.17891
G1 X98.388 Y108.221 E0.02058
G1 X97.829 Y109.157 E0.03418
G1 X97.527 Y109.594 E0.01667
G1 X97.128 Y109.916 E0.01609
G1 X97.026 Y109.937 E0.00326
G1 X96.791 Y109.895 E0.00748
G1 X95.916 Y109.476 E0.03041
G1 X93.706 Y108.056 E0.08236
G1 X92.622 Y107.539 E0.03767
G1 X92.024 Y107.437 E0.01904
G1 X91.425 Y107.557 E0.01915
G1 X90.660 Y108.174 E0.03081
G1 X90.115 Y108.994 E0.03088
G1 X89.728 Y109.645 E0.02374
G1 X89.513 Y109.878 E0.00992
G1 X89.307 Y109.685 E0.00886
G1 X88.429 Y108.394 E0.04894
G1 X88.077 Y108.006 E0.01643
G1 X87.470 Y107.589 E0.02310
G1 X86.773 Y107.349 E0.02311
G1 X85.513 Y107.167 E0.03991
G1 X84.386 Y107.142 E0.03535
G1 X83.281 Y107.218 E0.03473
G1 X83.087 Y107.251 E0.00615
G1 X83.087 Y106.607 E0.02017
G1 X86.087 Y106.607 E0.09406
G1 X86.087 Y96.873 E0.30521
G1 X83.088 Y96.873 E0.09403
G1 X83.091 Y95.389 E0.04652
G1 X83.135 Y95.029 E0.01137
G1 X83.208 Y94.750 E0.00904
G1 X83.378 Y94.354 E0.01353
G1 X83.627 Y93.981 E0.01404
G1 X83.926 Y93.674 E0.01342
G1 X84.264 Y93.430 E0.01308
G1 X84.580 Y93.271 E0.01112
G1 X84.857 Y93.176 E0.00916
G1 X85.143 Y93.115 E0.00916
G1 X85.522 Y93.087 E0.01192
G1 X129.552 Y93.088 E1.38054
G1 X129.795 Y93.106 E0.00765
G1 X130.257 Y93.210 E0.01483
G1 X130.467 Y93.291 E0.00708
G1 X130.849 Y93.501 E0.01365
G1 X131.198 Y93.787 E0.01415
G1 X131.478 Y94.120 E0.01365
G1 X131.599 Y94.311 E0.00708
G1 X131.700 Y94.513 E0.00708
G1 X131.842 Y94.924 E0.01365
G1 X131.909 Y95.382 E0.01449
G1 X131.909 Y119.615 E0.75981
G1 X131.876 Y119.912 E0.00939
G1 X131.808 Y120.200 E0.00928
