; generated by Slic3r 1.3.0 on 2020-02-17 at 17:33:20

; external perimeters extrusion width = 0.45mm (2.04mm^3/s)
; perimeters extrusion width = 0.45mm (3.66mm^3/s)
; infill extrusion width = 0.45mm (4.88mm^3/s)
; solid infill extrusion width = 0.45mm (4.88mm^3/s)
; top infill extrusion width = 0.45mm (3.26mm^3/s)

M107
M83  ; extruder relative mode
; G28 ; home all 
G0 Z25 ; move z 25 mm up
M104 S265 ; set extruder temp
M140 S85 ; set bed temp
M190 S85 ; wait for bed temp
M109 S265 ; wait for extruder temp
G28 ; home all
; G29 ; mesh bed leveling
G92 E0.0
G1 Y10  F1000.0 ; intro line
G1 X60.0 E9.0  F1000.0 ; intro line
G1 Z0  F1000.0 ; intro line
G1 X100.0 E12.5  F1000.0 ; intro line
G92 E0.0



; Filament gcode

G21 ; set units to millimeters
G90 ; use absolute coordinates
M83 ; use relative distances for extrusion
;BEFORE_LAYER_CHANGE
G92 E0.0
;0.2
G1 E-0.50000 F7200.00000
G1 Z0.680 F7800.000
G1 X80.378 Y98.850 F7800.000
G1 Z0.280 F7800.000
G1 E0.50000 F7200.00000
G1 F900
G1 X80.920 Y98.483 E0.02052
G1 X81.504 Y98.202 E0.02034
G1 X81.906 Y98.065 E0.01331
G1 X82.203 Y97.989 E0.00962
G1 X82.521 Y97.931 E0.01012
G1 X82.904 Y97.891 E0.01207
G1 X106.746 Y96.375 E0.74906
G1 X107.960 Y96.363 E0.03807
G1 X109.193 Y96.433 E0.03873
G1 X110.406 Y96.586 E0.03834
G1 X111.562 Y96.809 E0.03693
G1 X112.722 Y97.112 E0.03758
G1 X113.925 Y97.514 E0.03978
G1 X115.112 Y98.005 E0.04026
G1 X116.107 Y98.497 E0.03482
G1 X116.682 Y98.816 E0.02061
G1 X117.290 Y99.184 E0.02227
G1 X118.211 Y99.807 E0.03488
G1 X119.201 Y100.574 E0.03928
G1 X120.074 Y101.349 E0.03658
G1 X120.988 Y102.279 E0.04090
G1 X121.465 Y102.821 E0.02264
G1 X121.884 Y103.336 E0.02079
G1 X122.328 Y103.928 E0.02323
G1 X122.717 Y104.489 E0.02138
G1 X123.103 Y105.096 E0.02258
G1 X123.386 Y105.583 E0.01766
G1 X123.553 Y105.939 E0.01231
G1 X123.667 Y106.247 E0.01030
G1 X123.769 Y106.619 E0.01209
G1 X123.837 Y107.012 E0.01250
G1 X123.864 Y107.349 E0.01060
G1 X123.860 Y107.729 E0.01194
G1 X123.830 Y108.041 E0.00981
G1 X123.768 Y108.385 E0.01096
G1 X123.691 Y108.676 E0.00945
G1 X123.556 Y109.054 E0.01259
G1 X123.292 Y109.586 E0.01860
G1 X122.637 Y110.631 E0.03868
G1 X121.889 Y111.657 E0.03980
G1 X121.227 Y112.454 E0.03250
G1 X120.447 Y113.287 E0.03578
G1 X119.678 Y114.015 E0.03318
G1 X118.766 Y114.777 E0.03727
G1 X117.999 Y115.345 E0.02993
G1 X117.098 Y115.936 E0.03378
G1 X116.155 Y116.478 E0.03411
G1 X115.175 Y116.966 E0.03433
G1 X114.182 Y117.388 E0.03382
G1 X113.253 Y117.722 E0.03095
G1 X112.296 Y118.009 E0.03134
G1 X111.301 Y118.248 E0.03208
G1 X110.295 Y118.432 E0.03206
G1 X109.097 Y118.575 E0.03783
G1 X107.828 Y118.640 E0.03984
G1 X106.745 Y118.625 E0.03395
G1 X82.905 Y117.110 E0.74899
G1 X82.512 Y117.067 E0.01241
G1 X82.203 Y117.011 E0.00984
G1 X81.900 Y116.933 E0.00980
G1 X81.497 Y116.795 E0.01336
G1 X80.920 Y116.517 E0.02012
G1 X80.496 Y116.239 E0.01588
G1 X80.251 Y116.045 E0.00979
G1 X79.792 Y115.589 E0.02030
G1 X79.406 Y115.073 E0.02019
G1 X79.201 Y114.718 E0.01287
G1 X79.062 Y114.425 E0.01015
G1 X78.857 Y113.840 E0.01945
G1 X78.782 Y113.532 E0.00995
G1 X78.711 Y113.070 E0.01464
G1 X78.683 Y112.558 E0.01609
G1 X78.683 Y107.592 E0.15568
G1 X78.683 Y102.442 E0.16148
G1 X78.711 Y101.928 E0.01615
G1 X78.779 Y101.483 E0.01413
G1 X78.893 Y101.036 E0.01445
G1 X79.062 Y100.575 E0.01541
G1 X79.253 Y100.185 E0.01361
G1 X79.406 Y99.927 E0.00939
G1 X79.705 Y99.514 E0.01599
G1 X80.007 Y99.181 E0.01411
G1 X80.332 Y98.889 E0.01369
G1 X80.609 Y99.148 F7800.000
G1 F900
G1 X81.104 Y98.812 E0.01874
G1 X81.638 Y98.555 E0.01859
G1 X82.016 Y98.426 E0.01253
G1 X82.289 Y98.356 E0.00884
G1 X82.928 Y98.267 E0.02022
G1 X106.746 Y96.753 E0.74829
G1 X107.801 Y96.737 E0.03310
G1 X108.990 Y96.795 E0.03734
G1 X110.174 Y96.931 E0.03736
G1 X111.196 Y97.115 E0.03255
G1 X112.426 Y97.418 E0.03972
G1 X113.533 Y97.772 E0.03645
G1 X114.678 Y98.225 E0.03859
G1 X115.779 Y98.750 E0.03825
G1 X116.759 Y99.300 E0.03524
G1 X117.749 Y99.942 E0.03700
G1 X118.711 Y100.660 E0.03764
G1 X119.598 Y101.421 E0.03664
G1 X120.060 Y101.859 E0.01996
G1 X120.590 Y102.405 E0.02386
G1 X121.009 Y102.869 E0.01961
G1 X121.464 Y103.414 E0.02225
G1 X122.225 Y104.436 E0.03995
G1 X122.642 Y105.069 E0.02377
G1 X123.008 Y105.677 E0.02226
G1 X123.158 Y105.975 E0.01047
G1 X123.293 Y106.317 E0.01150
G1 X123.385 Y106.634 E0.01035
G1 X123.454 Y106.995 E0.01154
G1 X123.484 Y107.285 E0.00913
G1 X123.487 Y107.650 E0.01145
G1 X123.456 Y107.992 E0.01076
G1 X123.401 Y108.299 E0.00979
G1 X123.329 Y108.570 E0.00878
G1 X123.209 Y108.906 E0.01121
G1 X122.968 Y109.394 E0.01706
G1 X122.309 Y110.442 E0.03881
G1 X121.876 Y111.052 E0.02346
G1 X121.510 Y111.529 E0.01884
G1 X120.826 Y112.337 E0.03321
G1 X120.116 Y113.084 E0.03231
G1 X119.327 Y113.822 E0.03388
G1 X118.506 Y114.502 E0.03341
G1 X117.677 Y115.109 E0.03223
G1 X116.790 Y115.682 E0.03310
G1 X115.978 Y116.144 E0.02929
G1 X114.991 Y116.636 E0.03458
G1 X114.029 Y117.043 E0.03274
G1 X113.116 Y117.371 E0.03041
G1 X112.180 Y117.650 E0.03064
G1 X111.080 Y117.909 E0.03543
G1 X109.927 Y118.104 E0.03666
G1 X108.910 Y118.212 E0.03207
G1 X107.820 Y118.263 E0.03422
G1 X106.761 Y118.248 E0.03320
G1 X82.929 Y116.733 E0.74874
G1 X82.289 Y116.644 E0.02027
G1 X82.011 Y116.573 E0.00900
G1 X81.631 Y116.443 E0.01258
G1 X81.103 Y116.187 E0.01839
G1 X80.724 Y115.939 E0.01422
G1 X80.500 Y115.762 E0.00896
G1 X80.080 Y115.345 E0.01854
G1 X79.727 Y114.875 E0.01845
G1 X79.534 Y114.540 E0.01210
G1 X79.407 Y114.271 E0.00932
G1 X79.218 Y113.734 E0.01785
G1 X79.125 Y113.317 E0.01339
G1 X79.086 Y113.035 E0.00893
G1 X79.060 Y112.558 E0.01500
G1 X79.060 Y107.592 E0.15568
G1 X79.060 Y102.442 E0.16148
G1 X79.086 Y101.963 E0.01505
G1 X79.148 Y101.561 E0.01274
G1 X79.255 Y101.143 E0.01355
G1 X79.407 Y100.729 E0.01383
G1 X79.529 Y100.469 E0.00900
G1 X79.726 Y100.126 E0.01242
G1 X79.994 Y99.756 E0.01431
G1 X80.277 Y99.444 E0.01320
G1 X80.563 Y99.186 E0.01207
G1 F6240
G1 X80.621 Y99.139 E-0.08224
G1 F6240
G1 X80.644 Y99.121 E-0.03123
G1 F6240
G1 X80.727 Y99.059 E-0.11405
G1 F6240
G1 X80.865 Y98.961 E-0.18589
G1 F6240
G1 X80.912 Y98.930 E-0.06160
G1 E-0.02500 F7200.00000
G1 Z0.880 F7800.000
G1 X109.984 Y113.259 F7800.000
G1 Z0.280 F7800.000
G1 E0.50000 F7200.00000
G1 F900
G1 X109.764 Y113.077 E0.00892
G1 X109.619 Y112.801 E0.00978
G1 X109.571 Y112.502 E0.00950
G1 X109.634 Y112.256 E0.00797
G1 X109.730 Y112.137 E0.00478
G1 X109.889 Y112.034 E0.00595
G1 X110.367 Y111.896 E0.01557
G1 X110.526 Y111.825 E0.00547
G1 X110.735 Y111.647 E0.00861
G1 X110.873 Y111.418 E0.00840
G1 X111.091 Y110.846 E0.01919
G1 X111.278 Y110.458 E0.01350
G1 X111.339 Y110.227 E0.00748
G1 X111.295 Y110.005 E0.00710
G1 X111.022 Y109.381 E0.02137
G1 X110.428 Y107.776 E0.05366
G1 X110.094 Y106.947 E0.02803
G1 X110.038 Y106.729 E0.00705
G1 X110.005 Y106.457 E0.00859
G1 X110.013 Y106.289 E0.00527
G1 X110.062 Y106.095 E0.00627
G1 X110.139 Y105.965 E0.00471
G1 X110.286 Y105.841 E0.00604
G1 X110.477 Y105.781 E0.00629
G1 X110.631 Y105.772 E0.00482
G1 X110.789 Y105.792 E0.00501
G1 X110.979 Y105.856 E0.00627
G1 X111.121 Y105.939 E0.00515
G1 X111.274 Y106.092 E0.00678
G1 X111.403 Y106.354 E0.00917
G1 X111.590 Y107.004 E0.02121
G1 X112.071 Y108.215 E0.04086
G1 X112.255 Y107.610 E0.01983
G1 X112.587 Y106.647 E0.03194
G1 X112.715 Y106.340 E0.01044
G1 X112.815 Y106.162 E0.00638
G1 X112.969 Y105.966 E0.00782
G1 X113.137 Y105.833 E0.00673
G1 X113.337 Y105.771 E0.00655
G1 X113.505 Y105.788 E0.00532
G1 X113.640 Y105.846 E0.00458
G1 X113.803 Y105.973 E0.00648
G1 X113.905 Y106.096 E0.00502
G1 X114.026 Y106.367 E0.00930
G1 X114.042 Y106.567 E0.00629
G1 X114.018 Y106.718 E0.00480
G1 X113.939 Y106.943 E0.00745
G1 X113.728 Y107.402 E0.01584
G1 X112.603 Y110.599 E0.10628
G1 X111.992 Y112.151 E0.05229
G1 X111.868 Y112.402 E0.00878
G1 X111.698 Y112.674 E0.01006
G1 X111.516 Y112.880 E0.00863
G1 X111.296 Y113.046 E0.00862
G1 X111.026 Y113.179 E0.00945
G1 X110.605 Y113.306 E0.01376
G1 X110.268 Y113.332 E0.01061
G1 X110.042 Y113.274 E0.00733
G1 X109.743 Y113.410 F7800.000
G1 F6240
G1 X109.764 Y113.077 E-0.37257
G1 F6240
G1 X109.721 Y112.995 E-0.10244
G1 E-0.02500 F7200.00000
G1 Z0.880 F7800.000
G1 X109.558 Y114.231 F7800.000
G1 X110.737 Y114.163 F7800.000
G1 X111.886 Y113.765 F7800.000
G1 X113.086 Y112.865 F7800.000
G1 X113.838 Y112.045 F7800.000
G1 X113.581 Y111.133 F7800.000
G1 X113.660 Y109.954 F7800.000
G1 X114.164 Y109.969 F7800.000
G1 X114.609 Y110.512 F7800.000
G1 Z0.280 F7800.000
G1 E0.50000 F7200.00000
G1 F900
G1 X114.504 Y110.225 E0.00958
G1 X114.486 Y109.976 E0.00783
G1 X114.528 Y109.736 E0.00761
G1 X114.627 Y109.496 E0.00816
G1 X114.799 Y109.214 E0.01036
G1 X116.301 Y107.140 E0.08030
G1 X115.880 Y107.185 E0.01327
G1 X115.505 Y107.187 E0.01178
G1 X115.079 Y107.141 E0.01343
G1 X114.925 Y107.095 E0.00505
G1 X114.743 Y106.996 E0.00647
G1 X114.592 Y106.801 E0.00777
G1 X114.531 Y106.589 E0.00691
G1 X114.533 Y106.351 E0.00744
G1 X114.630 Y106.077 E0.00911
G1 X114.774 Y105.926 E0.00657
G1 X114.959 Y105.835 E0.00645
G1 X115.184 Y105.787 E0.00722
G1 X115.406 Y105.771 E0.00699
G1 X117.549 Y105.775 E0.06719
G1 X117.822 Y105.842 E0.00880
G1 X117.982 Y105.961 E0.00627
G1 X118.071 Y106.086 E0.00478
G1 X118.154 Y106.331 E0.00811
G1 X118.168 Y106.583 E0.00791
G1 X118.116 Y106.856 E0.00871
G1 X118.012 Y107.092 E0.00809
G1 X117.772 Y107.458 E0.01373
G1 X116.547 Y109.179 E0.06623
G1 X116.411 Y109.412 E0.00846
G1 X117.240 Y109.373 E0.02602
G1 X117.687 Y109.423 E0.01409
G1 X117.952 Y109.523 E0.00888
G1 X118.072 Y109.614 E0.00471
G1 X118.184 Y109.771 E0.00605
G1 X118.242 Y109.968 E0.00646
G1 X118.250 Y110.128 E0.00501
G1 X118.220 Y110.319 E0.00607
G1 X118.162 Y110.460 E0.00478
G1 X118.081 Y110.576 E0.00442
G1 X117.926 Y110.692 E0.00608
G1 X117.728 Y110.760 E0.00658
G1 X117.459 Y110.789 E0.00845
G1 X115.730 Y110.784 E0.05421
G1 X115.153 Y110.813 E0.01814
G1 X114.996 Y110.793 E0.00494
G1 X114.809 Y110.720 E0.00631
G1 X114.651 Y110.555 E0.00715
G1 X114.304 Y110.519 F7800.000
G1 F6240
G1 X114.504 Y110.225 E-0.39622
G1 F6240
G1 X114.499 Y110.153 E-0.07879
G1 E-0.02500 F7200.00000
G1 Z0.880 F7800.000
G1 X114.164 Y109.969 F7800.000
G1 X113.211 Y104.724 F7800.000
G1 X113.298 Y105.388 F7800.000
G1 Z0.280 F7800.000
G1 E0.50000 F7200.00000
G1 F900
G1 X112.959 Y105.494 E0.01115
G1 X112.699 Y105.698 E0.01035
G1 X112.500 Y105.953 E0.01014
G1 X112.376 Y106.174 E0.00797
G1 X112.235 Y106.513 E0.01151
G1 X112.032 Y107.099 E0.01945
G1 X111.947 Y106.883 E0.00728
G1 X111.757 Y106.218 E0.02169
G1 X111.585 Y105.869 E0.01221
G1 X111.353 Y105.639 E0.01025
G1 X111.137 Y105.511 E0.00787
G1 X110.874 Y105.423 E0.00869
G1 X110.644 Y105.394 E0.00726
G1 X110.409 Y105.407 E0.00739
G1 X110.101 Y105.505 E0.01013
G1 X109.847 Y105.718 E0.01041
G1 X109.711 Y105.950 E0.00841
G1 X109.667 Y106.118 E0.00545
G1 X109.639 Y105.997 E0.00389
G1 X109.397 Y105.665 E0.01289
G1 X109.023 Y105.426 E0.01392
G1 X108.574 Y105.389 E0.01413
G1 X108.187 Y105.555 E0.01319
G1 X107.932 Y105.767 E0.01040
G1 X107.672 Y106.100 E0.01324
G1 X107.483 Y105.826 E0.01045
G1 X107.263 Y105.613 E0.00960
G1 X107.060 Y105.485 E0.00753
G1 X106.776 Y105.397 E0.00933
G1 X106.504 Y105.394 E0.00851
G1 X106.100 Y105.520 E0.01328
G1 X105.754 Y105.808 E0.01409
G1 X105.579 Y106.214 E0.01389
G1 X105.602 Y106.633 E0.01315
G1 X105.710 Y106.953 E0.01059
G1 X105.821 Y107.177 E0.00785
G1 X106.296 Y108.013 E0.03013
G1 X106.461 Y108.262 E0.00938
G1 X106.205 Y108.624 E0.01391
G1 X105.778 Y109.372 E0.02699
G1 X105.672 Y109.122 E0.00852
G1 X105.520 Y108.885 E0.00881
G1 X105.327 Y108.679 E0.00885
G1 X105.104 Y108.513 E0.00873
G1 X104.853 Y108.386 E0.00882
G1 X104.576 Y108.304 E0.00906
G1 X104.252 Y108.275 E0.01020
G1 X103.896 Y108.319 E0.01122
G1 X103.614 Y108.416 E0.00937
G1 X103.693 Y107.869 E0.01733
G1 X103.708 Y107.480 E0.01220
G1 X103.687 Y106.937 E0.01705
G1 X103.585 Y106.293 E0.02043
G1 X103.499 Y105.984 E0.01006
G1 X103.337 Y105.573 E0.01384
G1 X103.056 Y105.095 E0.01739
G1 X102.741 Y104.727 E0.01519
G1 X102.339 Y104.406 E0.01613
G1 X101.890 Y104.187 E0.01566
G1 X101.361 Y104.049 E0.01715
G1 X100.865 Y103.984 E0.01568
G1 X99.212 Y103.946 E0.05185
G1 X98.842 Y103.985 E0.01169
G1 X98.442 Y104.140 E0.01344
G1 X98.121 Y104.452 E0.01404
G1 X98.001 Y104.886 E0.01411
G1 X98.047 Y105.563 E0.02127
G1 X98.042 Y109.159 E0.11276
G1 X98.025 Y109.778 E0.01942
G1 X98.054 Y110.110 E0.01044
G1 X98.145 Y110.419 E0.01011
G1 X98.313 Y110.694 E0.01010
G1 X98.556 Y110.891 E0.00979
G1 X98.798 Y110.982 E0.00814
G1 X99.090 Y111.006 E0.00917
G1 X99.548 Y110.963 E0.01443
G1 X100.358 Y110.971 E0.02539
G1 X100.911 Y110.943 E0.01738
G1 X101.500 Y110.848 E0.01869
G1 X101.989 Y110.683 E0.01619
G1 X102.344 Y110.483 E0.01274
G1 X102.712 Y110.182 E0.01493
G1 X102.825 Y110.534 E0.01161
G1 X102.974 Y110.787 E0.00920
G1 X103.165 Y111.010 E0.00921
G1 X103.481 Y111.248 E0.01241
G1 X103.752 Y111.368 E0.00928
G1 X104.023 Y111.434 E0.00876
G1 X104.302 Y111.453 E0.00878
G1 X104.581 Y111.423 E0.00878
G1 X104.864 Y111.340 E0.00926
G1 X105.209 Y111.147 E0.01239
G1 X105.429 Y110.950 E0.00925
G1 X105.637 Y110.662 E0.01116
G1 X105.862 Y110.926 E0.01090
G1 X106.242 Y111.136 E0.01361
G1 X106.694 Y111.180 E0.01424
G1 X107.092 Y110.997 E0.01372
G1 X107.327 Y110.764 E0.01039
G1 X107.620 Y110.333 E0.01631
G1 X107.746 Y110.562 E0.00818
G1 X107.981 Y110.886 E0.01256
G1 X108.247 Y111.086 E0.01042
G1 X108.574 Y111.185 E0.01073
G1 X108.918 Y111.177 E0.01079
G1 X109.254 Y111.068 E0.01106
G1 X109.578 Y110.807 E0.01304
G1 X109.744 Y110.474 E0.01165
G1 X109.787 Y110.126 E0.01102
G1 X109.734 Y109.772 E0.01120
G1 X109.569 Y109.404 E0.01267
G1 X108.892 Y108.277 E0.04120
G1 X108.874 Y108.217 E0.00199
G1 X108.928 Y108.065 E0.00504
G1 X109.630 Y106.878 E0.04325
G1 X109.661 Y106.755 E0.00397
G1 X109.734 Y107.064 E0.00997
G1 X110.076 Y107.912 E0.02864
G1 X110.672 Y109.522 E0.05384
G1 X110.941 Y110.136 E0.02101
G1 X110.958 Y110.214 E0.00253
G1 X110.929 Y110.312 E0.00318
G1 X110.745 Y110.697 E0.01340
G1 X110.533 Y111.252 E0.01864
G1 X110.433 Y111.418 E0.00608
G1 X110.335 Y111.498 E0.00395
G1 X110.237 Y111.541 E0.00335
G1 X109.731 Y111.687 E0.01651
G1 X109.475 Y111.853 E0.00959
G1 X109.289 Y112.083 E0.00924
G1 X109.187 Y112.484 E0.01298
G1 X109.256 Y112.922 E0.01391
G1 X109.466 Y113.320 E0.01411
G1 X109.808 Y113.603 E0.01391
G1 X110.235 Y113.713 E0.01382
G1 X110.675 Y113.678 E0.01386
G1 X111.165 Y113.531 E0.01602
G1 X111.495 Y113.368 E0.01155
G1 X111.773 Y113.158 E0.01091
G1 X112.001 Y112.901 E0.01080
G1 X112.198 Y112.586 E0.01165
G1 X112.337 Y112.303 E0.00986
G1 X112.956 Y110.731 E0.05299
G1 X114.078 Y107.544 E0.10595
G1 X114.303 Y107.044 E0.01717
G1 X114.494 Y107.290 E0.00974
G1 X114.779 Y107.445 E0.01020
G1 X115.005 Y107.512 E0.00736
G1 X115.529 Y107.564 E0.01652
G1 X114.484 Y109.004 E0.05579
G1 X114.289 Y109.325 E0.01176
G1 X114.163 Y109.631 E0.01039
G1 X114.107 Y109.957 E0.01035
G1 X114.132 Y110.305 E0.01094
G1 X114.283 Y110.715 E0.01372
G1 X114.594 Y111.040 E0.01411
G1 X114.903 Y111.161 E0.01040
G1 X115.138 Y111.191 E0.00745
G1 X115.739 Y111.161 E0.01886
G1 X117.305 Y111.166 E0.04910
G1 X116.594 Y111.792 E0.02972
G1 X116.043 Y112.219 E0.02185
G1 X115.546 Y112.570 E0.01908
G1 X114.851 Y113.009 E0.02577
G1 X114.306 Y113.316 E0.01961
G1 X113.599 Y113.671 E0.02480
G1 X112.732 Y114.041 E0.02956
G1 X111.894 Y114.337 E0.02787
G1 X110.924 Y114.608 E0.03159
G1 X109.994 Y114.802 E0.02979
G1 X109.150 Y114.922 E0.02673
G1 X108.267 Y114.994 E0.02777
G1 X107.329 Y115.010 E0.02940
G1 X106.678 Y114.985 E0.02046
G1 X83.324 Y113.566 E0.73359
G1 X83.132 Y113.542 E0.00605
G1 X82.882 Y113.464 E0.00823
G1 X82.630 Y113.310 E0.00924
G1 X82.538 Y113.223 E0.00397
G1 X82.379 Y113.008 E0.00841
G1 X82.260 Y112.711 E0.01001
G1 X82.215 Y112.359 E0.01113
G1 X82.216 Y109.098 E0.10227
G1 X82.396 Y109.541 E0.01499
G1 X82.615 Y109.903 E0.01329
G1 X82.792 Y110.130 E0.00900
G1 X82.988 Y110.338 E0.00898
G1 X83.312 Y110.606 E0.01316
G1 X83.789 Y110.880 E0.01726
G1 X84.342 Y111.065 E0.01830
G1 X84.668 Y111.120 E0.01034
G1 X85.132 Y111.144 E0.01459
G1 X85.571 Y111.115 E0.01379
G1 X85.964 Y111.039 E0.01255
G1 X86.322 Y110.911 E0.01193
G1 X86.559 Y110.787 E0.00837
