; generated by Slic3r 1.3.0 on 2020-08-01 at 17:55:42

; external perimeters extrusion width = 0.45mm (2.48mm^3/s)
; perimeters extrusion width = 0.45mm (3.47mm^3/s)
; infill extrusion width = 0.45mm (3.96mm^3/s)
; solid infill extrusion width = 0.45mm (2.97mm^3/s)
; top infill extrusion width = 0.45mm (2.97mm^3/s)

M107
M83  ; extruder relative mode
; G28 ; home all 
G0 Z25 ; move z 25 mm up
M104 S230 ; set extruder temp
M140 S85 ; set bed temp
M190 S85 ; wait for bed temp
M109 S230 ; wait for extruder temp
G28 ; home all
G29 ; mesh bed leveling
G92 E0.0
G1 Y10  F1000.0 ; intro line
G1 X60.0 E9.0  F1000.0 ; intro line
G1 Z0  F1000.0 ; intro line
G1 X100.0 E12.5  F1000.0 ; intro line
G92 E0.0



; Filament gcode

G21 ; set units to millimeters
G90 ; use absolute coordinates
M83 ; use relative distances for extrusion
;BEFORE_LAYER_CHANGE
G92 E0.0
;0.25
G1 E-0.20000 F7200.00000
G1 Z0.700 F7800.000
G1 X99.085 Y80.565 F7800.000
G1 Z0.350 F7800.000
G1 E0.20000 F7200.00000
G1 F900
G1 X99.386 Y80.225 E0.01731
G1 X99.603 Y80.023 E0.01127
G1 X99.916 Y79.777 E0.01514
G1 X100.303 Y79.535 E0.01738
G1 X100.675 Y79.354 E0.01576
G1 X101.081 Y79.205 E0.01647
G1 X101.501 Y79.099 E0.01649
G1 X101.905 Y79.037 E0.01556
G1 X102.377 Y79.012 E0.01803
G1 X107.796 Y79.011 E0.20633
G1 X112.623 Y79.012 E0.18379
G1 X113.101 Y79.038 E0.01824
G1 X113.501 Y79.099 E0.01539
G1 X113.782 Y79.165 E0.01100
G1 X114.313 Y79.349 E0.02139
G1 X114.591 Y79.479 E0.01167
G1 X114.933 Y79.676 E0.01504
G1 X115.404 Y80.028 E0.02241
G1 X115.614 Y80.225 E0.01094
G1 X115.908 Y80.556 E0.01687
G1 X116.245 Y81.052 E0.02286
G1 X116.511 Y81.609 E0.02349
G1 X116.698 Y82.230 E0.02467
G1 X116.788 Y82.867 E0.02450
G1 X118.326 Y106.709 E0.90974
G1 X118.342 Y107.788 E0.04111
G1 X118.285 Y108.993 E0.04591
G1 X118.148 Y110.183 E0.04562
G1 X117.970 Y111.182 E0.03863
G1 X117.743 Y112.147 E0.03777
G1 X117.460 Y113.107 E0.03809
G1 X117.095 Y114.129 E0.04133
G1 X116.708 Y115.041 E0.03772
G1 X116.301 Y115.873 E0.03528
G1 X115.769 Y116.822 E0.04141
G1 X115.259 Y117.623 E0.03615
G1 X114.568 Y118.578 E0.04492
G1 X113.904 Y119.385 E0.03979
G1 X113.178 Y120.171 E0.04074
G1 X112.292 Y121.013 E0.04653
G1 X111.480 Y121.692 E0.04031
G1 X110.869 Y122.152 E0.02915
G1 X110.356 Y122.509 E0.02379
G1 X109.375 Y123.121 E0.04401
G1 X108.806 Y123.393 E0.02400
G1 X108.297 Y123.545 E0.02025
G1 X107.994 Y123.599 E0.01172
G1 X107.649 Y123.630 E0.01317
G1 X107.344 Y123.630 E0.01162
G1 X106.993 Y123.597 E0.01345
G1 X106.630 Y123.528 E0.01405
G1 X106.326 Y123.439 E0.01205
G1 X105.989 Y123.307 E0.01380
G1 X105.674 Y123.149 E0.01341
G1 X104.536 Y122.436 E0.05113
G1 X103.923 Y122.001 E0.02863
G1 X103.425 Y121.616 E0.02398
G1 X102.944 Y121.219 E0.02374
G1 X102.383 Y120.716 E0.02868
G1 X101.937 Y120.286 E0.02360
G1 X101.432 Y119.760 E0.02776
G1 X100.642 Y118.844 E0.04607
G1 X99.911 Y117.871 E0.04632
G1 X99.314 Y116.959 E0.04152
G1 X98.709 Y115.889 E0.04680
G1 X98.179 Y114.786 E0.04663
G1 X97.706 Y113.598 E0.04866
G1 X97.349 Y112.482 E0.04464
G1 X97.073 Y111.388 E0.04296
G1 X96.859 Y110.226 E0.04497
G1 X96.770 Y109.561 E0.02556
G1 X96.707 Y108.886 E0.02580
G1 X96.656 Y107.616 E0.04843
G1 X96.694 Y106.354 E0.04807
G1 X98.218 Y82.793 E0.89901
G1 X98.302 Y82.230 E0.02169
G1 X98.459 Y81.688 E0.02148
G1 X98.694 Y81.161 E0.02196
G1 X98.840 Y80.911 E0.01101
G1 X99.048 Y80.613 E0.01387
G1 F6240
G1 X99.157 Y80.478 E-0.19000
G1 E-0.01000 F7200.00000
G1 Z0.950 F7800.000
G1 X109.084 Y117.939 F7800.000
G1 Z0.350 F7800.000
G1 E0.20000 F7200.00000
G1 F900
G1 X108.880 Y118.089 E0.00964
G1 X108.587 Y118.166 E0.01155
G1 X108.254 Y118.146 E0.01270
G1 X107.986 Y118.052 E0.01082
G1 X107.543 Y117.773 E0.01992
G1 X105.729 Y116.487 E0.08467
G1 X105.588 Y116.411 E0.00612
G1 X105.626 Y117.238 E0.03151
G1 X105.593 Y117.603 E0.01394
G1 X105.505 Y117.904 E0.01194
G1 X105.339 Y118.118 E0.01033
G1 X105.109 Y118.227 E0.00970
G1 X104.948 Y118.251 E0.00617
G1 X104.746 Y118.237 E0.00772
G1 X104.480 Y118.129 E0.01092
G1 X104.346 Y117.988 E0.00742
G1 X104.276 Y117.856 E0.00568
G1 X104.217 Y117.570 E0.01112
G1 X104.216 Y115.729 E0.07009
G1 X104.192 Y115.075 E0.02493
G1 X104.249 Y114.867 E0.00824
G1 X104.408 Y114.667 E0.00972
G1 X104.628 Y114.546 E0.00955
G1 X104.892 Y114.489 E0.01028
G1 X105.112 Y114.495 E0.00838
G1 X105.271 Y114.530 E0.00622
G1 X105.590 Y114.672 E0.01330
G1 X107.855 Y116.297 E0.10616
G1 X107.808 Y115.629 E0.02553
G1 X107.845 Y115.155 E0.01810
G1 X107.931 Y114.857 E0.01180
G1 X108.091 Y114.657 E0.00974
G1 X108.265 Y114.567 E0.00748
G1 X108.421 Y114.530 E0.00609
G1 X108.721 Y114.546 E0.01145
G1 X108.975 Y114.668 E0.01075
G1 X109.090 Y114.801 E0.00667
G1 X109.165 Y114.961 E0.00672
G1 X109.213 Y115.184 E0.00870
G1 X109.229 Y115.406 E0.00849
G1 X109.229 Y117.462 E0.07830
G1 X109.199 Y117.704 E0.00928
G1 X109.110 Y117.885 E0.00767
G1 X109.165 Y118.179 F7800.000
G1 F6240
G1 X108.981 Y118.000 E-0.19000
G1 E-0.01000 F7200.00000
G1 Z0.950 F7800.000
G1 X109.161 Y113.634 F7800.000
G1 Z0.350 F7800.000
G1 E0.20000 F7200.00000
G1 F900
G1 X108.976 Y113.853 E0.01091
G1 X108.707 Y114.004 E0.01175
G1 X108.496 Y114.045 E0.00820
G1 X108.214 Y114.001 E0.01084
G1 X107.488 Y113.688 E0.03010
G1 X106.840 Y113.474 E0.02601
G1 X104.180 Y112.522 E0.10756
G1 X103.011 Y112.063 E0.04782
G1 X102.498 Y111.812 E0.02176
G1 X102.184 Y111.582 E0.01483
G1 X101.954 Y111.297 E0.01393
G1 X101.785 Y110.929 E0.01542
G1 X101.717 Y110.702 E0.00900
G1 X101.670 Y110.424 E0.01074
G1 X101.689 Y110.126 E0.01139
G1 X101.816 Y109.869 E0.01093
G1 X101.982 Y109.724 E0.00838
G1 X102.124 Y109.649 E0.00612
G1 X102.277 Y109.597 E0.00616
G1 X102.459 Y109.574 E0.00698
G1 X102.704 Y109.613 E0.00941
G1 X102.895 Y109.765 E0.00932
G1 X102.991 Y109.951 E0.00795
G1 X103.147 Y110.472 E0.02071
G1 X103.239 Y110.618 E0.00657
G1 X103.356 Y110.737 E0.00636
G1 X103.582 Y110.873 E0.01005
G1 X104.154 Y111.091 E0.02331
G1 X104.542 Y111.278 E0.01640
G1 X104.773 Y111.339 E0.00909
G1 X104.995 Y111.295 E0.00862
G1 X105.619 Y111.022 E0.02595
G1 X107.224 Y110.428 E0.06516
G1 X108.053 Y110.094 E0.03404
G1 X108.271 Y110.038 E0.00856
G1 X108.547 Y110.004 E0.01058
G1 X108.780 Y110.024 E0.00890
G1 X108.964 Y110.092 E0.00747
G1 X109.084 Y110.184 E0.00577
G1 X109.187 Y110.349 E0.00740
G1 X109.231 Y110.583 E0.00909
G1 X109.187 Y110.867 E0.01094
G1 X109.104 Y111.058 E0.00792
G1 X108.913 Y111.272 E0.01092
G1 X108.646 Y111.403 E0.01135
G1 X107.996 Y111.590 E0.02576
G1 X106.785 Y112.071 E0.04963
G1 X107.390 Y112.255 E0.02408
G1 X108.355 Y112.588 E0.03888
G1 X108.752 Y112.763 E0.01652
G1 X108.980 Y112.919 E0.01052
G1 X109.168 Y113.134 E0.01089
G1 X109.235 Y113.380 E0.00970
G1 X109.178 Y113.577 E0.00779
G1 X109.317 Y113.875 F7800.000
G1 F6240
G1 X109.076 Y113.717 E-0.19000
G1 E-0.01000 F7200.00000
G1 Z0.950 F7800.000
G1 X109.145 Y109.020 F7800.000
G1 Z0.350 F7800.000
G1 E0.20000 F7200.00000
G1 F900
G1 X108.976 Y109.205 E0.00954
G1 X108.777 Y109.316 E0.00867
G1 X108.572 Y109.350 E0.00790
G1 X108.395 Y109.324 E0.00683
G1 X108.104 Y109.191 E0.01218
G1 X107.104 Y108.590 E0.04441
G1 X106.936 Y108.520 E0.00694
G1 X106.756 Y108.494 E0.00691
G1 X106.562 Y108.549 E0.00768
G1 X105.424 Y109.232 E0.05054
G1 X105.196 Y109.344 E0.00967
G1 X105.031 Y109.390 E0.00653
G1 X104.796 Y109.404 E0.00895
G1 X104.632 Y109.375 E0.00635
G1 X104.441 Y109.280 E0.00812
G1 X104.301 Y109.126 E0.00793
G1 X104.198 Y108.876 E0.01027
G1 X104.204 Y108.552 E0.01236
G1 X104.327 Y108.311 E0.01030
G1 X104.488 Y108.164 E0.00832
G1 X104.646 Y108.062 E0.00714
G1 X105.471 Y107.605 E0.03590
G1 X105.099 Y107.436 E0.01554
G1 X104.772 Y107.244 E0.01444
G1 X104.478 Y107.036 E0.01373
G1 X104.280 Y106.822 E0.01109
G1 X104.202 Y106.570 E0.01005
G1 X104.233 Y106.362 E0.00800
G1 X104.295 Y106.216 E0.00604
G1 X104.473 Y106.006 E0.01047
G1 X104.608 Y105.928 E0.00594
G1 X104.769 Y105.889 E0.00631
G1 X105.011 Y105.909 E0.00926
G1 X105.326 Y106.033 E0.01288
G1 X106.259 Y106.576 E0.04111
G1 X106.636 Y106.850 E0.01773
G1 X106.727 Y106.883 E0.00371
G1 X106.833 Y106.851 E0.00421
G1 X107.186 Y106.617 E0.01611
G1 X108.187 Y106.061 E0.04360
G1 X108.431 Y105.978 E0.00981
G1 X108.583 Y105.957 E0.00587
G1 X108.768 Y105.974 E0.00708
G1 X108.913 Y106.035 E0.00598
G1 X109.104 Y106.218 E0.01007
G1 X109.220 Y106.496 E0.01148
G1 X109.217 Y106.778 E0.01072
G1 X109.096 Y107.021 E0.01035
G1 X108.933 Y107.190 E0.00895
G1 X108.786 Y107.302 E0.00702
G1 X108.598 Y107.422 E0.00851
G1 X108.080 Y107.688 E0.02217
G1 X108.569 Y107.914 E0.02050
G1 X108.745 Y108.018 E0.00779
G1 X108.965 Y108.200 E0.01088
G1 X109.117 Y108.383 E0.00904
G1 X109.209 Y108.572 E0.00800
G1 X109.232 Y108.777 E0.00786
G1 X109.166 Y108.964 E0.00756
G1 X109.266 Y109.240 F7800.000
G1 F6240
G1 X109.058 Y109.100 E-0.19000
G1 E-0.01000 F7200.00000
G1 Z0.950 F7800.000
G1 X109.867 Y109.616 F7800.000
G1 X111.229 Y109.822 F7800.000
G1 X112.122 Y109.729 F7800.000
G1 X112.314 Y106.820 F7800.000
G1 X112.053 Y104.932 F7800.000
G1 X109.256 Y104.508 F7800.000
G1 X107.691 Y104.706 F7800.000
G1 X106.839 Y105.709 F7800.000
G1 X106.035 Y105.072 F7800.000
G1 X105.882 Y105.222 F7800.000
G1 Z0.350 F7800.000
G1 E0.20000 F7200.00000
G1 F900
G1 X105.702 Y105.338 E0.00816
G1 X105.500 Y105.423 E0.00832
G1 X105.194 Y105.478 E0.01185
G1 X104.975 Y105.468 E0.00836
G1 X104.762 Y105.420 E0.00831
G1 X104.481 Y105.287 E0.01183
G1 X104.308 Y105.153 E0.00836
G1 X104.162 Y104.989 E0.00835
G1 X104.010 Y104.717 E0.01185
G1 X103.948 Y104.507 E0.00836
G1 X103.925 Y104.295 E0.00812
G1 X103.940 Y104.081 E0.00815
G1 X103.991 Y103.874 E0.00811
G1 X104.080 Y103.674 E0.00837
G1 X104.267 Y103.424 E0.01187
G1 X104.433 Y103.282 E0.00832
G1 X104.617 Y103.174 E0.00814
G1 X104.821 Y103.099 E0.00826
G1 X105.090 Y103.059 E0.01037
G1 X105.347 Y103.075 E0.00981
G1 X105.555 Y103.133 E0.00822
G1 X105.749 Y103.224 E0.00814
G1 X105.923 Y103.349 E0.00818
G1 X106.075 Y103.504 E0.00828
G1 X106.240 Y103.769 E0.01188
G1 X106.311 Y103.977 E0.00837
G1 X106.344 Y104.192 E0.00827
G1 X106.324 Y104.502 E0.01184
G1 X106.262 Y104.713 E0.00837
G1 X106.165 Y104.904 E0.00816
G1 X106.038 Y105.075 E0.00809
G1 X105.926 Y105.181 E0.00589
G1 X105.911 Y105.434 F7800.000
G1 F6240
G1 X105.784 Y105.280 E-0.19000
G1 E-0.01000 F7200.00000
G1 Z0.950 F7800.000
G1 X106.035 Y105.072 F7800.000
G1 X104.724 Y97.708 F7800.000
G1 X104.610 Y98.559 F7800.000
G1 Z0.350 F7800.000
G1 E0.20000 F7200.00000
G1 F900
G1 X104.879 Y98.444 E0.01113
G1 X105.230 Y98.402 E0.01344
G1 X105.835 Y98.420 E0.02307
G1 X109.449 Y98.424 E0.13759
G1 X109.949 Y98.384 E0.01911
G1 X110.205 Y98.401 E0.00979
G1 X110.407 Y98.500 E0.00855
G1 X110.569 Y98.711 E0.01013
G1 X110.646 Y98.938 E0.00912
G1 X110.676 Y99.324 E0.01475
G1 X110.640 Y100.838 E0.05768
G1 X110.555 Y101.416 E0.02221
G1 X110.492 Y101.656 E0.00945
G1 X110.378 Y101.946 E0.01188
G1 X110.271 Y102.138 E0.00837
G1 X110.078 Y102.396 E0.01228
G1 X109.870 Y102.601 E0.01110
G1 X109.479 Y102.881 E0.01832
G1 X109.144 Y103.048 E0.01428
G1 X108.892 Y103.142 E0.01023
G1 X108.491 Y103.245 E0.01576
G1 X107.866 Y103.322 E0.02400
G1 X107.344 Y103.327 E0.01986
G1 X106.995 Y103.301 E0.01332
G1 X106.389 Y103.190 E0.02346
G1 X106.060 Y103.083 E0.01320
G1 X105.745 Y102.943 E0.01312
G1 X105.521 Y102.811 E0.00990
G1 X105.231 Y102.590 E0.01388
G1 X104.978 Y102.329 E0.01383
G1 X104.833 Y102.137 E0.00919
G1 X104.666 Y101.840 E0.01295
G1 X104.582 Y101.629 E0.00865
G1 X104.493 Y101.287 E0.01346
G1 X104.433 Y100.870 E0.01605
G1 X104.406 Y100.350 E0.01983
G1 X104.414 Y99.531 E0.03118
G1 X104.371 Y99.009 E0.01995
G1 X104.434 Y98.749 E0.01020
G1 X104.570 Y98.603 E0.00758
G1 X104.579 Y98.268 F7800.000
G1 F6240
G1 X104.724 Y98.524 E-0.19000
G1 E-0.01000 F7200.00000
G1 Z0.950 F7800.000
G1 X104.056 Y97.869 F7800.000
G1 X109.455 Y95.469 F7800.000
G1 X109.018 Y95.192 F7800.000
G1 Z0.350 F7800.000
G1 E0.20000 F7200.00000
G1 F900
G1 X108.960 Y95.063 E0.00537
G1 X108.907 Y94.756 E0.01186
G1 X109.126 Y95.126 E0.01634
G1 X109.142 Y95.243 E0.00449
G1 X109.090 Y95.249 E0.00199
G1 X109.062 Y95.233 E0.00126
G1 F6240
G1 X108.987 Y95.143 E-0.12800
G1 F6240
G1 X108.968 Y95.090 E-0.06200
G1 E-0.01000 F7200.00000
G1 Z0.950 F7800.000
G1 X109.080 Y94.041 F7800.000
G1 Z0.350 F7800.000
G1 E0.20000 F7200.00000
G1 F900
G1 X109.229 Y93.778 E0.01150
G1 X109.481 Y93.582 E0.01215
G1 X109.767 Y93.493 E0.01142
G1 X109.924 Y93.496 E0.00598
G1 X110.119 Y93.561 E0.00780
G1 X110.351 Y93.742 E0.01121
G1 X110.560 Y94.037 E0.01376
G1 X110.731 Y94.443 E0.01678
G1 X110.802 Y94.766 E0.01258
G1 X110.840 Y95.209 E0.01694
G1 X110.822 Y95.631 E0.01608
G1 X110.734 Y96.096 E0.01803
G1 X110.619 Y96.390 E0.01203
G1 X110.516 Y96.567 E0.00779
G1 X110.333 Y96.789 E0.01097
G1 X110.109 Y96.972 E0.01100
G1 X109.864 Y97.095 E0.01044
G1 X109.611 Y97.160 E0.00996
G1 X109.412 Y97.178 E0.00759
G1 X108.825 Y97.143 E0.02240
G1 X108.493 Y97.053 E0.01311
G1 X108.238 Y96.879 E0.01173
G1 X108.085 Y96.678 E0.00961
G1 X107.993 Y96.481 E0.00828
G1 X107.849 Y96.804 E0.01347
G1 X107.642 Y97.022 E0.01144
G1 X107.349 Y97.178 E0.01264
G1 X106.691 Y97.373 E0.02615
G1 X106.273 Y97.423 E0.01602
G1 X105.969 Y97.398 E0.01159
G1 X105.751 Y97.349 E0.00854
G1 X105.337 Y97.187 E0.01691
G1 X105.132 Y97.067 E0.00906
G1 X104.873 Y96.865 E0.01249
G1 X104.718 Y96.705 E0.00849
G1 X104.530 Y96.444 E0.01223
G1 X104.387 Y96.153 E0.01234
G1 X104.317 Y95.943 E0.00845
G1 X104.255 Y95.618 E0.01258
G1 X104.235 Y95.357 E0.00999
G1 X104.241 Y94.949 E0.01554
G1 X104.270 Y94.702 E0.00945
G1 X104.341 Y94.384 E0.01243
G1 X104.452 Y94.092 E0.01187
G1 X104.640 Y93.807 E0.01302
G1 X104.834 Y93.639 E0.00978
G1 X105.104 Y93.521 E0.01123
G1 X105.311 Y93.491 E0.00798
G1 X105.584 Y93.525 E0.01047
G1 X105.826 Y93.671 E0.01077
G1 X105.974 Y93.906 E0.01056
G1 X106.027 Y94.207 E0.01165
G1 X105.999 Y94.454 E0.00947
G1 X105.925 Y94.656 E0.00817
G1 X105.616 Y95.086 E0.02017
G1 X105.562 Y95.190 E0.00449
G1 X105.543 Y95.324 E0.00512
G1 X105.582 Y95.504 E0.00702
G1 X105.652 Y95.635 E0.00567
G1 X105.795 Y95.785 E0.00788
G1 X105.975 Y95.880 E0.00773
G1 X106.184 Y95.918 E0.00809
G1 X106.331 Y95.903 E0.00563
G1 X106.554 Y95.819 E0.00906
G1 X106.718 Y95.710 E0.00752
G1 X106.870 Y95.560 E0.00814
G1 X106.988 Y95.388 E0.00793
G1 X107.071 Y95.197 E0.00794
G1 X107.167 Y94.708 E0.01899
G1 X107.232 Y94.487 E0.00875
G1 X107.382 Y94.282 E0.00968
G1 X107.625 Y94.179 E0.01004
G1 X107.854 Y94.175 E0.00873
G1 X108.083 Y94.232 E0.00899
G1 X108.236 Y94.308 E0.00651
G1 X108.407 Y94.456 E0.00858
G1 X108.526 Y94.698 E0.01030
G1 X108.603 Y95.153 E0.01757
G1 X108.654 Y95.303 E0.00602
G1 X108.733 Y95.427 E0.00560
G1 X108.840 Y95.528 E0.00561
G1 X108.956 Y95.594 E0.00508
G1 X109.064 Y95.619 E0.00422
G1 X109.227 Y95.604 E0.00624
G1 X109.335 Y95.559 E0.00446
G1 X109.423 Y95.488 E0.00429
G1 X109.476 Y95.408 E0.00366
G1 X109.507 Y95.308 E0.00401
G1 X109.510 Y95.175 E0.00506
G1 X109.477 Y95.016 E0.00619
G1 X109.434 Y94.914 E0.00421
G1 X109.110 Y94.385 E0.02361
G1 X109.070 Y94.241 E0.00570
G1 X109.077 Y94.101 E0.00533
G1 X108.878 Y93.816 F7800.000
G1 F6240
G1 X109.151 Y93.944 E-0.19000
G1 E-0.01000 F7200.00000
G1 Z0.950 F7800.000
G1 X109.386 Y92.524 F7800.000
G1 Z0.350 F7800.000
G1 E0.20000 F7200.00000
G1 F900
G1 X109.319 Y92.312 E0.00847
G1 X109.285 Y91.985 E0.01253
G1 X109.299 Y91.057 E0.03533
G1 X109.257 Y90.961 E0.00398
G1 X109.049 Y90.936 E0.00800
G1 X105.136 Y90.953 E0.14901
G1 X104.887 Y90.908 E0.00963
G1 X104.689 Y90.822 E0.00820
G1 X104.563 Y90.722 E0.00615
G1 X104.440 Y90.546 E0.00817
G1 X104.377 Y90.273 E0.01067
G1 X104.419 Y89.956 E0.01220
G1 X104.551 Y89.721 E0.01023
G1 X104.672 Y89.623 E0.00595
G1 X104.853 Y89.560 E0.00728
G1 X105.076 Y89.550 E0.00849
G1 X105.574 Y89.589 E0.01902
G1 X108.355 Y89.572 E0.10591
G1 X108.926 Y89.608 E0.02180
G1 X109.116 Y89.575 E0.00733
G1 X109.227 Y89.484 E0.00548
G1 X109.307 Y89.299 E0.00765
G1 X109.320 Y89.044 E0.00972
G1 X109.244 Y88.388 E0.02515
G1 X109.280 Y88.113 E0.01056
G1 X109.381 Y87.934 E0.00781
G1 X109.542 Y87.799 E0.00800
G1 X109.744 Y87.715 E0.00836
G1 X109.939 Y87.685 E0.00749
G1 X110.212 Y87.718 E0.01047
G1 X110.477 Y87.858 E0.01144
G1 X110.646 Y88.085 E0.01078
G1 X110.697 Y88.331 E0.00955
