; generated by PrusaSlicer 2.2.0+linux-x64 on 2021-03-10 at 20:56:24 UTC

; 

; external perimeters extrusion width = 0.45mm
; perimeters extrusion width = 0.45mm
; infill extrusion width = 0.45mm
; solid infill extrusion width = 0.45mm
; top infill extrusion width = 0.40mm
; first layer extrusion width = 0.42mm

M201 X9000 Y9000 Z500 E10000 ; sets maximum accelerations, mm/sec^2
M203 X500 Y500 Z12 E120 ; sets maximum feedrates, mm/sec
M204 P1500 R1500 T1500 ; sets acceleration (P, T) and retract acceleration (R), mm/sec^2
M205 X10.00 Y10.00 Z0.20 E2.50 ; sets the jerk limits, mm/sec
M205 S0 T0 ; sets the minimum extruding and travel feed rate, mm/sec
M107
M83  ; extruder relative mode
G0 Z25 ; move z 25 mm up

M104 S230 ; set extruder temp
M140 S85 ; set bed temp
M190 S85 ; wait for bed temp
M109 S230 ; wait for extruder temp

G28 ; home all
; G29 ; mesh bed leveling
G92 E0.0
G1 Y10  F1000.0 ; intro line
G1 X60.0 E9.0  F1000.0 ; intro line
G1 Z0  F1000.0 ; intro line
G1 X100.0 E12.5  F1000.0 ; intro line
G92 E0.0


G21 ; set units to millimeters
G90 ; use absolute coordinates
M83 ; use relative distances for extrusion
M900 K45 ; Filament gcode
G1 E-1.40000 F7200.00000
G1 Z0.200 F7800.000
G1 Z0.400
G1 X51.406 Y17.090
G1 Z0.200
G1 E1.40000 F7200.00000
G1 F1800.000
G1 X53.179 Y15.143 E0.07431
G1 X53.827 Y14.616 E0.02357
G1 X54.538 Y14.177 E0.02357
G1 X56.269 Y13.331 E0.05437
G1 X60.077 Y11.730 E0.11657
G1 X61.569 Y11.331 E0.04358
G1 X62.545 Y11.199 E0.02779
G1 X154.986 Y11.189 E2.60858
G1 X159.621 Y11.565 E0.13123
G1 X161.611 Y11.999 E0.05748
G1 X162.979 Y12.516 E0.04128
G1 X164.853 Y13.672 E0.06213
G1 X165.801 Y14.500 E0.03550
G1 X169.789 Y18.920 E0.16799
G1 X171.000 Y21.095 E0.07025
G1 X171.300 Y22.000 E0.02691
G1 X171.462 Y22.934 E0.02674
G1 X171.468 Y119.048 E2.71223
G1 X170.674 Y139.176 E0.56844
G1 X170.395 Y140.397 E0.03533
G1 X169.223 Y143.515 E0.09401
G1 X168.618 Y144.910 E0.04292
G1 X168.069 Y145.809 E0.02972
G1 X166.998 Y147.072 E0.04674
G1 X166.321 Y147.708 E0.02621
G1 X165.597 Y148.217 E0.02498
G1 X164.003 Y149.104 E0.05147
G1 X163.125 Y149.406 E0.02621
G1 X158.957 Y150.435 E0.12115
G1 X157.134 Y150.766 E0.05228
G1 X156.295 Y150.836 E0.02375
G1 X64.663 Y150.243 E2.58582
G1 X62.277 Y150.041 E0.06756
G1 X57.918 Y148.975 E0.12664
G1 X56.292 Y148.348 E0.04918
G1 X55.230 Y147.721 E0.03480
G1 X53.685 Y146.316 E0.05891
G1 X53.202 Y145.673 E0.02270
G1 X52.551 Y144.591 E0.03565
G1 X50.602 Y140.745 E0.12167
G1 X49.871 Y138.550 E0.06527
G1 X49.670 Y137.139 E0.04023
G1 X49.670 Y22.083 E3.24675
G1 X49.767 Y21.065 E0.02884
G1 X50.024 Y20.076 E0.02884
G1 X50.768 Y18.174 E0.05762
G1 X51.375 Y17.142 E0.03381
G1 F6240.000
G1 X52.188 Y16.241 E-1.33000
G1 E-0.07000 F7200.00000
G1 Z0.400 F7800.000
G1 X156.483 Y19.526
G1 Z0.200
G1 E1.40000 F7200.00000
G1 F1800.000
G1 X157.892 Y18.798 E0.04475
G1 X158.802 Y18.693 E0.02585
G1 X159.747 Y18.919 E0.02741
G1 X160.639 Y19.473 E0.02964
G1 X161.377 Y20.316 E0.03162
G1 X161.873 Y21.360 E0.03261
G1 X161.962 Y21.889 E0.01512
G1 X163.167 Y22.459 E0.03762
G1 X163.982 Y23.135 E0.02988
G1 X164.323 Y23.747 E0.01975
G1 X164.311 Y24.232 E0.01371
G1 X163.971 Y24.743 E0.01732
G1 X163.069 Y25.321 E0.03023
G1 X163.319 Y26.407 E0.03145
G1 X163.259 Y27.094 E0.01945
G1 X162.990 Y27.729 E0.01949
G1 X162.537 Y28.250 E0.01947
G1 X161.946 Y28.606 E0.01946
G1 X161.273 Y28.761 E0.01948
G1 X160.586 Y28.700 E0.01947
G1 X159.855 Y28.391 E0.02240
G1 X159.076 Y29.090 E0.02954
G1 X158.064 Y29.562 E0.03150
G1 X156.886 Y29.774 E0.03378
G1 X155.676 Y29.691 E0.03422
G1 X154.575 Y29.327 E0.03273
G1 X153.704 Y28.739 E0.02964
G1 X153.317 Y28.237 E0.01790
G1 X152.570 Y28.686 E0.02459
G1 X152.203 Y28.771 E0.01062
G1 X151.828 Y28.738 E0.01062
G1 X151.482 Y28.591 E0.01062
G1 X151.198 Y28.344 E0.01062
G1 X151.004 Y28.021 E0.01062
G1 X150.919 Y27.654 E0.01064
G1 X150.952 Y27.280 E0.01059
G1 X151.166 Y26.778 E0.01539
G1 X150.161 Y25.952 E0.03670
G1 X149.327 Y24.778 E0.04065
G1 X148.902 Y23.522 E0.03743
G1 X148.903 Y22.319 E0.03392
G1 X149.305 Y21.275 E0.03157
G1 X150.067 Y20.456 E0.03157
G1 X151.147 Y19.928 E0.03391
G1 X152.463 Y19.760 E0.03744
G1 X153.659 Y19.958 E0.03422
G1 X154.099 Y18.923 E0.03175
G1 X154.346 Y18.639 E0.01060
G1 X154.669 Y18.445 E0.01064
G1 X155.035 Y18.361 E0.01061
G1 X155.411 Y18.394 E0.01064
G1 X155.757 Y18.540 E0.01061
G1 X156.040 Y18.787 E0.01060
G1 X156.452 Y19.475 E0.02262
G1 X156.625 Y19.029 F7800.000
G1 F1800.000
G1 X157.780 Y18.431 E0.03670
G1 X158.825 Y18.311 E0.02967
G1 X159.894 Y18.566 E0.03101
G1 X160.885 Y19.183 E0.03295
G1 X161.695 Y20.107 E0.03468
G1 X162.236 Y21.246 E0.03557
G1 X162.301 Y21.632 E0.01104
G1 X163.371 Y22.138 E0.03342
G1 X164.277 Y22.890 E0.03321
G1 X164.702 Y23.653 E0.02464
G1 X164.685 Y24.350 E0.01969
G1 X164.241 Y25.018 E0.02263
G1 X163.496 Y25.495 E0.02497
G1 X163.700 Y26.381 E0.02564
G1 X163.630 Y27.186 E0.02282
G1 X163.313 Y27.932 E0.02285
G1 X162.783 Y28.543 E0.02284
G1 X162.089 Y28.960 E0.02284
G1 X161.300 Y29.142 E0.02286
G1 X160.494 Y29.071 E0.02283
G1 X159.929 Y28.832 E0.01732
G1 X159.286 Y29.408 E0.02436
G1 X158.179 Y29.925 E0.03446
G1 X156.907 Y30.153 E0.03648
G1 X155.603 Y30.064 E0.03688
G1 X154.407 Y29.669 E0.03554
G1 X153.443 Y29.018 E0.03283
G1 X153.223 Y28.733 E0.01015
G1 X152.713 Y29.040 E0.01680
G1 X152.230 Y29.151 E0.01400
G1 X151.736 Y29.108 E0.01399
G1 X151.279 Y28.915 E0.01399
G1 X150.906 Y28.589 E0.01399
G1 X150.650 Y28.164 E0.01399
G1 X150.539 Y27.680 E0.01401
G1 X150.581 Y27.187 E0.01397
G1 X150.708 Y26.890 E0.00912
G1 X149.883 Y26.212 E0.03014
G1 X148.988 Y24.951 E0.04363
G1 X148.525 Y23.583 E0.04075
G1 X148.526 Y22.249 E0.03765
G1 X148.980 Y21.072 E0.03560
G1 X149.839 Y20.148 E0.03560
G1 X151.037 Y19.562 E0.03764
G1 X152.470 Y19.379 E0.04076
G1 X153.428 Y19.538 E0.02741
G1 X153.775 Y18.721 E0.02506
G1 X154.100 Y18.347 E0.01398
G1 X154.526 Y18.091 E0.01401
G1 X155.008 Y17.980 E0.01398
G1 X155.503 Y18.023 E0.01401
G1 X155.959 Y18.217 E0.01399
G1 X156.333 Y18.542 E0.01398
G1 X156.594 Y18.977 E0.01431
G1 X156.833 Y19.370 F7800.000
G1 F6240.000
G1 X157.696 Y18.470 E-1.33000
G1 E-0.07000 F7200.00000
G1 Z0.400 F7800.000
G1 X161.413 Y20.656
G1 Z0.200
G1 E1.40000 F7200.00000
G1 F1800.000
G1 X160.441 Y19.683 E0.03978
G1 X159.636 Y19.183 E0.02742
G1 X159.318 Y19.107 E0.00946
G1 X161.796 Y21.585 E0.10138
G1 X162.460 Y22.250 F7800.000
G1 F1800.000
G1 X164.204 Y23.993 E0.07132
G1 X164.064 Y24.400 F7800.000
G1 F1800.000
G1 X158.659 Y18.995 E0.22115
G1 X158.168 Y19.051 E0.01428
G1 X163.699 Y24.581 E0.22628
G1 X163.366 Y24.795 E0.01145
G1 X157.757 Y19.186 E0.22949
G1 X157.396 Y19.373 E0.01174
G1 X163.033 Y25.009 E0.23060
G1 X162.748 Y25.191 E0.00976
G1 X162.773 Y25.295 E0.00311
G1 X157.036 Y19.559 E0.23471
G1 X156.676 Y19.745 E0.01174
G1 X162.937 Y26.006 E0.25617
G1 X163.034 Y26.427 E0.01249
G1 X163.016 Y26.632 E0.00596
G1 X155.035 Y18.651 E0.32655
G1 X154.776 Y18.711 E0.00768
G1 X154.633 Y18.796 E0.00481
G1 X162.946 Y27.109 E0.34010
G1 X162.783 Y27.493 E0.01206
G1 X154.353 Y19.062 E0.34492
G1 X154.186 Y19.442 E0.01200
G1 X162.549 Y27.805 E0.34218
G1 X162.353 Y28.031 E0.00865
G1 X162.275 Y28.078 E0.00264
G1 X154.023 Y19.826 E0.33764
G1 X153.859 Y20.209 E0.01206
G1 X161.933 Y28.283 E0.33035
G1 X161.839 Y28.340 E0.00319
G1 X161.518 Y28.414 E0.00954
G1 X153.286 Y20.183 E0.33677
G1 X152.631 Y20.075 E0.01922
G1 X161.010 Y28.454 E0.34283
G1 X160.655 Y28.423 E0.01032
G1 X160.269 Y28.259 E0.01213
G1 X152.101 Y20.091 E0.33419
G1 X151.616 Y20.153 E0.01414
G1 X159.654 Y28.191 E0.32888
G1 X159.366 Y28.450 E0.01120
G1 X151.155 Y20.239 E0.33595
G1 X150.788 Y20.418 E0.01182
G1 X159.078 Y28.708 E0.33917
G1 X158.918 Y28.851 E0.00620
G1 X158.752 Y28.929 E0.00531
G1 X150.421 Y20.598 E0.34085
G1 X150.239 Y20.687 E0.00587
G1 X150.106 Y20.830 E0.00564
G1 X158.379 Y29.103 E0.33849
G1 X158.006 Y29.277 E0.01190
G1 X149.843 Y21.113 E0.33402
G1 X149.579 Y21.396 E0.01119
G1 X157.550 Y29.367 E0.32612
G1 X157.086 Y29.450 E0.01362
G1 X149.415 Y21.779 E0.31389
G1 X149.263 Y22.173 E0.01224
G1 X156.557 Y29.468 E0.29845
G1 X155.970 Y29.428 E0.01702
G1 X149.186 Y22.643 E0.27759
G1 X149.185 Y23.189 E0.01580
G1 X155.248 Y29.252 E0.24805
G1 X154.701 Y29.071 E0.01667
G1 X154.145 Y28.696 E0.01940
G1 X149.318 Y23.869 E0.19750
G1 X149.582 Y24.648 E0.02380
G1 X149.658 Y24.756 E0.00383
G1 X153.000 Y28.098 E0.13672
G1 X152.658 Y28.303 E0.01153
G1 X151.372 Y27.016 E0.05264
G1 X151.230 Y27.349 E0.01048
G1 X151.224 Y27.415 E0.00191
G1 X152.273 Y28.464 E0.04293
G1 X152.183 Y28.485 E0.00267
G1 X151.898 Y28.460 E0.00830
G1 X151.634 Y28.348 E0.00829
G1 X151.071 Y27.809 E0.02253
G1 F6240.000
G1 X151.634 Y28.348 E-0.85346
G1 X151.898 Y28.460 E-0.31418
G1 X152.045 Y28.473 E-0.16237
G1 E-0.07000 F7200.00000
G1 Z0.400 F7800.000
G1 X156.483 Y38.410
G1 Z0.200
G1 E1.40000 F7200.00000
G1 F1800.000
G1 X157.892 Y37.682 E0.04475
G1 X158.802 Y37.577 E0.02585
G1 X159.747 Y37.803 E0.02741
G1 X160.639 Y38.357 E0.02964
G1 X161.377 Y39.200 E0.03162
G1 X161.873 Y40.244 E0.03261
G1 X161.962 Y40.773 E0.01512
G1 X163.167 Y41.343 E0.03762
G1 X163.982 Y42.019 E0.02988
G1 X164.323 Y42.630 E0.01975
G1 X164.311 Y43.116 E0.01371
G1 X163.971 Y43.627 E0.01732
G1 X163.069 Y44.205 E0.03023
G1 X163.319 Y45.291 E0.03145
G1 X163.259 Y45.978 E0.01945
G1 X162.990 Y46.613 E0.01949
G1 X162.537 Y47.134 E0.01947
G1 X161.946 Y47.490 E0.01946
G1 X161.273 Y47.645 E0.01948
G1 X160.586 Y47.584 E0.01947
G1 X159.855 Y47.275 E0.02240
G1 X159.076 Y47.974 E0.02954
G1 X158.064 Y48.446 E0.03150
G1 X156.886 Y48.658 E0.03378
G1 X155.676 Y48.575 E0.03422
G1 X154.575 Y48.211 E0.03273
G1 X153.704 Y47.623 E0.02964
G1 X153.317 Y47.121 E0.01790
G1 X152.570 Y47.570 E0.02459
G1 X152.203 Y47.655 E0.01062
G1 X151.828 Y47.621 E0.01062
G1 X151.482 Y47.475 E0.01062
G1 X151.198 Y47.228 E0.01062
G1 X151.004 Y46.905 E0.01062
G1 X150.919 Y46.538 E0.01064
G1 X150.952 Y46.164 E0.01059
G1 X151.166 Y45.662 E0.01539
G1 X150.161 Y44.836 E0.03670
G1 X149.327 Y43.662 E0.04065
G1 X148.902 Y42.405 E0.03743
G1 X148.903 Y41.203 E0.03392
G1 X149.305 Y40.159 E0.03157
G1 X150.067 Y39.340 E0.03157
G1 X151.147 Y38.812 E0.03391
G1 X152.463 Y38.644 E0.03744
G1 X153.659 Y38.842 E0.03422
G1 X154.099 Y37.807 E0.03175
G1 X154.346 Y37.523 E0.01060
G1 X154.669 Y37.329 E0.01064
G1 X155.035 Y37.245 E0.01061
G1 X155.411 Y37.278 E0.01064
G1 X155.757 Y37.424 E0.01061
G1 X156.040 Y37.671 E0.01060
G1 X156.452 Y38.359 E0.02262
G1 X156.625 Y37.913 F7800.000
G1 F1800.000
G1 X157.780 Y37.315 E0.03670
G1 X158.825 Y37.195 E0.02967
G1 X159.894 Y37.450 E0.03101
G1 X160.885 Y38.067 E0.03295
G1 X161.695 Y38.991 E0.03468
G1 X162.236 Y40.130 E0.03557
G1 X162.301 Y40.516 E0.01104
G1 X163.371 Y41.022 E0.03342
G1 X164.277 Y41.774 E0.03321
G1 X164.702 Y42.537 E0.02464
G1 X164.685 Y43.234 E0.01969
G1 X164.241 Y43.902 E0.02263
G1 X163.496 Y44.379 E0.02497
G1 X163.700 Y45.264 E0.02564
G1 X163.630 Y46.070 E0.02282
G1 X163.313 Y46.816 E0.02285
G1 X162.783 Y47.427 E0.02284
G1 X162.089 Y47.844 E0.02284
G1 X161.300 Y48.025 E0.02286
G1 X160.494 Y47.955 E0.02283
G1 X159.929 Y47.716 E0.01732
G1 X159.286 Y48.292 E0.02436
G1 X158.179 Y48.808 E0.03446
G1 X156.907 Y49.037 E0.03648
G1 X155.603 Y48.948 E0.03688
G1 X154.407 Y48.553 E0.03554
G1 X153.443 Y47.902 E0.03283
G1 X153.223 Y47.617 E0.01015
G1 X152.713 Y47.924 E0.01680
G1 X152.230 Y48.035 E0.01400
G1 X151.736 Y47.992 E0.01399
G1 X151.279 Y47.798 E0.01399
G1 X150.906 Y47.473 E0.01399
G1 X150.650 Y47.048 E0.01399
G1 X150.539 Y46.564 E0.01401
G1 X150.581 Y46.071 E0.01397
G1 X150.708 Y45.774 E0.00912
G1 X149.883 Y45.096 E0.03014
G1 X148.988 Y43.835 E0.04363
G1 X148.525 Y42.467 E0.04075
G1 X148.526 Y41.133 E0.03765
G1 X148.980 Y39.956 E0.03560
G1 X149.839 Y39.032 E0.03560
G1 X151.037 Y38.446 E0.03764
G1 X152.470 Y38.263 E0.04076
G1 X153.428 Y38.422 E0.02741
G1 X153.775 Y37.605 E0.02506
G1 X154.100 Y37.231 E0.01398
G1 X154.526 Y36.975 E0.01401
G1 X155.008 Y36.864 E0.01398
G1 X155.503 Y36.907 E0.01401
G1 X155.959 Y37.101 E0.01399
G1 X156.333 Y37.426 E0.01398
G1 X156.594 Y37.861 E0.01431
G1 X156.833 Y38.254 F7800.000
G1 F6240.000
G1 X157.696 Y37.354 E-1.33000
G1 E-0.07000 F7200.00000
G1 Z0.400 F7800.000
G1 X161.413 Y39.540
G1 Z0.200
G1 E1.40000 F7200.00000
G1 F1800.000
G1 X160.441 Y38.567 E0.03978
G1 X159.636 Y38.067 E0.02742
G1 X159.318 Y37.991 E0.00946
G1 X161.796 Y40.469 E0.10138
G1 X162.460 Y41.133 F7800.000
G1 F1800.000
G1 X164.204 Y42.877 E0.07132
G1 X164.064 Y43.283 F7800.000
G1 F1800.000
G1 X158.659 Y37.878 E0.22115
G1 X158.168 Y37.935 E0.01428
G1 X163.699 Y43.465 E0.22628
G1 X163.366 Y43.679 E0.01145
G1 X157.757 Y38.070 E0.22949
G1 X157.396 Y38.256 E0.01174
G1 X163.033 Y43.893 E0.23060
G1 X162.748 Y44.075 E0.00976
G1 X162.773 Y44.179 E0.00311
G1 X157.036 Y38.443 E0.23471
G1 X156.676 Y38.629 E0.01174
G1 X162.937 Y44.890 E0.25617
G1 X163.034 Y45.311 E0.01249
G1 X163.016 Y45.516 E0.00596
G1 X155.035 Y37.535 E0.32655
G1 X154.776 Y37.595 E0.00768
G1 X154.633 Y37.680 E0.00481
G1 X162.946 Y45.993 E0.34010
G1 X162.783 Y46.377 E0.01206
G1 X154.353 Y37.946 E0.34492
G1 X154.186 Y38.326 E0.01200
G1 X162.549 Y46.689 E0.34218
G1 X162.353 Y46.915 E0.00865
G1 X162.275 Y46.962 E0.00264
G1 X154.023 Y38.710 E0.33764
G1 X153.859 Y39.093 E0.01206
G1 X161.933 Y47.167 E0.33035
G1 X161.839 Y47.224 E0.00319
G1 X161.518 Y47.298 E0.00954
G1 X153.286 Y39.067 E0.33677
G1 X152.631 Y38.958 E0.01922
G1 X161.010 Y47.338 E0.34283
G1 X160.655 Y47.307 E0.01032
G1 X160.269 Y47.143 E0.01213
G1 X152.101 Y38.975 E0.33419
G1 X151.616 Y39.037 E0.01414
G1 X159.654 Y47.075 E0.32888
G1 X159.366 Y47.334 E0.01120
G1 X151.155 Y39.123 E0.33595
G1 X150.788 Y39.302 E0.01182
G1 X159.078 Y47.592 E0.33917
G1 X158.918 Y47.735 E0.00620
G1 X158.752 Y47.813 E0.00531
G1 X150.421 Y39.482 E0.34085
G1 X150.239 Y39.571 E0.00587
G1 X150.106 Y39.714 E0.00564
G1 X158.379 Y47.987 E0.33849
G1 X158.006 Y48.161 E0.01190
G1 X149.843 Y39.997 E0.33402
G1 X149.579 Y40.280 E0.01119
G1 X157.550 Y48.251 E0.32612
G1 X157.086 Y48.334 E0.01362
G1 X149.415 Y40.663 E0.31389
G1 X149.263 Y41.057 E0.01224
G1 X156.557 Y48.352 E0.29845
G1 X155.970 Y48.312 E0.01702
G1 X149.186 Y41.527 E0.27759
G1 X149.185 Y42.073 E0.01580
G1 X155.248 Y48.136 E0.24805
G1 X154.701 Y47.955 E0.01667
G1 X154.145 Y47.580 E0.01940
G1 X149.318 Y42.753 E0.19750
G1 X149.582 Y43.532 E0.02380
G1 X149.658 Y43.640 E0.00383
G1 X153.000 Y46.981 E0.13672
G1 X152.658 Y47.187 E0.01153
G1 X151.372 Y45.900 E0.05264
G1 X151.230 Y46.233 E0.01048
G1 X151.224 Y46.299 E0.00191
G1 X152.273 Y47.348 E0.04293
G1 X152.183 Y47.369 E0.00267
G1 X151.898 Y47.344 E0.00830
G1 X151.634 Y47.232 E0.00829
G1 X151.071 Y46.693 E0.02253
G1 F6240.000
G1 X151.634 Y47.232 E-0.85346
G1 X151.898 Y47.344 E-0.31418
G1 X152.045 Y47.357 E-0.16237
G1 E-0.07000 F7200.00000
G1 Z0.400 F7800.000
G1 X156.483 Y57.294
G1 Z0.200
G1 E1.40000 F7200.00000
G1 F1800.000
G1 X157.892 Y56.566 E0.04475
G1 X158.802 Y56.461 E0.02585
G1 X159.747 Y56.686 E0.02741
G1 X160.639 Y57.241 E0.02964
G1 X161.377 Y58.084 E0.03162
G1 X161.873 Y59.128 E0.03261
G1 X161.962 Y59.656 E0.01512
G1 X163.167 Y60.226 E0.03762
G1 X163.982 Y60.903 E0.02988
G1 X164.323 Y61.514 E0.01975
G1 X164.311 Y62.000 E0.01371
G1 X163.971 Y62.511 E0.01732
G1 X163.069 Y63.089 E0.03023
G1 X163.319 Y64.175 E0.03145
G1 X163.259 Y64.862 E0.01945
G1 X162.990 Y65.497 E0.01949
G1 X162.537 Y66.018 E0.01947
G1 X161.946 Y66.374 E0.01946
G1 X161.273 Y66.529 E0.01948
G1 X160.586 Y66.468 E0.01947
G1 X159.855 Y66.159 E0.02240
G1 X159.076 Y66.858 E0.02954
G1 X158.064 Y67.330 E0.03150
G1 X156.886 Y67.542 E0.03378
G1 X155.676 Y67.459 E0.03422
G1 X154.575 Y67.095 E0.03273
G1 X153.704 Y66.507 E0.02964
G1 X153.317 Y66.005 E0.01790
G1 X152.570 Y66.454 E0.02459
G1 X152.203 Y66.538 E0.01062
G1 X151.828 Y66.505 E0.01062
G1 X151.482 Y66.359 E0.01062
G1 X151.198 Y66.112 E0.01062
G1 X151.004 Y65.789 E0.01062
G1 X150.919 Y65.421 E0.01064
G1 X150.952 Y65.048 E0.01059
G1 X151.166 Y64.546 E0.01539
G1 X150.161 Y63.720 E0.03670
G1 X149.327 Y62.546 E0.04065
G1 X148.902 Y61.289 E0.03743
G1 X148.903 Y60.087 E0.03392
G1 X149.305 Y59.043 E0.03157
G1 X150.067 Y58.224 E0.03157
G1 X151.147 Y57.696 E0.03391
