; generated by PrusaSlicer 2.2.0+linux-x64 on 2021-03-10 at 19:05:13 UTC

; 

; external perimeters extrusion width = 0.45mm
; perimeters extrusion width = 0.45mm
; infill extrusion width = 0.45mm
; solid infill extrusion width = 0.45mm
; top infill extrusion width = 0.40mm
; first layer extrusion width = 0.42mm

M201 X9000 Y9000 Z500 E10000 ; sets maximum accelerations, mm/sec^2
M203 X500 Y500 Z12 E120 ; sets maximum feedrates, mm/sec
M204 P1500 R1500 T1500 ; sets acceleration (P, T) and retract acceleration (R), mm/sec^2
M205 X10.00 Y10.00 Z0.20 E2.50 ; sets the jerk limits, mm/sec
M205 S0 T0 ; sets the minimum extruding and travel feed rate, mm/sec
M107
M83  ; extruder relative mode
G0 Z25 ; move z 25 mm up

M104 S230 ; set extruder temp
M140 S85 ; set bed temp
M190 S85 ; wait for bed temp
M109 S230 ; wait for extruder temp

G28 ; home all
; G29 ; mesh bed leveling
G92 E0.0
G1 Y10  F1000.0 ; intro line
G1 X60.0 E9.0  F1000.0 ; intro line
G1 Z0  F1000.0 ; intro line
G1 X100.0 E12.5  F1000.0 ; intro line
G92 E0.0


G21 ; set units to millimeters
G90 ; use absolute coordinates
M83 ; use relative distances for extrusion
M900 K45 ; Filament gcode
G1 E-1.40000 F7200.00000
G1 Z0.050 F7800.000
G1 Z0.250
G1 X71.465 Y18.267
G1 Z0.050
G1 E1.40000 F7200.00000
G1 F1800.000
G1 X72.460 Y17.539 E0.03480
G1 X73.577 Y17.016 E0.03480
G1 X74.774 Y16.718 E0.03480
G1 X102.228 Y14.257 E0.77783
G1 X104.472 Y14.149 E0.06340
G1 X106.763 Y14.262 E0.06471
G1 X131.741 Y16.730 E0.70831
G1 X132.923 Y17.039 E0.03445
G1 X134.024 Y17.567 E0.03445
G1 X135.004 Y18.295 E0.03445
G1 X135.827 Y19.196 E0.03445
G1 X136.474 Y20.261 E0.03515
G1 X136.902 Y21.431 E0.03515
G1 X139.507 Y33.416 E0.34611
G1 X139.604 Y34.440 E0.02902
G1 X139.605 Y40.532 E0.17192
G1 X139.473 Y41.815 E0.03638
G1 X136.918 Y53.557 E0.33910
G1 X136.481 Y54.776 E0.03656
G1 X135.807 Y55.882 E0.03656
G1 X134.983 Y56.775 E0.03428
G1 X134.006 Y57.496 E0.03428
G1 X132.915 Y58.016 E0.03410
G1 X131.739 Y58.322 E0.03428
G1 X106.767 Y60.790 E0.70812
G1 X104.591 Y60.902 E0.06150
G1 X102.231 Y60.795 E0.06664
G1 X74.976 Y58.361 E0.77218
G1 X74.136 Y58.206 E0.02410
G1 X73.330 Y57.942 E0.02393
G1 X72.566 Y57.574 E0.02393
G1 X71.853 Y57.104 E0.02410
G1 X70.825 Y56.125 E0.04006
G1 X70.042 Y54.949 E0.03988
G1 X69.538 Y53.628 E0.03988
G1 X69.336 Y52.230 E0.03988
G1 X69.338 Y22.776 E0.83113
G1 X69.450 Y21.811 E0.02744
G1 X69.708 Y20.873 E0.02744
G1 X70.105 Y19.986 E0.02744
G1 X70.632 Y19.169 E0.02744
G1 X71.424 Y18.311 E0.03294
G1 F6240.000
G1 X72.397 Y17.586 E-1.33000
G1 E-0.07000 F7200.00000
G1 Z0.250 F7800.000
G1 X128.265 Y23.813
G1 Z0.050
G1 E1.40000 F7200.00000
G1 F1800.000
G1 X130.093 Y23.813 E0.05160
G1 X132.441 Y34.611 E0.31181
G1 X132.441 Y40.441 E0.16454
G1 X130.093 Y51.239 E0.31181
G1 X128.265 Y51.239 E0.05160
G1 X128.265 Y23.873 E0.77223
G1 X127.888 Y23.436 F7800.000
G1 F1800.000
G1 X130.397 Y23.436 E0.07082
G1 X132.818 Y34.570 E0.32153
G1 X132.818 Y40.482 E0.16683
G1 X130.397 Y51.616 E0.32153
G1 X127.888 Y51.616 E0.07082
G1 X127.888 Y23.496 E0.79351
G1 X128.240 Y23.626 F7800.000
G1 F6240.000
G1 X129.101 Y23.467 E-1.33000
G1 E-0.07000 F7200.00000
G1 Z0.250 F7800.000
G1 X129.143 Y51.126
G1 Z0.050
G1 E1.40000 F7200.00000
G1 F1800.000
G1 X128.548 Y50.531 E0.02384
G1 X128.548 Y49.995 E0.01515
G1 X129.508 Y50.956 E0.03847
G1 X129.865 Y50.956 E0.01011
G1 X129.897 Y50.810 E0.00423
G1 X128.548 Y49.460 E0.05404
G1 X128.548 Y48.925 E0.01515
G1 X129.993 Y50.370 E0.05787
G1 X130.088 Y49.931 E0.01274
G1 X128.548 Y48.390 E0.06170
G1 X128.548 Y47.855 E0.01515
G1 X130.184 Y49.491 E0.06552
G1 X130.279 Y49.052 E0.01274
G1 X128.548 Y47.320 E0.06935
G1 X128.548 Y46.785 E0.01515
G1 X130.375 Y48.612 E0.07318
G1 X130.471 Y48.173 E0.01274
G1 X128.548 Y46.250 E0.07700
G1 X128.548 Y45.715 E0.01515
G1 X130.566 Y47.733 E0.08083
G1 X130.662 Y47.294 E0.01274
G1 X128.548 Y45.180 E0.08466
G1 X128.548 Y44.644 E0.01515
G1 X130.757 Y46.854 E0.08848
G1 X130.853 Y46.414 E0.01274
G1 X128.548 Y44.109 E0.09231
G1 X128.548 Y43.574 E0.01515
G1 X130.948 Y45.975 E0.09614
G1 X131.044 Y45.535 E0.01274
G1 X128.548 Y43.039 E0.09996
G1 X128.548 Y42.504 E0.01515
G1 X131.139 Y45.096 E0.10379
G1 X131.235 Y44.656 E0.01274
G1 X128.548 Y41.969 E0.10761
G1 X128.548 Y41.434 E0.01515
G1 X131.331 Y44.217 E0.11144
G1 X131.426 Y43.777 E0.01274
G1 X128.548 Y40.899 E0.11527
G1 X128.548 Y40.364 E0.01515
G1 X131.522 Y43.338 E0.11909
G1 X131.617 Y42.898 E0.01274
G1 X128.548 Y39.828 E0.12292
G1 X128.548 Y39.293 E0.01515
G1 X131.713 Y42.459 E0.12675
G1 X131.808 Y42.019 E0.01274
G1 X128.548 Y38.758 E0.13057
G1 X128.548 Y38.223 E0.01515
G1 X131.904 Y41.579 E0.13440
G1 X131.999 Y41.140 E0.01274
G1 X128.548 Y37.688 E0.13823
G1 X128.548 Y37.153 E0.01515
G1 X132.095 Y40.700 E0.14205
G1 X132.158 Y40.411 E0.00838
G1 X132.158 Y40.228 E0.00518
G1 X128.548 Y36.618 E0.14457
G1 X128.548 Y36.083 E0.01515
G1 X132.158 Y39.693 E0.14457
G1 X132.158 Y39.158 E0.01515
G1 X128.548 Y35.548 E0.14457
G1 X128.548 Y35.013 E0.01515
G1 X132.158 Y38.623 E0.14457
G1 X132.158 Y38.088 E0.01515
G1 X128.548 Y34.477 E0.14457
G1 X128.548 Y33.942 E0.01515
G1 X132.158 Y37.553 E0.14457
G1 X132.158 Y37.017 E0.01515
G1 X128.548 Y33.407 E0.14457
G1 X128.548 Y32.872 E0.01515
G1 X132.158 Y36.482 E0.14457
G1 X132.158 Y35.947 E0.01515
G1 X128.548 Y32.337 E0.14457
G1 X128.548 Y31.802 E0.01515
G1 X132.158 Y35.412 E0.14457
G1 X132.158 Y34.877 E0.01515
G1 X128.548 Y31.267 E0.14457
G1 X128.548 Y30.732 E0.01515
G1 X132.075 Y34.259 E0.14125
G1 X131.926 Y33.575 E0.01981
G1 X128.548 Y30.197 E0.13529
G1 X128.548 Y29.662 E0.01515
G1 X131.778 Y32.891 E0.12934
G1 X131.629 Y32.208 E0.01981
G1 X128.548 Y29.126 E0.12339
G1 X128.548 Y28.591 E0.01515
G1 X131.480 Y31.524 E0.11744
G1 X131.332 Y30.840 E0.01981
G1 X128.548 Y28.056 E0.11148
G1 X128.548 Y27.521 E0.01515
G1 X131.183 Y30.156 E0.10553
G1 X131.034 Y29.473 E0.01981
G1 X128.548 Y26.986 E0.09958
G1 X128.548 Y26.451 E0.01515
G1 X130.886 Y28.789 E0.09363
G1 X130.737 Y28.105 E0.01981
G1 X128.548 Y25.916 E0.08768
G1 X128.548 Y25.381 E0.01515
G1 X130.588 Y27.421 E0.08172
G1 X130.440 Y26.738 E0.01981
G1 X128.548 Y24.846 E0.07577
G1 X128.548 Y24.310 E0.01515
G1 X130.291 Y26.054 E0.06982
G1 X130.142 Y25.370 E0.01981
G1 X128.868 Y24.096 E0.05103
G1 X129.403 Y24.096 E0.01515
G1 X130.216 Y24.908 E0.03254
G1 F6240.000
G1 X129.403 Y24.096 E-1.25956
G1 X129.339 Y24.096 E-0.07044
G1 E-0.07000 F7200.00000
G1 Z0.250 F7800.000
G1 X107.922 Y35.968
G1 Z0.050
G1 E1.40000 F7200.00000
G1 F1800.000
G1 X108.060 Y36.320 E0.01066
G1 X108.162 Y36.683 E0.01066
G1 X108.227 Y37.055 E0.01066
G1 X108.256 Y37.432 E0.01066
G1 X108.246 Y37.809 E0.01066
G1 X108.199 Y38.184 E0.01066
G1 X108.115 Y38.552 E0.01066
G1 X107.993 Y38.917 E0.01086
G1 X107.753 Y39.414 E0.01556
G1 X107.544 Y39.737 E0.01086
G1 X107.309 Y40.032 E0.01066
G1 X107.045 Y40.303 E0.01066
G1 X106.756 Y40.545 E0.01066
G1 X106.444 Y40.758 E0.01066
G1 X106.112 Y40.939 E0.01066
G1 X105.764 Y41.085 E0.01066
G1 X105.404 Y41.197 E0.01066
G1 X105.034 Y41.272 E0.01066
G1 X104.658 Y41.309 E0.01066
G1 X104.280 Y41.309 E0.01066
G1 X103.904 Y41.272 E0.01066
G1 X103.534 Y41.197 E0.01066
G1 X103.173 Y41.085 E0.01066
G1 X102.825 Y40.939 E0.01066
G1 X102.494 Y40.758 E0.01066
G1 X102.182 Y40.545 E0.01066
G1 X101.893 Y40.303 E0.01066
G1 X101.629 Y40.032 E0.01066
G1 X101.393 Y39.737 E0.01066
G1 X101.189 Y39.420 E0.01066
G1 X101.016 Y39.084 E0.01066
G1 X100.878 Y38.732 E0.01066
G1 X100.776 Y38.369 E0.01066
G1 X100.710 Y37.997 E0.01066
G1 X100.682 Y37.620 E0.01066
G1 X100.692 Y37.243 E0.01066
G1 X100.739 Y36.868 E0.01066
G1 X100.823 Y36.500 E0.01066
G1 X100.943 Y36.142 E0.01066
G1 X101.098 Y35.798 E0.01066
G1 X101.287 Y35.471 E0.01066
G1 X101.507 Y35.164 E0.01066
G1 X101.757 Y34.881 E0.01066
G1 X102.034 Y34.624 E0.01066
G1 X102.335 Y34.396 E0.01066
G1 X102.657 Y34.199 E0.01066
G1 X102.998 Y34.036 E0.01066
G1 X103.352 Y33.906 E0.01066
G1 X103.726 Y33.811 E0.01087
G1 X104.275 Y33.743 E0.01562
G1 X104.658 Y33.743 E0.01081
G1 X105.034 Y33.780 E0.01065
G1 X105.404 Y33.855 E0.01066
G1 X105.764 Y33.967 E0.01066
G1 X106.112 Y34.113 E0.01066
G1 X106.444 Y34.294 E0.01066
G1 X106.756 Y34.507 E0.01066
G1 X107.045 Y34.749 E0.01066
G1 X107.309 Y35.020 E0.01066
G1 X107.544 Y35.315 E0.01066
G1 X107.749 Y35.632 E0.01066
G1 X107.894 Y35.915 E0.00896
G1 X107.559 Y36.087 F7800.000
G1 F1800.000
G1 X107.702 Y36.440 E0.01075
G1 X107.794 Y36.767 E0.00959
G1 X107.853 Y37.102 E0.00959
G1 X107.878 Y37.441 E0.00959
G1 X107.870 Y37.781 E0.00959
G1 X107.827 Y38.118 E0.00959
G1 X107.752 Y38.450 E0.00959
G1 X107.643 Y38.774 E0.00967
G1 X107.424 Y39.229 E0.01424
G1 X107.238 Y39.517 E0.00967
G1 X107.026 Y39.783 E0.00959
G1 X106.789 Y40.026 E0.00959
G1 X106.528 Y40.244 E0.00959
G1 X106.247 Y40.436 E0.00959
G1 X105.949 Y40.599 E0.00959
G1 X105.635 Y40.731 E0.00959
G1 X105.310 Y40.831 E0.00959
G1 X104.977 Y40.898 E0.00959
G1 X104.639 Y40.932 E0.00959
G1 X104.299 Y40.932 E0.00959
G1 X103.961 Y40.898 E0.00959
G1 X103.627 Y40.831 E0.00959
G1 X103.303 Y40.731 E0.00959
G1 X102.989 Y40.599 E0.00959
G1 X102.691 Y40.436 E0.00959
G1 X102.410 Y40.244 E0.00959
G1 X102.149 Y40.026 E0.00959
G1 X101.912 Y39.783 E0.00959
G1 X101.700 Y39.517 E0.00959
G1 X101.516 Y39.231 E0.00959
G1 X101.360 Y38.929 E0.00959
G1 X101.236 Y38.612 E0.00959
G1 X101.144 Y38.285 E0.00959
G1 X101.085 Y37.950 E0.00959
G1 X101.060 Y37.611 E0.00959
G1 X101.068 Y37.271 E0.00959
G1 X101.110 Y36.934 E0.00959
G1 X101.186 Y36.602 E0.00959
G1 X101.294 Y36.280 E0.00959
G1 X101.434 Y35.970 E0.00959
G1 X101.604 Y35.676 E0.00959
G1 X101.803 Y35.400 E0.00959
G1 X102.028 Y35.145 E0.00959
G1 X102.277 Y34.914 E0.00959
G1 X102.548 Y34.708 E0.00959
G1 X102.838 Y34.531 E0.00959
G1 X103.144 Y34.383 E0.00959
G1 X103.464 Y34.267 E0.00959
G1 X103.796 Y34.183 E0.00967
G1 X104.298 Y34.120 E0.01429
G1 X104.639 Y34.120 E0.00961
G1 X104.977 Y34.154 E0.00959
G1 X105.310 Y34.221 E0.00959
G1 X105.635 Y34.321 E0.00959
G1 X105.949 Y34.453 E0.00959
G1 X106.247 Y34.616 E0.00959
G1 X106.528 Y34.808 E0.00959
G1 X106.789 Y35.026 E0.00959
G1 X107.026 Y35.269 E0.00959
G1 X107.238 Y35.535 E0.00959
G1 X107.422 Y35.821 E0.00959
G1 X107.531 Y36.033 E0.00674
G1 X107.938 Y36.122 F7800.000
G1 F6240.000
G1 X107.702 Y36.440 E-0.48315
G1 X107.794 Y36.767 E-0.37267
G1 X107.853 Y37.102 E-0.37267
G1 X107.860 Y37.194 E-0.10150
G1 E-0.07000 F7200.00000
G1 Z0.250 F7800.000
G1 X119.065 Y30.479
G1 Z0.050
G1 E1.40000 F7200.00000
G1 F1800.000
G1 X119.247 Y30.858 E0.01186
G1 X119.561 Y31.603 E0.02281
G1 X119.837 Y32.362 E0.02281
G1 X120.076 Y33.135 E0.02281
G1 X120.275 Y33.918 E0.02281
G1 X120.435 Y34.711 E0.02281
G1 X120.556 Y35.510 E0.02281
G1 X120.636 Y36.314 E0.02281
G1 X120.677 Y37.122 E0.02281
G1 X120.677 Y37.930 E0.02281
G1 X120.636 Y38.738 E0.02281
G1 X120.556 Y39.542 E0.02281
G1 X120.435 Y40.341 E0.02281
G1 X120.275 Y41.134 E0.02281
G1 X120.076 Y41.917 E0.02281
G1 X119.837 Y42.690 E0.02281
G1 X119.561 Y43.449 E0.02281
G1 X119.247 Y44.194 E0.02281
G1 X118.896 Y44.922 E0.02281
G1 X118.510 Y45.632 E0.02281
G1 X118.088 Y46.322 E0.02281
G1 X117.633 Y46.990 E0.02281
G1 X117.145 Y47.634 E0.02281
G1 X116.625 Y48.254 E0.02281
G1 X116.075 Y48.846 E0.02281
G1 X115.496 Y49.411 E0.02281
G1 X114.890 Y49.946 E0.02281
G1 X114.258 Y50.450 E0.02281
G1 X113.602 Y50.922 E0.02281
G1 X112.923 Y51.360 E0.02281
G1 X112.223 Y51.764 E0.02281
G1 X111.503 Y52.133 E0.02281
G1 X110.767 Y52.466 E0.02281
G1 X110.014 Y52.761 E0.02281
G1 X109.248 Y53.018 E0.02281
G1 X108.470 Y53.237 E0.02281
G1 X107.681 Y53.417 E0.02281
G1 X106.885 Y53.558 E0.02281
G1 X106.083 Y53.658 E0.02281
G1 X105.277 Y53.719 E0.02281
G1 X104.469 Y53.739 E0.02281
G1 X103.661 Y53.719 E0.02281
G1 X102.855 Y53.658 E0.02281
G1 X102.053 Y53.558 E0.02281
G1 X101.256 Y53.417 E0.02281
G1 X100.468 Y53.237 E0.02281
G1 X99.690 Y53.018 E0.02281
G1 X98.924 Y52.761 E0.02281
G1 X98.171 Y52.466 E0.02281
G1 X97.435 Y52.133 E0.02281
G1 X96.715 Y51.764 E0.02281
G1 X96.015 Y51.360 E0.02281
G1 X95.336 Y50.922 E0.02281
G1 X94.680 Y50.450 E0.02281
G1 X94.048 Y49.946 E0.02281
G1 X93.442 Y49.411 E0.02281
G1 X92.863 Y48.846 E0.02281
G1 X92.313 Y48.254 E0.02281
G1 X91.793 Y47.634 E0.02281
G1 X91.305 Y46.990 E0.02281
G1 X90.850 Y46.322 E0.02281
G1 X90.428 Y45.632 E0.02281
G1 X90.042 Y44.922 E0.02281
G1 X89.691 Y44.194 E0.02281
G1 X89.377 Y43.449 E0.02281
G1 X89.101 Y42.690 E0.02281
G1 X88.862 Y41.917 E0.02281
G1 X88.663 Y41.134 E0.02281
G1 X88.503 Y40.341 E0.02281
G1 X88.382 Y39.542 E0.02281
G1 X88.302 Y38.738 E0.02281
G1 X88.261 Y37.930 E0.02281
G1 X88.261 Y37.122 E0.02281
G1 X88.302 Y36.314 E0.02281
G1 X88.382 Y35.510 E0.02281
G1 X88.503 Y34.711 E0.02281
G1 X88.663 Y33.918 E0.02281
G1 X88.862 Y33.135 E0.02281
G1 X89.101 Y32.362 E0.02281
G1 X89.377 Y31.603 E0.02281
G1 X89.691 Y30.858 E0.02281
G1 X90.042 Y30.130 E0.02281
G1 X90.428 Y29.420 E0.02281
G1 X90.850 Y28.730 E0.02281
G1 X91.305 Y28.062 E0.02281
G1 X91.793 Y27.418 E0.02281
G1 X92.313 Y26.798 E0.02281
G1 X92.863 Y26.206 E0.02281
G1 X93.442 Y25.641 E0.02281
G1 X94.048 Y25.106 E0.02281
G1 X94.680 Y24.602 E0.02281
G1 X95.336 Y24.130 E0.02281
G1 X96.015 Y23.692 E0.02281
G1 X96.715 Y23.288 E0.02281
G1 X97.435 Y22.919 E0.02281
G1 X98.171 Y22.586 E0.02281
G1 X98.924 Y22.291 E0.02281
G1 X99.690 Y22.034 E0.02281
G1 X100.468 Y21.815 E0.02281
G1 X101.256 Y21.635 E0.02281
G1 X102.053 Y21.494 E0.02281
G1 X102.855 Y21.394 E0.02281
G1 X103.661 Y21.333 E0.02281
G1 X104.469 Y21.313 E0.02281
G1 X105.277 Y21.333 E0.02281
G1 X106.083 Y21.394 E0.02281
G1 X106.885 Y21.494 E0.02281
G1 X107.681 Y21.635 E0.02281
G1 X108.470 Y21.815 E0.02281
G1 X109.248 Y22.034 E0.02281
G1 X110.014 Y22.291 E0.02281
G1 X110.767 Y22.586 E0.02281
G1 X111.503 Y22.919 E0.02281
G1 X112.223 Y23.288 E0.02281
G1 X112.923 Y23.692 E0.02281
G1 X113.602 Y24.130 E0.02281
G1 X114.258 Y24.602 E0.02281
G1 X114.890 Y25.106 E0.02281
G1 X115.496 Y25.641 E0.02281
G1 X116.075 Y26.206 E0.02281
G1 X116.625 Y26.798 E0.02281
G1 X117.145 Y27.418 E0.02281
G1 X117.633 Y28.062 E0.02281
G1 X118.088 Y28.730 E0.02281
G1 X118.510 Y29.420 E0.02281
G1 X119.038 Y30.425 E0.03206
G1 X119.378 Y30.262 F7800.000
G1 F1800.000
G1 X119.591 Y30.703 E0.01382
G1 X119.912 Y31.465 E0.02334
G1 X120.195 Y32.242 E0.02334
G1 X120.439 Y33.033 E0.02334
G1 X120.643 Y33.834 E0.02334
G1 X120.807 Y34.645 E0.02334
G1 X120.930 Y35.463 E0.02334
G1 X121.012 Y36.286 E0.02334
G1 X121.054 Y37.112 E0.02334
G1 X121.054 Y37.940 E0.02334
G1 X121.012 Y38.766 E0.02334
G1 X120.930 Y39.589 E0.02334
G1 X120.807 Y40.407 E0.02334
G1 X120.643 Y41.218 E0.02334
G1 X120.439 Y42.019 E0.02334
G1 X120.195 Y42.810 E0.02334
G1 X119.912 Y43.587 E0.02334
G1 X119.591 Y44.349 E0.02334
G1 X119.232 Y45.094 E0.02334
G1 X118.836 Y45.821 E0.02334
G1 X118.405 Y46.527 E0.02334
G1 X117.939 Y47.210 E0.02334
G1 X117.439 Y47.870 E0.02334
G1 X116.908 Y48.503 E0.02334
G1 X116.345 Y49.110 E0.02334
G1 X115.753 Y49.687 E0.02334
G1 X115.133 Y50.235 E0.02334
G1 X114.486 Y50.750 E0.02334
G1 X113.814 Y51.233 E0.02334
G1 X113.120 Y51.682 E0.02334
G1 X112.403 Y52.096 E0.02334
G1 X111.667 Y52.473 E0.02334
G1 X110.913 Y52.813 E0.02334
G1 X110.143 Y53.115 E0.02334
G1 X109.359 Y53.379 E0.02334
G1 X108.563 Y53.603 E0.02334
G1 X107.756 Y53.787 E0.02334
G1 X106.942 Y53.931 E0.02334
G1 X106.121 Y54.033 E0.02334
G1 X105.296 Y54.095 E0.02334
G1 X104.469 Y54.116 E0.02334
G1 X103.642 Y54.095 E0.02334
G1 X102.817 Y54.033 E0.02334
G1 X101.996 Y53.931 E0.02334
G1 X101.182 Y53.787 E0.02334
G1 X100.375 Y53.603 E0.02334
G1 X99.579 Y53.379 E0.02334
G1 X98.795 Y53.115 E0.02334
G1 X98.025 Y52.813 E0.02334
G1 X97.271 Y52.473 E0.02334
G1 X96.535 Y52.096 E0.02334
G1 X95.818 Y51.682 E0.02334
G1 X95.124 Y51.233 E0.02334
G1 X94.452 Y50.750 E0.02334
G1 X93.805 Y50.235 E0.02334
G1 X93.185 Y49.687 E0.02334
G1 X92.593 Y49.110 E0.02334
G1 X92.030 Y48.503 E0.02334
G1 X91.498 Y47.870 E0.02334
G1 X90.999 Y47.210 E0.02334
G1 X90.533 Y46.527 E0.02334
G1 X90.102 Y45.821 E0.02334
G1 X89.706 Y45.094 E0.02334
G1 X89.347 Y44.349 E0.02334
G1 X89.026 Y43.587 E0.02334
G1 X88.743 Y42.810 E0.02334
G1 X88.499 Y42.019 E0.02334
G1 X88.295 Y41.218 E0.02334
G1 X88.131 Y40.407 E0.02334
